(G-CODE GENERATED BY FLATCAM v8.994 - www.flatcam.org - Version Date: 2020/11/7)

(Name: MatrixDisplay-B_Cu.gbr_iso_combined_cnc)
(Type: G-code from Geometry)
(Units: MM)

(Created on Wednesday, 20 April 2022 at 21:07)

(This preprocessor is the default preprocessor used by FlatCAM.)
(It is made to work with MACH3 compatible motion controllers.)

(TOOL DIAMETER: 0.8 mm)
(Feedrate_XY: 100.0 mm/min)
(Feedrate_Z: 60.0 mm/min)
(Feedrate rapids 1500.0 mm/min)

(Z_Cut: -0.11 mm)
(Z_Move: 2.0 mm)
(Z Start: None mm)
(Z End: 5.0 mm)
(X,Y End: None mm)
(Steps per circle: 64)
(Preprocessor Geometry: Default_no_M6)

(X range:    6.7547 ...   56.5520  mm)
(Y range:    7.6560 ...   68.4112  mm)

(Spindle Speed: 1000.0 RPM)
G21
G90
G94

G01 F100.00

M5
G00 Z15.0000
G00 X0.0000 Y0.0000
T1
(MSG, Change to Tool Dia = 0.8000)
M0
G00 Z15.0000
        
M03 S1000.0
G4 P1.0
G01 F100.00
G00 X18.5027 Y9.0558
G01 F60.00
G01 Z-0.1100
G01 F100.00
G01 X22.1725 Y9.0559
G01 X22.2216 Y9.0582
G01 X22.2412 Y9.0597
G01 X22.2606 Y9.0621
G01 X22.2995 Y9.0678
G01 X22.3284 Y9.0732
G01 X22.3761 Y9.0850
G01 X22.3950 Y9.0903
G01 X22.4136 Y9.0964
G01 X22.4506 Y9.1096
G01 X22.4689 Y9.1167
G01 X22.4869 Y9.1247
G01 X22.5224 Y9.1415
G01 X22.5399 Y9.1503
G01 X22.5570 Y9.1600
G01 X22.5991 Y9.1853
G01 X22.6154 Y9.1962
G01 X22.6549 Y9.2254
G01 X22.6704 Y9.2374
G01 X22.6852 Y9.2503
G01 X22.7143 Y9.2766
G01 X22.7285 Y9.2902
G01 X30.8565 Y17.4182
G01 X30.8701 Y17.4324
G01 X30.8965 Y17.4615
G01 X30.9093 Y17.4764
G01 X30.9214 Y17.4918
G01 X30.9448 Y17.5234
G01 X30.9561 Y17.5394
G01 X30.9666 Y17.5560
G01 X30.9868 Y17.5897
G01 X30.9964 Y17.6068
G01 X31.0053 Y17.6243
G01 X31.0221 Y17.6598
G01 X31.0300 Y17.6778
G01 X31.0371 Y17.6961
G01 X31.0503 Y17.7331
G01 X31.0565 Y17.7517
G01 X31.0617 Y17.7706
G01 X31.0712 Y17.8087
G01 X31.0755 Y17.8279
G01 X31.0789 Y17.8472
G01 X31.0847 Y17.8861
G01 X31.0871 Y17.9056
G01 X31.0885 Y17.9251
G01 X31.0904 Y17.9644
G01 X31.0909 Y17.9840
G01 X31.0909 Y29.1600
G01 X31.0904 Y29.1796
G01 X31.0885 Y29.2189
G01 X31.0871 Y29.2384
G01 X31.0847 Y29.2579
G01 X31.0789 Y29.2968
G01 X31.0755 Y29.3161
G01 X31.0712 Y29.3353
G01 X31.0617 Y29.3734
G01 X31.0565 Y29.3923
G01 X31.0503 Y29.4109
G01 X31.0371 Y29.4479
G01 X31.0261 Y29.4752
G01 X31.0053 Y29.5197
G01 X30.9964 Y29.5372
G01 X30.9868 Y29.5543
G01 X30.9614 Y29.5963
G01 X30.9448 Y29.6206
G01 X30.9214 Y29.6522
G01 X30.9093 Y29.6676
G01 X30.8965 Y29.6825
G01 X30.8634 Y29.7188
G01 X28.5765 Y32.0057
G01 X28.5402 Y32.0387
G01 X28.5254 Y32.0516
G01 X28.5099 Y32.0636
G01 X28.4783 Y32.0870
G01 X28.4623 Y32.0983
G01 X28.4457 Y32.1088
G01 X28.4120 Y32.1290
G01 X28.3949 Y32.1387
G01 X28.3774 Y32.1475
G01 X28.3419 Y32.1643
G01 X28.3239 Y32.1723
G01 X28.3056 Y32.1794
G01 X28.2686 Y32.1926
G01 X28.2500 Y32.1987
G01 X28.2311 Y32.2040
G01 X28.1930 Y32.2135
G01 X28.1738 Y32.2178
G01 X28.1545 Y32.2212
G01 X28.1156 Y32.2269
G01 X28.0962 Y32.2293
G01 X28.0766 Y32.2308
G01 X28.0275 Y32.2331
G01 X24.0076 Y32.2332
G01 X23.9664 Y32.2705
G01 X23.9516 Y32.2833
G01 X23.9361 Y32.2954
G01 X23.8729 Y32.3421
G01 X23.8483 Y32.3581
G01 X23.7893 Y32.3934
G01 X23.7635 Y32.4076
G01 X23.6926 Y32.4413
G01 X23.6747 Y32.4493
G01 X23.6564 Y32.4563
G01 X23.5824 Y32.4827
G01 X23.5541 Y32.4909
G01 X23.4875 Y32.5076
G01 X23.4683 Y32.5119
G01 X23.4490 Y32.5152
G01 X23.3810 Y32.5253
G01 X23.3615 Y32.5277
G01 X23.3420 Y32.5291
G01 X23.2733 Y32.5325
G01 X23.2537 Y32.5330
G01 X22.2537 Y32.5330
G01 X22.2341 Y32.5325
G01 X22.1655 Y32.5291
G01 X22.1361 Y32.5266
G01 X22.0585 Y32.5152
G01 X22.0391 Y32.5119
G01 X22.0200 Y32.5076
G01 X21.9533 Y32.4909
G01 X21.9344 Y32.4856
G01 X21.9158 Y32.4795
G01 X21.8511 Y32.4563
G01 X21.8328 Y32.4493
G01 X21.8148 Y32.4413
G01 X21.7527 Y32.4119
G01 X21.7352 Y32.4031
G01 X21.7181 Y32.3934
G01 X21.6592 Y32.3581
G01 X21.6426 Y32.3476
G01 X21.6265 Y32.3363
G01 X21.5714 Y32.2954
G01 X21.5559 Y32.2833
G01 X21.5410 Y32.2705
G01 X21.4901 Y32.2244
G01 X21.4759 Y32.2108
G01 X21.4624 Y32.1966
G01 X21.4162 Y32.1457
G01 X21.4034 Y32.1308
G01 X21.3913 Y32.1154
G01 X21.3504 Y32.0602
G01 X21.3391 Y32.0441
G01 X21.3286 Y32.0275
G01 X21.2933 Y31.9686
G01 X21.2836 Y31.9515
G01 X21.2748 Y31.9340
G01 X21.2454 Y31.8719
G01 X21.2375 Y31.8540
G01 X21.2304 Y31.8356
G01 X21.2072 Y31.7710
G01 X21.2011 Y31.7523
G01 X21.1958 Y31.7334
G01 X21.1792 Y31.6668
G01 X21.1749 Y31.6476
G01 X21.1715 Y31.6283
G01 X21.1614 Y31.5603
G01 X21.1590 Y31.5408
G01 X21.1576 Y31.5212
G01 X21.1542 Y31.4526
G01 X21.1537 Y31.4330
G01 X21.1542 Y31.4134
G01 X21.1582 Y31.3350
G01 X21.1614 Y31.3057
G01 X21.1731 Y31.2281
G01 X21.1792 Y31.1992
G01 X21.1958 Y31.1326
G01 X21.2041 Y31.1043
G01 X21.2304 Y31.0304
G01 X21.2375 Y31.0120
G01 X21.2454 Y30.9941
G01 X21.2748 Y30.9320
G01 X21.2836 Y30.9145
G01 X21.2933 Y30.8974
G01 X21.3286 Y30.8385
G01 X21.3391 Y30.8219
G01 X21.3504 Y30.8058
G01 X21.3913 Y30.7506
G01 X21.4034 Y30.7352
G01 X21.4162 Y30.7203
G01 X21.4624 Y30.6694
G01 X21.4759 Y30.6552
G01 X21.4901 Y30.6416
G01 X21.5410 Y30.5955
G01 X21.5559 Y30.5827
G01 X21.5714 Y30.5706
G01 X21.6265 Y30.5297
G01 X21.6426 Y30.5184
G01 X21.6592 Y30.5079
G01 X21.7266 Y30.4676
G01 X21.7527 Y30.4541
G01 X21.8148 Y30.4247
G01 X21.8328 Y30.4167
G01 X21.8511 Y30.4097
G01 X21.9158 Y30.3865
G01 X21.9344 Y30.3804
G01 X21.9533 Y30.3751
G01 X22.0200 Y30.3584
G01 X22.0391 Y30.3541
G01 X22.0585 Y30.3508
G01 X22.1264 Y30.3407
G01 X22.1459 Y30.3383
G01 X22.1655 Y30.3369
G01 X22.2341 Y30.3335
G01 X22.2537 Y30.3330
G01 X23.2537 Y30.3330
G01 X23.2733 Y30.3335
G01 X23.3420 Y30.3369
G01 X23.3615 Y30.3383
G01 X23.3810 Y30.3407
G01 X23.4490 Y30.3508
G01 X23.4683 Y30.3541
G01 X23.4875 Y30.3584
G01 X23.5541 Y30.3751
G01 X23.5824 Y30.3833
G01 X23.6564 Y30.4097
G01 X23.6747 Y30.4167
G01 X23.6926 Y30.4247
G01 X23.7635 Y30.4584
G01 X23.7893 Y30.4726
G01 X23.8483 Y30.5079
G01 X23.8729 Y30.5239
G01 X23.9361 Y30.5706
G01 X23.9516 Y30.5827
G01 X23.9664 Y30.5955
G01 X24.0076 Y30.6328
G01 X27.6863 Y30.6328
G01 X29.4905 Y28.8285
G01 X29.4905 Y18.3155
G01 X21.8313 Y10.6562
G01 X18.5027 Y10.6562
G01 X18.4909 Y10.6888
G01 X18.4793 Y10.7159
G01 X18.4038 Y10.8755
G01 X18.3949 Y10.8931
G01 X18.3853 Y10.9102
G01 X18.2945 Y11.0617
G01 X18.2840 Y11.0783
G01 X18.2726 Y11.0943
G01 X18.1674 Y11.2362
G01 X18.1553 Y11.2517
G01 X18.1425 Y11.2665
G01 X18.0239 Y11.3974
G01 X18.0104 Y11.4116
G01 X17.9961 Y11.4252
G01 X17.8653 Y11.5438
G01 X17.8504 Y11.5566
G01 X17.8349 Y11.5687
G01 X17.6930 Y11.6739
G01 X17.6770 Y11.6852
G01 X17.6604 Y11.6957
G01 X17.5089 Y11.7865
G01 X17.4918 Y11.7962
G01 X17.4743 Y11.8051
G01 X17.3146 Y11.8806
G01 X17.2966 Y11.8885
G01 X17.2783 Y11.8956
G01 X17.1120 Y11.9551
G01 X17.0933 Y11.9613
G01 X17.0744 Y11.9665
G01 X16.9031 Y12.0094
G01 X16.8839 Y12.0137
G01 X16.8646 Y12.0171
G01 X16.6898 Y12.0430
G01 X16.6704 Y12.0454
G01 X16.6508 Y12.0469
G01 X16.4743 Y12.0555
G01 X16.4547 Y12.0560
G01 X16.4351 Y12.0555
G01 X16.2587 Y12.0469
G01 X16.2391 Y12.0454
G01 X16.2196 Y12.0430
G01 X16.0449 Y12.0171
G01 X16.0255 Y12.0137
G01 X16.0064 Y12.0094
G01 X15.8350 Y11.9665
G01 X15.8161 Y11.9613
G01 X15.7975 Y11.9551
G01 X15.6311 Y11.8956
G01 X15.6128 Y11.8885
G01 X15.5949 Y11.8806
G01 X15.4352 Y11.8051
G01 X15.4176 Y11.7962
G01 X15.4006 Y11.7865
G01 X15.2491 Y11.6957
G01 X15.2325 Y11.6852
G01 X15.2164 Y11.6739
G01 X15.0745 Y11.5687
G01 X15.0591 Y11.5566
G01 X15.0442 Y11.5438
G01 X14.9133 Y11.4252
G01 X14.8991 Y11.4116
G01 X14.8855 Y11.3974
G01 X14.7669 Y11.2665
G01 X14.7541 Y11.2517
G01 X14.7420 Y11.2362
G01 X14.6368 Y11.0943
G01 X14.6255 Y11.0783
G01 X14.6150 Y11.0617
G01 X14.5242 Y10.9102
G01 X14.5145 Y10.8931
G01 X14.5057 Y10.8755
G01 X14.4301 Y10.7159
G01 X14.4222 Y10.6979
G01 X14.4151 Y10.6796
G01 X14.3556 Y10.5133
G01 X14.3495 Y10.4946
G01 X14.3442 Y10.4757
G01 X14.3013 Y10.3044
G01 X14.2970 Y10.2852
G01 X14.2936 Y10.2659
G01 X14.2677 Y10.0911
G01 X14.2653 Y10.0716
G01 X14.2639 Y10.0521
G01 X14.2552 Y9.8756
G01 X14.2547 Y9.8560
G01 X14.2552 Y9.8364
G01 X14.2639 Y9.6599
G01 X14.2653 Y9.6404
G01 X14.2677 Y9.6209
G01 X14.2936 Y9.4461
G01 X14.2970 Y9.4268
G01 X14.3013 Y9.4076
G01 X14.3442 Y9.2363
G01 X14.3495 Y9.2174
G01 X14.3556 Y9.1987
G01 X14.4151 Y9.0324
G01 X14.4222 Y9.0141
G01 X14.4301 Y8.9961
G01 X14.5057 Y8.8365
G01 X14.5145 Y8.8189
G01 X14.5242 Y8.8018
G01 X14.6150 Y8.6503
G01 X14.6255 Y8.6337
G01 X14.6368 Y8.6177
G01 X14.7420 Y8.4758
G01 X14.7541 Y8.4603
G01 X14.7669 Y8.4455
G01 X14.8855 Y8.3146
G01 X14.8991 Y8.3004
G01 X14.9133 Y8.2868
G01 X15.0442 Y8.1682
G01 X15.0591 Y8.1554
G01 X15.0745 Y8.1433
G01 X15.2164 Y8.0381
G01 X15.2325 Y8.0268
G01 X15.2491 Y8.0163
G01 X15.4006 Y7.9255
G01 X15.4176 Y7.9158
G01 X15.4352 Y7.9069
G01 X15.5949 Y7.8314
G01 X15.6128 Y7.8235
G01 X15.6311 Y7.8164
G01 X15.7975 Y7.7569
G01 X15.8161 Y7.7507
G01 X15.8350 Y7.7455
G01 X16.0064 Y7.7026
G01 X16.0255 Y7.6983
G01 X16.0449 Y7.6949
G01 X16.2196 Y7.6690
G01 X16.2391 Y7.6666
G01 X16.2587 Y7.6651
G01 X16.4351 Y7.6565
G01 X16.4547 Y7.6560
G01 X16.4743 Y7.6565
G01 X16.6508 Y7.6651
G01 X16.6704 Y7.6666
G01 X16.6898 Y7.6690
G01 X16.8646 Y7.6949
G01 X16.8839 Y7.6983
G01 X16.9031 Y7.7026
G01 X17.0744 Y7.7455
G01 X17.0933 Y7.7507
G01 X17.1120 Y7.7569
G01 X17.2783 Y7.8164
G01 X17.2966 Y7.8235
G01 X17.3146 Y7.8314
G01 X17.4743 Y7.9069
G01 X17.4918 Y7.9158
G01 X17.5089 Y7.9255
G01 X17.6604 Y8.0163
G01 X17.6770 Y8.0268
G01 X17.6930 Y8.0381
G01 X17.8349 Y8.1433
G01 X17.8504 Y8.1554
G01 X17.8653 Y8.1682
G01 X17.9961 Y8.2868
G01 X18.0104 Y8.3004
G01 X18.0239 Y8.3146
G01 X18.1425 Y8.4455
G01 X18.1553 Y8.4603
G01 X18.1674 Y8.4758
G01 X18.2726 Y8.6177
G01 X18.2840 Y8.6337
G01 X18.2945 Y8.6503
G01 X18.3853 Y8.8018
G01 X18.3995 Y8.8276
G01 X18.4834 Y9.0051
G01 X18.4909 Y9.0232
G01 X18.5027 Y9.0558
G00 Z2.0000
G00 X20.1164 Y22.7897
G01 F60.00
G01 Z-0.1100
G01 F100.00
G01 X20.1347 Y22.7967
G01 X20.1526 Y22.8047
G01 X20.2147 Y22.8341
G01 X20.2323 Y22.8429
G01 X20.2493 Y22.8526
G01 X20.3083 Y22.8879
G01 X20.3248 Y22.8984
G01 X20.3409 Y22.9097
G01 X20.3961 Y22.9506
G01 X20.4116 Y22.9627
G01 X20.4264 Y22.9755
G01 X20.4845 Y23.0283
G01 X20.5051 Y23.0494
G01 X20.5512 Y23.1003
G01 X20.5702 Y23.1228
G01 X20.6170 Y23.1858
G01 X20.6283 Y23.2019
G01 X20.6388 Y23.2185
G01 X20.6742 Y23.2774
G01 X20.6838 Y23.2945
G01 X20.6927 Y23.3120
G01 X20.7220 Y23.3741
G01 X20.7300 Y23.3920
G01 X20.7371 Y23.4104
G01 X20.7602 Y23.4750
G01 X20.7664 Y23.4937
G01 X20.7716 Y23.5126
G01 X20.7883 Y23.5792
G01 X20.7926 Y23.5984
G01 X20.7959 Y23.6177
G01 X20.8073 Y23.6954
G01 X20.8099 Y23.7248
G01 X20.8132 Y23.7934
G01 X20.8136 Y23.8228
G01 X20.8099 Y23.9012
G01 X20.8084 Y23.9208
G01 X20.8060 Y23.9403
G01 X20.7959 Y24.0083
G01 X20.7926 Y24.0276
G01 X20.7883 Y24.0468
G01 X20.7716 Y24.1134
G01 X20.7664 Y24.1323
G01 X20.7602 Y24.1510
G01 X20.7371 Y24.2156
G01 X20.7300 Y24.2340
G01 X20.7220 Y24.2519
G01 X20.6927 Y24.3140
G01 X20.6838 Y24.3315
G01 X20.6742 Y24.3486
G01 X20.6388 Y24.4075
G01 X20.6283 Y24.4241
G01 X20.6170 Y24.4402
G01 X20.5761 Y24.4954
G01 X20.5640 Y24.5108
G01 X20.5512 Y24.5257
G01 X20.5051 Y24.5766
G01 X20.4915 Y24.5908
G01 X20.4773 Y24.6044
G01 X20.4264 Y24.6505
G01 X20.4116 Y24.6633
G01 X20.3961 Y24.6754
G01 X20.3329 Y24.7221
G01 X20.3083 Y24.7381
G01 X20.2493 Y24.7734
G01 X20.2323 Y24.7831
G01 X20.2147 Y24.7919
G01 X20.1526 Y24.8213
G01 X20.1347 Y24.8293
G01 X20.1164 Y24.8363
G01 X20.0517 Y24.8595
G01 X20.0330 Y24.8656
G01 X20.0141 Y24.8709
G01 X19.9475 Y24.8876
G01 X19.9283 Y24.8919
G01 X19.9090 Y24.8952
G01 X19.8410 Y24.9053
G01 X19.8215 Y24.9077
G01 X19.8020 Y24.9091
G01 X19.7333 Y24.9125
G01 X19.7137 Y24.9130
G01 X18.7137 Y24.9130
G01 X18.6941 Y24.9125
G01 X18.6255 Y24.9091
G01 X18.5961 Y24.9066
G01 X18.5185 Y24.8952
G01 X18.4895 Y24.8898
G01 X18.4038 Y24.8684
G01 X18.3758 Y24.8595
G01 X18.3019 Y24.8329
G01 X18.2748 Y24.8213
G01 X18.2127 Y24.7919
G01 X18.1952 Y24.7831
G01 X18.1781 Y24.7734
G01 X18.1192 Y24.7381
G01 X18.0945 Y24.7221
G01 X18.0236 Y24.6694
G01 X18.0010 Y24.6505
G01 X17.9429 Y24.5977
G01 X17.9224 Y24.5766
G01 X17.8762 Y24.5257
G01 X17.8634 Y24.5108
G01 X17.8513 Y24.4954
G01 X17.8047 Y24.4322
G01 X17.7886 Y24.4075
G01 X17.7533 Y24.3486
G01 X17.7436 Y24.3315
G01 X17.7348 Y24.3140
G01 X17.7054 Y24.2519
G01 X17.6975 Y24.2340
G01 X17.6904 Y24.2156
G01 X17.6672 Y24.1510
G01 X17.6611 Y24.1323
G01 X17.6558 Y24.1134
G01 X17.6392 Y24.0468
G01 X17.6349 Y24.0276
G01 X17.6315 Y24.0083
G01 X17.6214 Y23.9403
G01 X17.6190 Y23.9208
G01 X17.6176 Y23.9012
G01 X17.6142 Y23.8326
G01 X17.6137 Y23.8130
G01 X17.6142 Y23.7934
G01 X17.6176 Y23.7248
G01 X17.6190 Y23.7052
G01 X17.6214 Y23.6857
G01 X17.6315 Y23.6177
G01 X17.6349 Y23.5984
G01 X17.6392 Y23.5792
G01 X17.6558 Y23.5126
G01 X17.6611 Y23.4937
G01 X17.6672 Y23.4750
G01 X17.6904 Y23.4104
G01 X17.6975 Y23.3920
G01 X17.7054 Y23.3741
G01 X17.7348 Y23.3120
G01 X17.7436 Y23.2945
G01 X17.7533 Y23.2774
G01 X17.7886 Y23.2185
G01 X17.7991 Y23.2019
G01 X17.8104 Y23.1858
G01 X17.8513 Y23.1306
G01 X17.8634 Y23.1152
G01 X17.8762 Y23.1003
G01 X17.9224 Y23.0494
G01 X17.9359 Y23.0352
G01 X17.9501 Y23.0216
G01 X18.0010 Y22.9755
G01 X18.0159 Y22.9627
G01 X18.0314 Y22.9506
G01 X18.0945 Y22.9039
G01 X18.1192 Y22.8879
G01 X18.1781 Y22.8526
G01 X18.2039 Y22.8384
G01 X18.2748 Y22.8047
G01 X18.2928 Y22.7967
G01 X18.3111 Y22.7897
G01 X18.3758 Y22.7665
G01 X18.3944 Y22.7604
G01 X18.4133 Y22.7551
G01 X18.4800 Y22.7384
G01 X18.4991 Y22.7341
G01 X18.5185 Y22.7308
G01 X18.5864 Y22.7207
G01 X18.6059 Y22.7183
G01 X18.6255 Y22.7169
G01 X18.6941 Y22.7135
G01 X18.7137 Y22.7130
G01 X19.7137 Y22.7130
G01 X19.7333 Y22.7135
G01 X19.8020 Y22.7169
G01 X19.8215 Y22.7183
G01 X19.8410 Y22.7207
G01 X19.9090 Y22.7308
G01 X19.9283 Y22.7341
G01 X19.9475 Y22.7384
G01 X20.0141 Y22.7551
G01 X20.0330 Y22.7604
G01 X20.0517 Y22.7665
G01 X20.1164 Y22.7897
G00 Z2.0000
G00 X20.1164 Y25.3297
G01 F60.00
G01 Z-0.1100
G01 F100.00
G01 X20.1347 Y25.3367
G01 X20.1526 Y25.3447
G01 X20.2147 Y25.3741
G01 X20.2323 Y25.3829
G01 X20.2493 Y25.3926
G01 X20.3083 Y25.4279
G01 X20.3248 Y25.4384
G01 X20.3409 Y25.4497
G01 X20.3961 Y25.4906
G01 X20.4116 Y25.5027
G01 X20.4264 Y25.5155
G01 X20.4845 Y25.5683
G01 X20.5051 Y25.5894
G01 X20.5512 Y25.6403
G01 X20.5702 Y25.6628
G01 X20.6170 Y25.7258
G01 X20.6283 Y25.7419
G01 X20.6388 Y25.7585
G01 X20.6742 Y25.8174
G01 X20.6838 Y25.8345
G01 X20.6927 Y25.8520
G01 X20.7220 Y25.9141
G01 X20.7300 Y25.9320
G01 X20.7371 Y25.9504
G01 X20.7602 Y26.0150
G01 X20.7664 Y26.0337
G01 X20.7716 Y26.0526
G01 X20.7883 Y26.1192
G01 X20.7926 Y26.1384
G01 X20.7959 Y26.1577
G01 X20.8073 Y26.2354
G01 X20.8099 Y26.2648
G01 X20.8132 Y26.3334
G01 X20.8136 Y26.3628
G01 X20.8099 Y26.4412
G01 X20.8084 Y26.4608
G01 X20.8060 Y26.4803
G01 X20.7959 Y26.5483
G01 X20.7926 Y26.5676
G01 X20.7883 Y26.5868
G01 X20.7716 Y26.6534
G01 X20.7664 Y26.6723
G01 X20.7602 Y26.6910
G01 X20.7371 Y26.7556
G01 X20.7300 Y26.7740
G01 X20.7220 Y26.7919
G01 X20.6927 Y26.8540
G01 X20.6838 Y26.8715
G01 X20.6742 Y26.8886
G01 X20.6388 Y26.9475
G01 X20.6283 Y26.9641
G01 X20.6170 Y26.9802
G01 X20.5761 Y27.0354
G01 X20.5640 Y27.0508
G01 X20.5512 Y27.0657
G01 X20.5051 Y27.1166
G01 X20.4915 Y27.1308
G01 X20.4773 Y27.1444
G01 X20.4264 Y27.1905
G01 X20.4116 Y27.2033
G01 X20.3961 Y27.2154
G01 X20.3329 Y27.2621
G01 X20.3083 Y27.2781
G01 X20.2493 Y27.3134
G01 X20.2323 Y27.3231
G01 X20.2147 Y27.3319
G01 X20.1526 Y27.3613
G01 X20.1347 Y27.3693
G01 X20.1164 Y27.3763
G01 X20.0517 Y27.3995
G01 X20.0330 Y27.4056
G01 X20.0141 Y27.4109
G01 X19.9475 Y27.4276
G01 X19.9283 Y27.4319
G01 X19.9090 Y27.4352
G01 X19.8410 Y27.4453
G01 X19.8215 Y27.4477
G01 X19.8020 Y27.4491
G01 X19.7333 Y27.4525
G01 X19.7137 Y27.4530
G01 X18.7137 Y27.4530
G01 X18.6941 Y27.4525
G01 X18.6255 Y27.4491
G01 X18.5961 Y27.4466
G01 X18.5185 Y27.4352
G01 X18.4895 Y27.4298
G01 X18.4038 Y27.4084
G01 X18.3758 Y27.3995
G01 X18.3019 Y27.3729
G01 X18.2748 Y27.3613
G01 X18.2127 Y27.3319
G01 X18.1952 Y27.3231
G01 X18.1781 Y27.3134
G01 X18.1192 Y27.2781
G01 X18.0945 Y27.2621
G01 X18.0236 Y27.2094
G01 X18.0010 Y27.1905
G01 X17.9429 Y27.1377
G01 X17.9224 Y27.1166
G01 X17.8762 Y27.0657
G01 X17.8634 Y27.0508
G01 X17.8513 Y27.0354
G01 X17.8047 Y26.9722
G01 X17.7886 Y26.9475
G01 X17.7533 Y26.8886
G01 X17.7436 Y26.8715
G01 X17.7348 Y26.8540
G01 X17.7054 Y26.7919
G01 X17.6975 Y26.7740
G01 X17.6904 Y26.7556
G01 X17.6672 Y26.6910
G01 X17.6611 Y26.6723
G01 X17.6558 Y26.6534
G01 X17.6392 Y26.5868
G01 X17.6349 Y26.5676
G01 X17.6315 Y26.5483
G01 X17.6214 Y26.4803
G01 X17.6190 Y26.4608
G01 X17.6176 Y26.4412
G01 X17.6142 Y26.3726
G01 X17.6137 Y26.3530
G01 X17.6142 Y26.3334
G01 X17.6176 Y26.2648
G01 X17.6190 Y26.2452
G01 X17.6214 Y26.2257
G01 X17.6315 Y26.1577
G01 X17.6349 Y26.1384
G01 X17.6392 Y26.1192
G01 X17.6558 Y26.0526
G01 X17.6611 Y26.0337
G01 X17.6672 Y26.0150
G01 X17.6904 Y25.9504
G01 X17.6975 Y25.9320
G01 X17.7054 Y25.9141
G01 X17.7348 Y25.8520
G01 X17.7436 Y25.8345
G01 X17.7533 Y25.8174
G01 X17.7886 Y25.7585
G01 X17.7991 Y25.7419
G01 X17.8104 Y25.7258
G01 X17.8513 Y25.6706
G01 X17.8634 Y25.6552
G01 X17.8762 Y25.6403
G01 X17.9224 Y25.5894
G01 X17.9359 Y25.5752
G01 X17.9501 Y25.5616
G01 X18.0010 Y25.5155
G01 X18.0159 Y25.5027
G01 X18.0314 Y25.4906
G01 X18.0945 Y25.4439
G01 X18.1192 Y25.4279
G01 X18.1781 Y25.3926
G01 X18.2039 Y25.3784
G01 X18.2748 Y25.3447
G01 X18.2928 Y25.3367
G01 X18.3111 Y25.3297
G01 X18.3758 Y25.3065
G01 X18.3944 Y25.3004
G01 X18.4133 Y25.2951
G01 X18.4800 Y25.2784
G01 X18.4991 Y25.2741
G01 X18.5185 Y25.2708
G01 X18.5864 Y25.2607
G01 X18.6059 Y25.2583
G01 X18.6255 Y25.2569
G01 X18.6941 Y25.2535
G01 X18.7137 Y25.2530
G01 X19.7137 Y25.2530
G01 X19.7333 Y25.2535
G01 X19.8020 Y25.2569
G01 X19.8215 Y25.2583
G01 X19.8410 Y25.2607
G01 X19.9090 Y25.2708
G01 X19.9283 Y25.2741
G01 X19.9475 Y25.2784
G01 X20.0141 Y25.2951
G01 X20.0330 Y25.3004
G01 X20.0517 Y25.3065
G01 X20.1164 Y25.3297
G00 Z2.0000
G00 X20.1164 Y27.8697
G01 F60.00
G01 Z-0.1100
G01 F100.00
G01 X20.1347 Y27.8767
G01 X20.1526 Y27.8847
G01 X20.2147 Y27.9141
G01 X20.2323 Y27.9229
G01 X20.2493 Y27.9326
G01 X20.3083 Y27.9679
G01 X20.3248 Y27.9784
G01 X20.3409 Y27.9897
G01 X20.3961 Y28.0306
G01 X20.4116 Y28.0427
G01 X20.4264 Y28.0555
G01 X20.4845 Y28.1083
G01 X20.5051 Y28.1294
G01 X20.5512 Y28.1803
G01 X20.5702 Y28.2028
G01 X20.6170 Y28.2658
G01 X20.6283 Y28.2819
G01 X20.6388 Y28.2985
G01 X20.6742 Y28.3574
G01 X20.6838 Y28.3745
G01 X20.6927 Y28.3920
G01 X20.7220 Y28.4541
G01 X20.7300 Y28.4720
G01 X20.7371 Y28.4904
G01 X20.7602 Y28.5550
G01 X20.7664 Y28.5737
G01 X20.7716 Y28.5926
G01 X20.7883 Y28.6592
G01 X20.7926 Y28.6784
G01 X20.7959 Y28.6977
G01 X20.8073 Y28.7754
G01 X20.8099 Y28.8048
G01 X20.8132 Y28.8734
G01 X20.8136 Y28.9028
G01 X20.8099 Y28.9812
G01 X20.8084 Y29.0008
G01 X20.8060 Y29.0203
G01 X20.7959 Y29.0883
G01 X20.7926 Y29.1076
G01 X20.7883 Y29.1268
G01 X20.7716 Y29.1934
G01 X20.7664 Y29.2123
G01 X20.7602 Y29.2310
G01 X20.7371 Y29.2956
G01 X20.7300 Y29.3140
G01 X20.7220 Y29.3319
G01 X20.6927 Y29.3940
G01 X20.6838 Y29.4115
G01 X20.6742 Y29.4286
G01 X20.6388 Y29.4875
G01 X20.6283 Y29.5041
G01 X20.6170 Y29.5202
G01 X20.5761 Y29.5754
G01 X20.5640 Y29.5908
G01 X20.5512 Y29.6057
G01 X20.5051 Y29.6566
G01 X20.4915 Y29.6708
G01 X20.4773 Y29.6844
G01 X20.4264 Y29.7305
G01 X20.4116 Y29.7433
G01 X20.3961 Y29.7554
G01 X20.3329 Y29.8021
G01 X20.3083 Y29.8181
G01 X20.2493 Y29.8534
G01 X20.2323 Y29.8631
G01 X20.2147 Y29.8719
G01 X20.1526 Y29.9013
G01 X20.1347 Y29.9093
G01 X20.1164 Y29.9163
G01 X20.0517 Y29.9395
G01 X20.0330 Y29.9456
G01 X20.0141 Y29.9509
G01 X19.9475 Y29.9676
G01 X19.9283 Y29.9719
G01 X19.9090 Y29.9752
G01 X19.8410 Y29.9853
G01 X19.8215 Y29.9877
G01 X19.8020 Y29.9891
G01 X19.7333 Y29.9925
G01 X19.7137 Y29.9930
G01 X18.7137 Y29.9930
G01 X18.6941 Y29.9925
G01 X18.6255 Y29.9891
G01 X18.5961 Y29.9866
G01 X18.5185 Y29.9752
G01 X18.4895 Y29.9698
G01 X18.4038 Y29.9484
G01 X18.3758 Y29.9395
G01 X18.3019 Y29.9129
G01 X18.2748 Y29.9013
G01 X18.2127 Y29.8719
G01 X18.1952 Y29.8631
G01 X18.1781 Y29.8534
G01 X18.1192 Y29.8181
G01 X18.0945 Y29.8021
G01 X18.0236 Y29.7494
G01 X18.0010 Y29.7305
G01 X17.9429 Y29.6777
G01 X17.9224 Y29.6566
G01 X17.8762 Y29.6057
G01 X17.8634 Y29.5908
G01 X17.8513 Y29.5754
G01 X17.8047 Y29.5122
G01 X17.7886 Y29.4875
G01 X17.7533 Y29.4286
G01 X17.7436 Y29.4115
G01 X17.7348 Y29.3940
G01 X17.7054 Y29.3319
G01 X17.6975 Y29.3140
G01 X17.6904 Y29.2956
G01 X17.6672 Y29.2310
G01 X17.6611 Y29.2123
G01 X17.6558 Y29.1934
G01 X17.6392 Y29.1268
G01 X17.6349 Y29.1076
G01 X17.6315 Y29.0883
G01 X17.6214 Y29.0203
G01 X17.6190 Y29.0008
G01 X17.6176 Y28.9812
G01 X17.6142 Y28.9126
G01 X17.6137 Y28.8930
G01 X17.6142 Y28.8734
G01 X17.6176 Y28.8048
G01 X17.6190 Y28.7852
G01 X17.6214 Y28.7657
G01 X17.6315 Y28.6977
G01 X17.6349 Y28.6784
G01 X17.6392 Y28.6592
G01 X17.6558 Y28.5926
G01 X17.6611 Y28.5737
G01 X17.6672 Y28.5550
G01 X17.6904 Y28.4904
G01 X17.6975 Y28.4720
G01 X17.7054 Y28.4541
G01 X17.7348 Y28.3920
G01 X17.7436 Y28.3745
G01 X17.7533 Y28.3574
G01 X17.7886 Y28.2985
G01 X17.7991 Y28.2819
G01 X17.8104 Y28.2658
G01 X17.8513 Y28.2106
G01 X17.8634 Y28.1952
G01 X17.8762 Y28.1803
G01 X17.9224 Y28.1294
G01 X17.9359 Y28.1152
G01 X17.9501 Y28.1016
G01 X18.0010 Y28.0555
G01 X18.0159 Y28.0427
G01 X18.0314 Y28.0306
G01 X18.0945 Y27.9839
G01 X18.1192 Y27.9679
G01 X18.1781 Y27.9326
G01 X18.2039 Y27.9184
G01 X18.2748 Y27.8847
G01 X18.2928 Y27.8767
G01 X18.3111 Y27.8697
G01 X18.3758 Y27.8465
G01 X18.3944 Y27.8404
G01 X18.4133 Y27.8351
G01 X18.4800 Y27.8184
G01 X18.4991 Y27.8141
G01 X18.5185 Y27.8108
G01 X18.5864 Y27.8007
G01 X18.6059 Y27.7983
G01 X18.6255 Y27.7969
G01 X18.6941 Y27.7935
G01 X18.7137 Y27.7930
G01 X19.7137 Y27.7930
G01 X19.7333 Y27.7935
G01 X19.8020 Y27.7969
G01 X19.8215 Y27.7983
G01 X19.8410 Y27.8007
G01 X19.9090 Y27.8108
G01 X19.9283 Y27.8141
G01 X19.9475 Y27.8184
G01 X20.0141 Y27.8351
G01 X20.0330 Y27.8404
G01 X20.0517 Y27.8465
G01 X20.1164 Y27.8697
G00 Z2.0000
G00 X20.1164 Y30.4097
G01 F60.00
G01 Z-0.1100
G01 F100.00
G01 X20.1347 Y30.4167
G01 X20.1526 Y30.4247
G01 X20.2147 Y30.4541
G01 X20.2323 Y30.4629
G01 X20.2493 Y30.4726
G01 X20.3083 Y30.5079
G01 X20.3248 Y30.5184
G01 X20.3409 Y30.5297
G01 X20.3961 Y30.5706
G01 X20.4116 Y30.5827
G01 X20.4264 Y30.5955
G01 X20.4845 Y30.6483
G01 X20.5051 Y30.6694
G01 X20.5512 Y30.7203
G01 X20.5702 Y30.7428
G01 X20.6170 Y30.8058
G01 X20.6283 Y30.8219
G01 X20.6388 Y30.8385
G01 X20.6742 Y30.8974
G01 X20.6838 Y30.9145
G01 X20.6927 Y30.9320
G01 X20.7220 Y30.9941
G01 X20.7300 Y31.0120
G01 X20.7371 Y31.0304
G01 X20.7602 Y31.0950
G01 X20.7664 Y31.1137
G01 X20.7716 Y31.1326
G01 X20.7883 Y31.1992
G01 X20.7926 Y31.2184
G01 X20.7959 Y31.2377
G01 X20.8073 Y31.3154
G01 X20.8099 Y31.3448
G01 X20.8132 Y31.4134
G01 X20.8136 Y31.4428
G01 X20.8099 Y31.5212
G01 X20.8084 Y31.5408
G01 X20.8060 Y31.5603
G01 X20.7959 Y31.6283
G01 X20.7926 Y31.6476
G01 X20.7883 Y31.6668
G01 X20.7716 Y31.7334
G01 X20.7664 Y31.7523
G01 X20.7602 Y31.7710
G01 X20.7371 Y31.8356
G01 X20.7300 Y31.8540
G01 X20.7220 Y31.8719
G01 X20.6927 Y31.9340
G01 X20.6838 Y31.9515
G01 X20.6742 Y31.9686
G01 X20.6388 Y32.0275
G01 X20.6283 Y32.0441
G01 X20.6170 Y32.0602
G01 X20.5761 Y32.1154
G01 X20.5640 Y32.1308
G01 X20.5512 Y32.1457
G01 X20.5051 Y32.1966
G01 X20.4915 Y32.2108
G01 X20.4773 Y32.2244
G01 X20.4264 Y32.2705
G01 X20.4116 Y32.2833
G01 X20.3961 Y32.2954
G01 X20.3329 Y32.3421
G01 X20.3083 Y32.3581
G01 X20.2493 Y32.3934
G01 X20.2323 Y32.4031
G01 X20.2147 Y32.4119
G01 X20.1526 Y32.4413
G01 X20.1347 Y32.4493
G01 X20.1164 Y32.4563
G01 X20.0517 Y32.4795
G01 X20.0330 Y32.4856
G01 X20.0141 Y32.4909
G01 X19.9475 Y32.5076
G01 X19.9283 Y32.5119
G01 X19.9090 Y32.5152
G01 X19.8410 Y32.5253
G01 X19.8215 Y32.5277
G01 X19.8020 Y32.5291
G01 X19.7333 Y32.5325
G01 X19.7137 Y32.5330
G01 X18.7137 Y32.5330
G01 X18.6941 Y32.5325
G01 X18.6255 Y32.5291
G01 X18.5961 Y32.5266
G01 X18.5185 Y32.5152
G01 X18.4895 Y32.5098
G01 X18.4038 Y32.4884
G01 X18.3758 Y32.4795
G01 X18.3019 Y32.4529
G01 X18.2748 Y32.4413
G01 X18.2127 Y32.4119
G01 X18.1952 Y32.4031
G01 X18.1781 Y32.3934
G01 X18.1192 Y32.3581
G01 X18.0945 Y32.3421
G01 X18.0236 Y32.2894
G01 X18.0010 Y32.2705
G01 X17.9429 Y32.2177
G01 X17.9224 Y32.1966
G01 X17.8762 Y32.1457
G01 X17.8634 Y32.1308
G01 X17.8513 Y32.1154
G01 X17.8047 Y32.0522
G01 X17.7886 Y32.0275
G01 X17.7533 Y31.9686
G01 X17.7436 Y31.9515
G01 X17.7348 Y31.9340
G01 X17.7054 Y31.8719
G01 X17.6975 Y31.8540
G01 X17.6904 Y31.8356
G01 X17.6672 Y31.7710
G01 X17.6611 Y31.7523
G01 X17.6558 Y31.7334
G01 X17.6392 Y31.6668
G01 X17.6349 Y31.6476
G01 X17.6315 Y31.6283
G01 X17.6214 Y31.5603
G01 X17.6190 Y31.5408
G01 X17.6176 Y31.5212
G01 X17.6142 Y31.4526
G01 X17.6137 Y31.4330
G01 X17.6142 Y31.4134
G01 X17.6176 Y31.3448
G01 X17.6190 Y31.3252
G01 X17.6214 Y31.3057
G01 X17.6315 Y31.2377
G01 X17.6349 Y31.2184
G01 X17.6392 Y31.1992
G01 X17.6558 Y31.1326
G01 X17.6611 Y31.1137
G01 X17.6672 Y31.0950
G01 X17.6904 Y31.0304
G01 X17.6975 Y31.0120
G01 X17.7054 Y30.9941
G01 X17.7348 Y30.9320
G01 X17.7436 Y30.9145
G01 X17.7533 Y30.8974
G01 X17.7886 Y30.8385
G01 X17.7991 Y30.8219
G01 X17.8104 Y30.8058
G01 X17.8513 Y30.7506
G01 X17.8634 Y30.7352
G01 X17.8762 Y30.7203
G01 X17.9224 Y30.6694
G01 X17.9359 Y30.6552
G01 X17.9501 Y30.6416
G01 X18.0010 Y30.5955
G01 X18.0159 Y30.5827
G01 X18.0314 Y30.5706
G01 X18.0945 Y30.5239
G01 X18.1192 Y30.5079
G01 X18.1781 Y30.4726
G01 X18.2039 Y30.4584
G01 X18.2748 Y30.4247
G01 X18.2928 Y30.4167
G01 X18.3111 Y30.4097
G01 X18.3758 Y30.3865
G01 X18.3944 Y30.3804
G01 X18.4133 Y30.3751
G01 X18.4800 Y30.3584
G01 X18.4991 Y30.3541
G01 X18.5185 Y30.3508
G01 X18.5864 Y30.3407
G01 X18.6059 Y30.3383
G01 X18.6255 Y30.3369
G01 X18.6941 Y30.3335
G01 X18.7137 Y30.3330
G01 X19.7137 Y30.3330
G01 X19.7333 Y30.3335
G01 X19.8020 Y30.3369
G01 X19.8215 Y30.3383
G01 X19.8410 Y30.3407
G01 X19.9090 Y30.3508
G01 X19.9283 Y30.3541
G01 X19.9475 Y30.3584
G01 X20.0141 Y30.3751
G01 X20.0330 Y30.3804
G01 X20.0517 Y30.3865
G01 X20.1164 Y30.4097
G00 Z2.0000
G00 X20.1164 Y32.9497
G01 F60.00
G01 Z-0.1100
G01 F100.00
G01 X20.1347 Y32.9567
G01 X20.1526 Y32.9647
G01 X20.2147 Y32.9941
G01 X20.2323 Y33.0029
G01 X20.2493 Y33.0126
G01 X20.3083 Y33.0479
G01 X20.3248 Y33.0584
G01 X20.3409 Y33.0697
G01 X20.3961 Y33.1106
G01 X20.4116 Y33.1227
G01 X20.4264 Y33.1355
G01 X20.4845 Y33.1883
G01 X20.5051 Y33.2094
G01 X20.5512 Y33.2603
G01 X20.5702 Y33.2828
G01 X20.6170 Y33.3458
G01 X20.6283 Y33.3619
G01 X20.6388 Y33.3785
G01 X20.6742 Y33.4374
G01 X20.6838 Y33.4545
G01 X20.6927 Y33.4720
G01 X20.7220 Y33.5341
G01 X20.7300 Y33.5520
G01 X20.7371 Y33.5704
G01 X20.7602 Y33.6350
G01 X20.7664 Y33.6537
G01 X20.7716 Y33.6726
G01 X20.7883 Y33.7392
G01 X20.7926 Y33.7584
G01 X20.7959 Y33.7777
G01 X20.8073 Y33.8554
G01 X20.8099 Y33.8848
G01 X20.8132 Y33.9534
G01 X20.8136 Y33.9828
G01 X20.8099 Y34.0612
G01 X20.8084 Y34.0808
G01 X20.8060 Y34.1003
G01 X20.7959 Y34.1683
G01 X20.7926 Y34.1876
G01 X20.7883 Y34.2068
G01 X20.7716 Y34.2734
G01 X20.7664 Y34.2923
G01 X20.7602 Y34.3110
G01 X20.7371 Y34.3756
G01 X20.7300 Y34.3940
G01 X20.7220 Y34.4119
G01 X20.6927 Y34.4740
G01 X20.6838 Y34.4915
G01 X20.6742 Y34.5086
G01 X20.6388 Y34.5675
G01 X20.6283 Y34.5841
G01 X20.6170 Y34.6002
G01 X20.5761 Y34.6554
G01 X20.5640 Y34.6708
G01 X20.5512 Y34.6857
G01 X20.5051 Y34.7366
G01 X20.4915 Y34.7508
G01 X20.4773 Y34.7644
G01 X20.4264 Y34.8105
G01 X20.4116 Y34.8233
G01 X20.3961 Y34.8354
G01 X20.3329 Y34.8821
G01 X20.3083 Y34.8981
G01 X20.2493 Y34.9334
G01 X20.2323 Y34.9431
G01 X20.2147 Y34.9519
G01 X20.1526 Y34.9813
G01 X20.1347 Y34.9893
G01 X20.1164 Y34.9963
G01 X20.0517 Y35.0195
G01 X20.0330 Y35.0256
G01 X20.0141 Y35.0309
G01 X19.9475 Y35.0476
G01 X19.9283 Y35.0519
G01 X19.9090 Y35.0552
G01 X19.8410 Y35.0653
G01 X19.8215 Y35.0677
G01 X19.8020 Y35.0691
G01 X19.7333 Y35.0725
G01 X19.7137 Y35.0730
G01 X18.7137 Y35.0730
G01 X18.6941 Y35.0725
G01 X18.6255 Y35.0691
G01 X18.5961 Y35.0666
G01 X18.5185 Y35.0552
G01 X18.4895 Y35.0498
G01 X18.4038 Y35.0284
G01 X18.3758 Y35.0195
G01 X18.3019 Y34.9929
G01 X18.2748 Y34.9813
G01 X18.2127 Y34.9519
G01 X18.1952 Y34.9431
G01 X18.1781 Y34.9334
G01 X18.1192 Y34.8981
G01 X18.0945 Y34.8821
G01 X18.0236 Y34.8294
G01 X18.0010 Y34.8105
G01 X17.9429 Y34.7577
G01 X17.9224 Y34.7366
G01 X17.8762 Y34.6857
G01 X17.8634 Y34.6708
G01 X17.8513 Y34.6554
G01 X17.8047 Y34.5922
G01 X17.7886 Y34.5675
G01 X17.7533 Y34.5086
G01 X17.7436 Y34.4915
G01 X17.7348 Y34.4740
G01 X17.7054 Y34.4119
G01 X17.6975 Y34.3940
G01 X17.6904 Y34.3756
G01 X17.6672 Y34.3110
G01 X17.6611 Y34.2923
G01 X17.6558 Y34.2734
G01 X17.6392 Y34.2068
G01 X17.6349 Y34.1876
G01 X17.6315 Y34.1683
G01 X17.6214 Y34.1003
G01 X17.6190 Y34.0808
G01 X17.6176 Y34.0612
G01 X17.6142 Y33.9926
G01 X17.6137 Y33.9730
G01 X17.6142 Y33.9534
G01 X17.6176 Y33.8848
G01 X17.6190 Y33.8652
G01 X17.6214 Y33.8457
G01 X17.6315 Y33.7777
G01 X17.6349 Y33.7584
G01 X17.6392 Y33.7392
G01 X17.6558 Y33.6726
G01 X17.6611 Y33.6537
G01 X17.6672 Y33.6350
G01 X17.6904 Y33.5704
G01 X17.6975 Y33.5520
G01 X17.7054 Y33.5341
G01 X17.7348 Y33.4720
G01 X17.7436 Y33.4545
G01 X17.7533 Y33.4374
G01 X17.7886 Y33.3785
G01 X17.7991 Y33.3619
G01 X17.8104 Y33.3458
G01 X17.8513 Y33.2906
G01 X17.8634 Y33.2752
G01 X17.8762 Y33.2603
G01 X17.9224 Y33.2094
G01 X17.9359 Y33.1952
G01 X17.9501 Y33.1816
G01 X18.0010 Y33.1355
G01 X18.0159 Y33.1227
G01 X18.0314 Y33.1106
G01 X18.0945 Y33.0639
G01 X18.1192 Y33.0479
G01 X18.1781 Y33.0126
G01 X18.2039 Y32.9984
G01 X18.2748 Y32.9647
G01 X18.2928 Y32.9567
G01 X18.3111 Y32.9497
G01 X18.3758 Y32.9265
G01 X18.3944 Y32.9204
G01 X18.4133 Y32.9151
G01 X18.4800 Y32.8984
G01 X18.4991 Y32.8941
G01 X18.5185 Y32.8908
G01 X18.5864 Y32.8807
G01 X18.6059 Y32.8783
G01 X18.6255 Y32.8769
G01 X18.6941 Y32.8735
G01 X18.7137 Y32.8730
G01 X19.7137 Y32.8730
G01 X19.7333 Y32.8735
G01 X19.8020 Y32.8769
G01 X19.8215 Y32.8783
G01 X19.8410 Y32.8807
G01 X19.9090 Y32.8908
G01 X19.9283 Y32.8941
G01 X19.9475 Y32.8984
G01 X20.0141 Y32.9151
G01 X20.0330 Y32.9204
G01 X20.0517 Y32.9265
G01 X20.1164 Y32.9497
G00 Z2.0000
G00 X17.9599 Y35.7128
G01 F60.00
G01 Z-0.1100
G01 F100.00
G01 X18.0010 Y35.6755
G01 X18.0159 Y35.6627
G01 X18.0314 Y35.6506
G01 X18.0865 Y35.6097
G01 X18.1026 Y35.5984
G01 X18.1192 Y35.5879
G01 X18.1781 Y35.5526
G01 X18.1952 Y35.5429
G01 X18.2127 Y35.5341
G01 X18.2837 Y35.5006
G01 X18.3111 Y35.4897
G01 X18.3758 Y35.4665
G01 X18.3944 Y35.4604
G01 X18.4133 Y35.4551
G01 X18.4800 Y35.4384
G01 X18.4991 Y35.4341
G01 X18.5185 Y35.4308
G01 X18.5864 Y35.4207
G01 X18.6059 Y35.4183
G01 X18.6255 Y35.4169
G01 X18.6941 Y35.4135
G01 X18.7137 Y35.4130
G01 X19.7137 Y35.4130
G01 X19.7333 Y35.4135
G01 X19.8020 Y35.4169
G01 X19.8313 Y35.4194
G01 X19.9090 Y35.4308
G01 X19.9283 Y35.4341
G01 X19.9475 Y35.4384
G01 X20.0141 Y35.4551
G01 X20.0424 Y35.4633
G01 X20.1164 Y35.4897
G01 X20.1437 Y35.5006
G01 X20.2147 Y35.5341
G01 X20.2323 Y35.5429
G01 X20.2493 Y35.5526
G01 X20.3083 Y35.5879
G01 X20.3248 Y35.5984
G01 X20.3409 Y35.6097
G01 X20.3961 Y35.6506
G01 X20.4116 Y35.6627
G01 X20.4264 Y35.6755
G01 X20.4773 Y35.7216
G01 X20.4915 Y35.7352
G01 X20.5051 Y35.7494
G01 X20.5512 Y35.8003
G01 X20.5640 Y35.8152
G01 X20.5761 Y35.8306
G01 X20.6170 Y35.8858
G01 X20.6283 Y35.9019
G01 X20.6388 Y35.9185
G01 X20.6742 Y35.9774
G01 X20.6838 Y35.9945
G01 X20.6927 Y36.0120
G01 X20.7220 Y36.0741
G01 X20.7300 Y36.0920
G01 X20.7371 Y36.1104
G01 X20.7602 Y36.1750
G01 X20.7664 Y36.1937
G01 X20.7716 Y36.2126
G01 X20.7883 Y36.2792
G01 X20.7926 Y36.2984
G01 X20.7959 Y36.3177
G01 X20.8060 Y36.3857
G01 X20.8084 Y36.4052
G01 X20.8099 Y36.4248
G01 X20.8132 Y36.4934
G01 X20.8137 Y36.5130
G01 X20.8132 Y36.5326
G01 X20.8099 Y36.6012
G01 X20.8084 Y36.6208
G01 X20.8060 Y36.6403
G01 X20.7959 Y36.7083
G01 X20.7926 Y36.7276
G01 X20.7883 Y36.7468
G01 X20.7716 Y36.8134
G01 X20.7664 Y36.8323
G01 X20.7602 Y36.8510
G01 X20.7371 Y36.9156
G01 X20.7261 Y36.9430
G01 X20.6884 Y37.0228
G01 X20.6742 Y37.0486
G01 X20.6388 Y37.1075
G01 X20.6283 Y37.1241
G01 X20.6170 Y37.1402
G01 X20.5702 Y37.2032
G01 X20.5512 Y37.2257
G01 X20.5051 Y37.2766
G01 X20.4915 Y37.2908
G01 X20.4773 Y37.3044
G01 X20.4264 Y37.3505
G01 X20.4116 Y37.3633
G01 X20.3961 Y37.3754
G01 X20.3409 Y37.4163
G01 X20.3248 Y37.4276
G01 X20.3083 Y37.4381
G01 X20.2493 Y37.4734
G01 X20.2323 Y37.4831
G01 X20.2147 Y37.4919
G01 X20.1526 Y37.5213
G01 X20.1347 Y37.5293
G01 X20.1164 Y37.5363
G01 X20.0517 Y37.5595
G01 X20.0330 Y37.5656
G01 X20.0141 Y37.5709
G01 X19.9475 Y37.5876
G01 X19.9283 Y37.5919
G01 X19.9090 Y37.5952
G01 X19.8313 Y37.6066
G01 X19.8020 Y37.6091
G01 X19.7333 Y37.6125
G01 X19.7137 Y37.6130
G01 X18.7137 Y37.6130
G01 X18.6941 Y37.6125
G01 X18.6255 Y37.6091
G01 X18.6059 Y37.6077
G01 X18.5864 Y37.6053
G01 X18.5185 Y37.5952
G01 X18.4991 Y37.5919
G01 X18.4800 Y37.5876
G01 X18.4133 Y37.5709
G01 X18.3944 Y37.5656
G01 X18.3758 Y37.5595
G01 X18.3111 Y37.5363
G01 X18.2837 Y37.5254
G01 X18.2127 Y37.4919
G01 X18.1952 Y37.4831
G01 X18.1781 Y37.4734
G01 X18.1192 Y37.4381
G01 X18.1026 Y37.4276
G01 X18.0865 Y37.4163
G01 X18.0314 Y37.3754
G01 X18.0159 Y37.3633
G01 X18.0010 Y37.3505
G01 X17.9599 Y37.3132
G01 X17.8897 Y37.3132
G01 X12.4158 Y42.7871
G01 X12.4158 Y56.8895
G01 X21.9307 Y66.4044
G01 X27.9287 Y66.4044
G01 X31.5225 Y62.8105
G01 X31.5225 Y62.6162
G01 X31.4531 Y62.5534
G01 X31.4388 Y62.5399
G01 X31.4253 Y62.5257
G01 X31.3693 Y62.4639
G01 X31.3565 Y62.4490
G01 X31.3444 Y62.4335
G01 X31.2947 Y62.3665
G01 X31.2834 Y62.3505
G01 X31.2729 Y62.3339
G01 X31.2300 Y62.2623
G01 X31.2203 Y62.2452
G01 X31.2115 Y62.2277
G01 X31.1758 Y62.1523
G01 X31.1679 Y62.1344
G01 X31.1608 Y62.1160
G01 X31.1327 Y62.0375
G01 X31.1265 Y62.0189
G01 X31.1213 Y61.9999
G01 X31.1010 Y61.9190
G01 X31.0967 Y61.8999
G01 X31.0934 Y61.8805
G01 X31.0811 Y61.7980
G01 X31.0787 Y61.7785
G01 X31.0773 Y61.7589
G01 X31.0732 Y61.6756
G01 X31.0727 Y61.6560
G01 X31.0727 Y60.6560
G01 X31.0732 Y60.6364
G01 X31.0773 Y60.5531
G01 X31.0787 Y60.5335
G01 X31.0811 Y60.5140
G01 X31.0934 Y60.4315
G01 X31.0967 Y60.4121
G01 X31.1010 Y60.3930
G01 X31.1213 Y60.3121
G01 X31.1265 Y60.2931
G01 X31.1327 Y60.2745
G01 X31.1608 Y60.1960
G01 X31.1679 Y60.1776
G01 X31.1758 Y60.1597
G01 X31.2115 Y60.0843
G01 X31.2203 Y60.0668
G01 X31.2300 Y60.0497
G01 X31.2729 Y59.9781
G01 X31.2834 Y59.9615
G01 X31.2947 Y59.9455
G01 X31.3444 Y59.8785
G01 X31.3628 Y59.8555
G01 X31.4320 Y59.7791
G01 X31.4531 Y59.7586
G01 X31.5222 Y59.6961
G01 X31.5452 Y59.6777
G01 X31.6122 Y59.6280
G01 X31.6283 Y59.6167
G01 X31.6448 Y59.6062
G01 X31.7164 Y59.5633
G01 X31.7422 Y59.5491
G01 X31.8353 Y59.5050
G01 X31.8627 Y59.4941
G01 X31.9412 Y59.4660
G01 X31.9599 Y59.4598
G01 X31.9788 Y59.4546
G01 X32.0693 Y59.4321
G01 X32.0982 Y59.4267
G01 X32.1807 Y59.4144
G01 X32.2002 Y59.4120
G01 X32.2198 Y59.4106
G01 X32.3031 Y59.4065
G01 X32.3227 Y59.4060
G01 X32.3423 Y59.4065
G01 X32.4257 Y59.4106
G01 X32.4452 Y59.4120
G01 X32.4647 Y59.4144
G01 X32.5472 Y59.4267
G01 X32.5666 Y59.4300
G01 X32.5857 Y59.4343
G01 X32.6667 Y59.4546
G01 X32.6856 Y59.4598
G01 X32.7042 Y59.4660
G01 X32.7828 Y59.4941
G01 X32.8011 Y59.5012
G01 X32.8190 Y59.5091
G01 X32.8944 Y59.5448
G01 X32.9120 Y59.5536
G01 X32.9290 Y59.5633
G01 X33.0006 Y59.6062
G01 X33.0253 Y59.6222
G01 X33.1080 Y59.6836
G01 X33.1306 Y59.7026
G01 X33.1924 Y59.7586
G01 X33.2066 Y59.7721
G01 X33.2201 Y59.7863
G01 X33.2762 Y59.8481
G01 X33.2890 Y59.8630
G01 X33.3011 Y59.8785
G01 X33.3508 Y59.9455
G01 X33.3621 Y59.9615
G01 X33.3726 Y59.9781
G01 X33.4154 Y60.0497
G01 X33.4251 Y60.0668
G01 X33.4339 Y60.0843
G01 X33.4696 Y60.1597
G01 X33.4776 Y60.1776
G01 X33.4846 Y60.1960
G01 X33.5127 Y60.2745
G01 X33.5189 Y60.2931
G01 X33.5241 Y60.3121
G01 X33.5444 Y60.3930
G01 X33.5487 Y60.4121
G01 X33.5521 Y60.4315
G01 X33.5643 Y60.5140
G01 X33.5667 Y60.5335
G01 X33.5681 Y60.5531
G01 X33.5722 Y60.6364
G01 X33.5727 Y60.6560
G01 X33.5726 Y61.6658
G01 X33.5681 Y61.7589
G01 X33.5667 Y61.7785
G01 X33.5643 Y61.7980
G01 X33.5521 Y61.8805
G01 X33.5487 Y61.8999
G01 X33.5444 Y61.9190
G01 X33.5241 Y61.9999
G01 X33.5189 Y62.0189
G01 X33.5127 Y62.0375
G01 X33.4846 Y62.1160
G01 X33.4737 Y62.1434
G01 X33.4339 Y62.2277
G01 X33.4251 Y62.2452
G01 X33.4154 Y62.2623
G01 X33.3726 Y62.3339
G01 X33.3621 Y62.3505
G01 X33.3508 Y62.3665
G01 X33.3011 Y62.4335
G01 X33.2890 Y62.4490
G01 X33.2762 Y62.4639
G01 X33.2201 Y62.5257
G01 X33.2066 Y62.5399
G01 X33.1924 Y62.5534
G01 X33.1229 Y62.6162
G01 X33.1229 Y63.1420
G01 X33.1224 Y63.1616
G01 X33.1205 Y63.2008
G01 X33.1191 Y63.2204
G01 X33.1167 Y63.2399
G01 X33.1109 Y63.2788
G01 X33.1075 Y63.2981
G01 X33.1032 Y63.3173
G01 X33.0937 Y63.3554
G01 X33.0885 Y63.3743
G01 X33.0823 Y63.3929
G01 X33.0691 Y63.4299
G01 X33.0620 Y63.4482
G01 X33.0541 Y63.4662
G01 X33.0373 Y63.5017
G01 X33.0284 Y63.5192
G01 X33.0188 Y63.5363
G01 X32.9986 Y63.5700
G01 X32.9881 Y63.5866
G01 X32.9768 Y63.6026
G01 X32.9534 Y63.6342
G01 X32.9350 Y63.6571
G01 X32.9021 Y63.6936
G01 X32.8885 Y63.7078
G01 X28.8260 Y67.7704
G01 X28.8118 Y67.7839
G01 X28.7827 Y67.8103
G01 X28.7601 Y67.8292
G01 X28.7128 Y67.8643
G01 X28.6881 Y67.8804
G01 X28.6545 Y67.9006
G01 X28.6374 Y67.9103
G01 X28.6198 Y67.9191
G01 X28.5843 Y67.9359
G01 X28.5573 Y67.9475
G01 X28.5018 Y67.9673
G01 X28.4830 Y67.9730
G01 X28.4354 Y67.9851
G01 X28.4163 Y67.9894
G01 X28.3969 Y67.9927
G01 X28.3581 Y67.9985
G01 X28.3386 Y68.0009
G01 X28.3190 Y68.0023
G01 X28.2798 Y68.0043
G01 X28.2602 Y68.0048
G01 X21.5993 Y68.0048
G01 X21.5796 Y68.0043
G01 X21.5306 Y68.0017
G01 X21.5014 Y67.9985
G01 X21.4625 Y67.9927
G01 X21.4432 Y67.9894
G01 X21.4240 Y67.9851
G01 X21.3764 Y67.9730
G01 X21.3483 Y67.9641
G01 X21.3114 Y67.9509
G01 X21.2930 Y67.9438
G01 X21.2751 Y67.9359
G01 X21.2308 Y67.9148
G01 X21.2050 Y67.9006
G01 X21.1713 Y67.8804
G01 X21.1547 Y67.8699
G01 X21.1387 Y67.8586
G01 X21.1071 Y67.8352
G01 X21.0841 Y67.8168
G01 X21.0477 Y67.7839
G01 X21.0334 Y67.7704
G01 X11.0498 Y57.7867
G01 X11.0363 Y57.7725
G01 X11.0099 Y57.7434
G01 X10.9909 Y57.7209
G01 X10.9559 Y57.6736
G01 X10.9398 Y57.6489
G01 X10.9196 Y57.6152
G01 X10.9099 Y57.5981
G01 X10.9011 Y57.5806
G01 X10.8843 Y57.5451
G01 X10.8727 Y57.5180
G01 X10.8529 Y57.4626
G01 X10.8472 Y57.4438
G01 X10.8351 Y57.3962
G01 X10.8308 Y57.3770
G01 X10.8275 Y57.3577
G01 X10.8217 Y57.3188
G01 X10.8193 Y57.2994
G01 X10.8178 Y57.2798
G01 X10.8159 Y57.2405
G01 X10.8154 Y57.2209
G01 X10.8154 Y42.4556
G01 X10.8159 Y42.4360
G01 X10.8178 Y42.3967
G01 X10.8193 Y42.3772
G01 X10.8217 Y42.3577
G01 X10.8275 Y42.3188
G01 X10.8308 Y42.2995
G01 X10.8351 Y42.2803
G01 X10.8472 Y42.2327
G01 X10.8529 Y42.2140
G01 X10.8727 Y42.1585
G01 X10.8843 Y42.1314
G01 X10.9011 Y42.0959
G01 X10.9099 Y42.0784
G01 X10.9196 Y42.0613
G01 X10.9398 Y42.0276
G01 X10.9559 Y42.0029
G01 X10.9909 Y41.9556
G01 X11.0099 Y41.9331
G01 X11.0363 Y41.9040
G01 X11.0498 Y41.8898
G01 X16.9924 Y35.9472
G01 X17.0066 Y35.9336
G01 X17.0357 Y35.9073
G01 X17.0506 Y35.8944
G01 X17.0661 Y35.8824
G01 X17.0976 Y35.8590
G01 X17.1219 Y35.8423
G01 X17.1639 Y35.8170
G01 X17.1810 Y35.8073
G01 X17.1986 Y35.7985
G01 X17.2430 Y35.7776
G01 X17.2703 Y35.7666
G01 X17.3073 Y35.7534
G01 X17.3260 Y35.7473
G01 X17.3449 Y35.7420
G01 X17.3925 Y35.7302
G01 X17.4215 Y35.7248
G01 X17.4603 Y35.7191
G01 X17.4798 Y35.7167
G01 X17.4994 Y35.7152
G01 X17.5484 Y35.7129
G01 X17.9599 Y35.7128
G00 Z2.0000
G00 X17.9599 Y38.2528
G01 F60.00
G01 Z-0.1100
G01 F100.00
G01 X18.0010 Y38.2155
G01 X18.0159 Y38.2027
G01 X18.0314 Y38.1906
G01 X18.0865 Y38.1497
G01 X18.1026 Y38.1384
G01 X18.1192 Y38.1279
G01 X18.1781 Y38.0926
G01 X18.1952 Y38.0829
G01 X18.2127 Y38.0741
G01 X18.2837 Y38.0406
G01 X18.3111 Y38.0297
G01 X18.3758 Y38.0065
G01 X18.3944 Y38.0004
G01 X18.4133 Y37.9951
G01 X18.4800 Y37.9784
G01 X18.4991 Y37.9741
G01 X18.5185 Y37.9708
G01 X18.5864 Y37.9607
G01 X18.6059 Y37.9583
G01 X18.6255 Y37.9569
G01 X18.6941 Y37.9535
G01 X18.7137 Y37.9530
G01 X19.7137 Y37.9530
G01 X19.7333 Y37.9535
G01 X19.8020 Y37.9569
G01 X19.8215 Y37.9583
G01 X19.8410 Y37.9607
G01 X19.9090 Y37.9708
G01 X19.9283 Y37.9741
G01 X19.9475 Y37.9784
G01 X20.0141 Y37.9951
G01 X20.0330 Y38.0004
G01 X20.0517 Y38.0065
G01 X20.1164 Y38.0297
G01 X20.1437 Y38.0406
G01 X20.2235 Y38.0784
G01 X20.2493 Y38.0926
G01 X20.3083 Y38.1279
G01 X20.3248 Y38.1384
G01 X20.3409 Y38.1497
G01 X20.4039 Y38.1966
G01 X20.4264 Y38.2155
G01 X20.4773 Y38.2616
G01 X20.4915 Y38.2752
G01 X20.5051 Y38.2894
G01 X20.5512 Y38.3403
G01 X20.5640 Y38.3552
G01 X20.5761 Y38.3706
G01 X20.6170 Y38.4258
G01 X20.6283 Y38.4419
G01 X20.6388 Y38.4585
G01 X20.6742 Y38.5174
G01 X20.6838 Y38.5345
G01 X20.6927 Y38.5520
G01 X20.7220 Y38.6141
G01 X20.7300 Y38.6320
G01 X20.7371 Y38.6504
G01 X20.7602 Y38.7150
G01 X20.7664 Y38.7337
G01 X20.7716 Y38.7526
G01 X20.7883 Y38.8192
G01 X20.7926 Y38.8384
G01 X20.7959 Y38.8577
G01 X20.8060 Y38.9257
G01 X20.8084 Y38.9452
G01 X20.8099 Y38.9648
G01 X20.8136 Y39.0432
G01 X20.8132 Y39.0726
G01 X20.8099 Y39.1412
G01 X20.8073 Y39.1706
G01 X20.7959 Y39.2483
G01 X20.7906 Y39.2772
G01 X20.7716 Y39.3534
G01 X20.7664 Y39.3723
G01 X20.7602 Y39.3910
G01 X20.7371 Y39.4556
G01 X20.7300 Y39.4740
G01 X20.7220 Y39.4919
G01 X20.6927 Y39.5540
G01 X20.6838 Y39.5715
G01 X20.6742 Y39.5886
G01 X20.6388 Y39.6475
G01 X20.6283 Y39.6641
G01 X20.6170 Y39.6802
G01 X20.5761 Y39.7354
G01 X20.5640 Y39.7508
G01 X20.5512 Y39.7657
G01 X20.4984 Y39.8238
G01 X20.4773 Y39.8444
G01 X20.4264 Y39.8905
G01 X20.4039 Y39.9094
G01 X20.3409 Y39.9563
G01 X20.3248 Y39.9676
G01 X20.3083 Y39.9781
G01 X20.2493 Y40.0134
G01 X20.2323 Y40.0231
G01 X20.2147 Y40.0319
G01 X20.1526 Y40.0613
G01 X20.1347 Y40.0693
G01 X20.1164 Y40.0763
G01 X20.0517 Y40.0995
G01 X20.0330 Y40.1056
G01 X20.0141 Y40.1109
G01 X19.9475 Y40.1276
G01 X19.9283 Y40.1319
G01 X19.9090 Y40.1352
G01 X19.8410 Y40.1453
G01 X19.8118 Y40.1485
G01 X19.7235 Y40.1529
G01 X18.7137 Y40.1530
G01 X18.6941 Y40.1525
G01 X18.6157 Y40.1485
G01 X18.5864 Y40.1453
G01 X18.5185 Y40.1352
G01 X18.4895 Y40.1298
G01 X18.4133 Y40.1109
G01 X18.3944 Y40.1056
G01 X18.3758 Y40.0995
G01 X18.3111 Y40.0763
G01 X18.2928 Y40.0693
G01 X18.2748 Y40.0613
G01 X18.2127 Y40.0319
G01 X18.1952 Y40.0231
G01 X18.1781 Y40.0134
G01 X18.1192 Y39.9781
G01 X18.1026 Y39.9676
G01 X18.0863 Y39.9561
G01 X14.1154 Y43.9270
G01 X14.1154 Y56.0490
G01 X22.7712 Y64.7048
G01 X27.2247 Y64.7048
G01 X28.9825 Y62.9471
G01 X28.9825 Y62.6162
G01 X28.9131 Y62.5534
G01 X28.8988 Y62.5399
G01 X28.8853 Y62.5257
G01 X28.8293 Y62.4639
G01 X28.8165 Y62.4490
G01 X28.8044 Y62.4335
G01 X28.7547 Y62.3665
G01 X28.7434 Y62.3505
G01 X28.7329 Y62.3339
G01 X28.6900 Y62.2623
G01 X28.6803 Y62.2452
G01 X28.6715 Y62.2277
G01 X28.6358 Y62.1523
G01 X28.6279 Y62.1344
G01 X28.6208 Y62.1160
G01 X28.5927 Y62.0375
G01 X28.5865 Y62.0189
G01 X28.5813 Y61.9999
G01 X28.5610 Y61.9190
G01 X28.5567 Y61.8999
G01 X28.5534 Y61.8805
G01 X28.5411 Y61.7980
G01 X28.5379 Y61.7687
G01 X28.5332 Y61.6756
G01 X28.5327 Y61.6560
G01 X28.5327 Y60.6560
G01 X28.5332 Y60.6364
G01 X28.5373 Y60.5531
G01 X28.5398 Y60.5237
G01 X28.5549 Y60.4218
G01 X28.5610 Y60.3930
G01 X28.5813 Y60.3121
G01 X28.5865 Y60.2931
G01 X28.5927 Y60.2745
G01 X28.6208 Y60.1960
G01 X28.6279 Y60.1776
G01 X28.6358 Y60.1597
G01 X28.6715 Y60.0843
G01 X28.6803 Y60.0668
G01 X28.6900 Y60.0497
G01 X28.7329 Y59.9781
G01 X28.7434 Y59.9615
G01 X28.7547 Y59.9455
G01 X28.8044 Y59.8785
G01 X28.8165 Y59.8630
G01 X28.8293 Y59.8481
G01 X28.8853 Y59.7863
G01 X28.8988 Y59.7721
G01 X28.9131 Y59.7586
G01 X28.9749 Y59.7026
G01 X28.9897 Y59.6897
G01 X29.0052 Y59.6777
G01 X29.0722 Y59.6280
G01 X29.0883 Y59.6167
G01 X29.1048 Y59.6062
G01 X29.1764 Y59.5633
G01 X29.1935 Y59.5536
G01 X29.2110 Y59.5448
G01 X29.2864 Y59.5091
G01 X29.3044 Y59.5012
G01 X29.3227 Y59.4941
G01 X29.4012 Y59.4660
G01 X29.4199 Y59.4598
G01 X29.4388 Y59.4546
G01 X29.5197 Y59.4343
G01 X29.5389 Y59.4300
G01 X29.5582 Y59.4267
G01 X29.6407 Y59.4144
G01 X29.6602 Y59.4120
G01 X29.6798 Y59.4106
G01 X29.7631 Y59.4065
G01 X29.7925 Y59.4061
G01 X29.8857 Y59.4106
G01 X29.9150 Y59.4131
G01 X30.0169 Y59.4282
G01 X30.0457 Y59.4343
G01 X30.1267 Y59.4546
G01 X30.1549 Y59.4628
G01 X30.2520 Y59.4975
G01 X30.2790 Y59.5091
G01 X30.3633 Y59.5491
G01 X30.3890 Y59.5633
G01 X30.4606 Y59.6062
G01 X30.4772 Y59.6167
G01 X30.4932 Y59.6280
G01 X30.5602 Y59.6777
G01 X30.5832 Y59.6961
G01 X30.6524 Y59.7586
G01 X30.6666 Y59.7721
G01 X30.6801 Y59.7863
G01 X30.7362 Y59.8481
G01 X30.7490 Y59.8630
G01 X30.7611 Y59.8785
G01 X30.8108 Y59.9455
G01 X30.8274 Y59.9698
G01 X30.8754 Y60.0497
G01 X30.8851 Y60.0668
G01 X30.8939 Y60.0843
G01 X30.9296 Y60.1597
G01 X30.9376 Y60.1776
G01 X30.9446 Y60.1960
G01 X30.9727 Y60.2745
G01 X30.9789 Y60.2931
G01 X30.9841 Y60.3121
G01 X31.0044 Y60.3930
G01 X31.0105 Y60.4218
G01 X31.0256 Y60.5237
G01 X31.0281 Y60.5531
G01 X31.0326 Y60.6462
G01 X31.0327 Y61.6560
G01 X31.0322 Y61.6756
G01 X31.0281 Y61.7589
G01 X31.0267 Y61.7785
G01 X31.0243 Y61.7980
G01 X31.0121 Y61.8805
G01 X31.0087 Y61.8999
G01 X31.0044 Y61.9190
G01 X30.9841 Y61.9999
G01 X30.9789 Y62.0189
G01 X30.9727 Y62.0375
G01 X30.9446 Y62.1160
G01 X30.9376 Y62.1344
G01 X30.9296 Y62.1523
G01 X30.8896 Y62.2365
G01 X30.8754 Y62.2623
G01 X30.8326 Y62.3339
G01 X30.8221 Y62.3505
G01 X30.8108 Y62.3665
G01 X30.7611 Y62.4335
G01 X30.7427 Y62.4565
G01 X30.6735 Y62.5329
G01 X30.6524 Y62.5534
G01 X30.5829 Y62.6162
G01 X30.5829 Y63.2785
G01 X30.5824 Y63.2981
G01 X30.5799 Y63.3472
G01 X30.5780 Y63.3667
G01 X30.5709 Y63.4153
G01 X30.5675 Y63.4346
G01 X30.5632 Y63.4538
G01 X30.5537 Y63.4919
G01 X30.5485 Y63.5108
G01 X30.5423 Y63.5294
G01 X30.5291 Y63.5664
G01 X30.5220 Y63.5847
G01 X30.5141 Y63.6027
G01 X30.4973 Y63.6382
G01 X30.4884 Y63.6557
G01 X30.4788 Y63.6728
G01 X30.4586 Y63.7065
G01 X30.4481 Y63.7231
G01 X30.4368 Y63.7391
G01 X30.4134 Y63.7707
G01 X30.4013 Y63.7861
G01 X30.3885 Y63.8010
G01 X30.3554 Y63.8373
G01 X28.1220 Y66.0709
G01 X28.1078 Y66.0844
G01 X28.0787 Y66.1108
G01 X28.0562 Y66.1297
G01 X28.0089 Y66.1648
G01 X27.9842 Y66.1809
G01 X27.9420 Y66.2060
G01 X27.9159 Y66.2196
G01 X27.8804 Y66.2364
G01 X27.8624 Y66.2443
G01 X27.8441 Y66.2514
G01 X27.8071 Y66.2646
G01 X27.7885 Y66.2708
G01 X27.7696 Y66.2760
G01 X27.7219 Y66.2878
G01 X27.7027 Y66.2917
G01 X27.6541 Y66.2990
G01 X27.6346 Y66.3014
G01 X27.6150 Y66.3028
G01 X27.5758 Y66.3047
G01 X27.5562 Y66.3052
G01 X22.4299 Y66.3051
G01 X22.3809 Y66.3028
G01 X22.3613 Y66.3014
G01 X22.3418 Y66.2990
G01 X22.3030 Y66.2932
G01 X22.2740 Y66.2878
G01 X22.2264 Y66.2760
G01 X22.2075 Y66.2708
G01 X22.1888 Y66.2646
G01 X22.1426 Y66.2480
G01 X22.1156 Y66.2364
G01 X22.0801 Y66.2196
G01 X22.0625 Y66.2107
G01 X22.0455 Y66.2011
G01 X22.0034 Y66.1757
G01 X21.9791 Y66.1591
G01 X21.9476 Y66.1357
G01 X21.9321 Y66.1236
G01 X21.9172 Y66.1108
G01 X21.8881 Y66.0844
G01 X21.8739 Y66.0709
G01 X12.7493 Y56.9463
G01 X12.7358 Y56.9320
G01 X12.7094 Y56.9029
G01 X12.6905 Y56.8804
G01 X12.6554 Y56.8331
G01 X12.6393 Y56.8084
G01 X12.6191 Y56.7747
G01 X12.6094 Y56.7577
G01 X12.6006 Y56.7401
G01 X12.5838 Y56.7046
G01 X12.5722 Y56.6775
G01 X12.5556 Y56.6314
G01 X12.5494 Y56.6127
G01 X12.5442 Y56.5938
G01 X12.5324 Y56.5462
G01 X12.5285 Y56.5269
G01 X12.5212 Y56.4784
G01 X12.5188 Y56.4589
G01 X12.5174 Y56.4393
G01 X12.5154 Y56.4001
G01 X12.5150 Y56.3804
G01 X12.5150 Y43.5956
G01 X12.5154 Y43.5759
G01 X12.5180 Y43.5269
G01 X12.5212 Y43.4976
G01 X12.5270 Y43.4588
G01 X12.5303 Y43.4394
G01 X12.5346 Y43.4203
G01 X12.5442 Y43.3822
G01 X12.5494 Y43.3633
G01 X12.5556 Y43.3446
G01 X12.5688 Y43.3077
G01 X12.5797 Y43.2803
G01 X12.6049 Y43.2271
G01 X12.6191 Y43.2013
G01 X12.6393 Y43.1676
G01 X12.6498 Y43.1510
G01 X12.6611 Y43.1349
G01 X12.6845 Y43.1034
G01 X12.7029 Y43.0804
G01 X12.7425 Y43.0368
G01 X17.2989 Y38.4803
G01 X17.3352 Y38.4473
G01 X17.3577 Y38.4283
G01 X17.4051 Y38.3932
G01 X17.4297 Y38.3772
G01 X17.4719 Y38.3520
G01 X17.4980 Y38.3385
G01 X17.5335 Y38.3217
G01 X17.5515 Y38.3137
G01 X17.5698 Y38.3066
G01 X17.6068 Y38.2934
G01 X17.6349 Y38.2845
G01 X17.6920 Y38.2702
G01 X17.7210 Y38.2648
G01 X17.7695 Y38.2577
G01 X17.7989 Y38.2552
G01 X17.8479 Y38.2529
G01 X17.9599 Y38.2528
G00 Z2.0000
G00 X17.6867 Y41.2006
G01 F60.00
G01 Z-0.1100
G01 F100.00
G01 X17.6938 Y41.1812
G01 X17.7013 Y41.1630
G01 X17.7391 Y41.0832
G01 X17.7533 Y41.0574
G01 X17.7886 Y40.9985
G01 X17.7991 Y40.9819
G01 X17.8104 Y40.9658
G01 X17.8513 Y40.9106
G01 X17.8634 Y40.8952
G01 X17.8762 Y40.8803
G01 X17.9224 Y40.8294
G01 X17.9429 Y40.8083
G01 X18.0084 Y40.7490
G01 X18.0314 Y40.7306
G01 X18.0865 Y40.6897
G01 X18.1026 Y40.6784
G01 X18.1192 Y40.6679
G01 X18.1781 Y40.6326
G01 X18.1952 Y40.6229
G01 X18.2127 Y40.6141
G01 X18.2748 Y40.5847
G01 X18.2928 Y40.5767
G01 X18.3111 Y40.5697
G01 X18.3758 Y40.5465
G01 X18.3944 Y40.5404
G01 X18.4133 Y40.5351
G01 X18.4800 Y40.5184
G01 X18.4991 Y40.5141
G01 X18.5185 Y40.5108
G01 X18.5864 Y40.5007
G01 X18.6059 Y40.4983
G01 X18.6255 Y40.4969
G01 X18.7039 Y40.4931
G01 X19.7235 Y40.4931
G01 X19.8020 Y40.4969
G01 X19.8215 Y40.4983
G01 X19.8410 Y40.5007
G01 X19.9187 Y40.5123
G01 X19.9475 Y40.5184
G01 X20.0141 Y40.5351
G01 X20.0330 Y40.5404
G01 X20.0517 Y40.5465
G01 X20.1164 Y40.5697
G01 X20.1347 Y40.5767
G01 X20.1526 Y40.5847
G01 X20.2147 Y40.6141
G01 X20.2323 Y40.6229
G01 X20.2493 Y40.6326
G01 X20.3166 Y40.6730
G01 X20.3409 Y40.6897
G01 X20.3961 Y40.7306
G01 X20.4116 Y40.7427
G01 X20.4264 Y40.7555
G01 X20.4845 Y40.8083
G01 X20.5051 Y40.8294
G01 X20.5577 Y40.8877
G01 X20.5761 Y40.9106
G01 X20.6170 Y40.9658
G01 X20.6337 Y40.9901
G01 X20.6791 Y41.0659
G01 X20.6927 Y41.0920
G01 X20.7220 Y41.1541
G01 X20.7300 Y41.1720
G01 X20.7371 Y41.1904
G01 X20.7634 Y41.2643
G01 X20.7716 Y41.2926
G01 X20.7883 Y41.3592
G01 X20.7944 Y41.3881
G01 X20.8060 Y41.4657
G01 X20.8093 Y41.4950
G01 X20.8132 Y41.5734
G01 X20.8137 Y41.5930
G01 X20.8132 Y41.6126
G01 X20.8099 Y41.6812
G01 X20.8073 Y41.7106
G01 X20.7959 Y41.7883
G01 X20.7926 Y41.8076
G01 X20.7883 Y41.8268
G01 X20.7716 Y41.8934
G01 X20.7664 Y41.9123
G01 X20.7602 Y41.9310
G01 X20.7371 Y41.9956
G01 X20.7300 Y42.0140
G01 X20.7220 Y42.0319
G01 X20.6927 Y42.0940
G01 X20.6838 Y42.1115
G01 X20.6742 Y42.1286
G01 X20.6388 Y42.1875
G01 X20.6283 Y42.2041
G01 X20.6170 Y42.2202
G01 X20.5761 Y42.2754
G01 X20.5640 Y42.2908
G01 X20.5512 Y42.3057
G01 X20.5051 Y42.3566
G01 X20.4915 Y42.3708
G01 X20.4773 Y42.3844
G01 X20.4264 Y42.4305
G01 X20.4116 Y42.4433
G01 X20.3961 Y42.4554
G01 X20.3409 Y42.4963
G01 X20.3248 Y42.5076
G01 X20.3083 Y42.5181
G01 X20.2493 Y42.5534
G01 X20.2323 Y42.5631
G01 X20.2147 Y42.5719
G01 X20.1526 Y42.6013
G01 X20.1347 Y42.6093
G01 X20.1164 Y42.6163
G01 X20.0517 Y42.6395
G01 X20.0330 Y42.6456
G01 X20.0141 Y42.6509
G01 X19.9475 Y42.6676
G01 X19.9283 Y42.6719
G01 X19.9090 Y42.6752
G01 X19.8410 Y42.6853
G01 X19.8215 Y42.6877
G01 X19.8020 Y42.6891
G01 X19.7235 Y42.6929
G01 X18.7039 Y42.6929
G01 X18.6255 Y42.6891
G01 X18.5961 Y42.6866
G01 X18.5088 Y42.6737
G01 X18.4825 Y42.6682
G01 X15.8149 Y45.3357
G01 X15.8149 Y55.2085
G01 X23.6117 Y63.0053
G01 X26.4425 Y63.0053
G01 X26.4425 Y62.6162
G01 X26.3731 Y62.5534
G01 X26.3588 Y62.5399
G01 X26.3453 Y62.5257
G01 X26.2893 Y62.4639
G01 X26.2765 Y62.4490
G01 X26.2644 Y62.4335
G01 X26.2147 Y62.3665
G01 X26.2034 Y62.3505
G01 X26.1929 Y62.3339
G01 X26.1500 Y62.2623
G01 X26.1403 Y62.2452
G01 X26.1315 Y62.2277
G01 X26.0958 Y62.1523
G01 X26.0879 Y62.1344
G01 X26.0808 Y62.1160
G01 X26.0527 Y62.0375
G01 X26.0465 Y62.0189
G01 X26.0413 Y61.9999
G01 X26.0210 Y61.9190
G01 X26.0167 Y61.8999
G01 X26.0134 Y61.8805
G01 X26.0011 Y61.7980
G01 X25.9987 Y61.7785
G01 X25.9973 Y61.7589
G01 X25.9932 Y61.6756
G01 X25.9927 Y61.6560
G01 X25.9927 Y60.6560
G01 X25.9932 Y60.6364
G01 X25.9979 Y60.5433
G01 X26.0011 Y60.5140
G01 X26.0134 Y60.4315
G01 X26.0167 Y60.4121
G01 X26.0210 Y60.3930
G01 X26.0413 Y60.3121
G01 X26.0465 Y60.2931
G01 X26.0527 Y60.2745
G01 X26.0808 Y60.1960
G01 X26.0879 Y60.1776
G01 X26.0958 Y60.1597
G01 X26.1315 Y60.0843
G01 X26.1403 Y60.0668
G01 X26.1500 Y60.0497
G01 X26.1929 Y59.9781
G01 X26.2034 Y59.9615
G01 X26.2147 Y59.9455
G01 X26.2644 Y59.8785
G01 X26.2765 Y59.8630
G01 X26.2893 Y59.8481
G01 X26.3453 Y59.7863
G01 X26.3588 Y59.7721
G01 X26.3731 Y59.7586
G01 X26.4349 Y59.7026
G01 X26.4497 Y59.6897
G01 X26.4652 Y59.6777
G01 X26.5402 Y59.6222
G01 X26.5648 Y59.6062
G01 X26.6364 Y59.5633
G01 X26.6535 Y59.5536
G01 X26.6710 Y59.5448
G01 X26.7464 Y59.5091
G01 X26.7644 Y59.5012
G01 X26.7827 Y59.4941
G01 X26.8612 Y59.4660
G01 X26.8799 Y59.4598
G01 X26.8988 Y59.4546
G01 X26.9797 Y59.4343
G01 X26.9989 Y59.4300
G01 X27.0182 Y59.4267
G01 X27.1007 Y59.4144
G01 X27.1202 Y59.4120
G01 X27.1398 Y59.4106
G01 X27.2231 Y59.4065
G01 X27.2427 Y59.4060
G01 X27.2623 Y59.4065
G01 X27.3457 Y59.4106
G01 X27.3652 Y59.4120
G01 X27.3847 Y59.4144
G01 X27.4672 Y59.4267
G01 X27.4962 Y59.4321
G01 X27.5867 Y59.4546
G01 X27.6056 Y59.4598
G01 X27.6242 Y59.4660
G01 X27.7028 Y59.4941
G01 X27.7211 Y59.5012
G01 X27.7390 Y59.5091
G01 X27.8144 Y59.5448
G01 X27.8320 Y59.5536
G01 X27.8490 Y59.5633
G01 X27.9206 Y59.6062
G01 X27.9372 Y59.6167
G01 X27.9532 Y59.6280
G01 X28.0202 Y59.6777
G01 X28.0357 Y59.6897
G01 X28.0506 Y59.7026
G01 X28.1124 Y59.7586
G01 X28.1266 Y59.7721
G01 X28.1401 Y59.7863
G01 X28.1962 Y59.8481
G01 X28.2151 Y59.8707
G01 X28.2708 Y59.9455
G01 X28.2821 Y59.9615
G01 X28.2926 Y59.9781
G01 X28.3354 Y60.0497
G01 X28.3451 Y60.0668
G01 X28.3539 Y60.0843
G01 X28.3896 Y60.1597
G01 X28.3976 Y60.1776
G01 X28.4046 Y60.1960
G01 X28.4327 Y60.2745
G01 X28.4389 Y60.2931
G01 X28.4441 Y60.3121
G01 X28.4644 Y60.3930
G01 X28.4687 Y60.4121
G01 X28.4721 Y60.4315
G01 X28.4843 Y60.5140
G01 X28.4867 Y60.5335
G01 X28.4881 Y60.5531
G01 X28.4922 Y60.6364
G01 X28.4927 Y60.6560
G01 X28.4926 Y61.6658
G01 X28.4881 Y61.7589
G01 X28.4867 Y61.7785
G01 X28.4843 Y61.7980
G01 X28.4705 Y61.8902
G01 X28.4644 Y61.9190
G01 X28.4441 Y61.9999
G01 X28.4389 Y62.0189
G01 X28.4327 Y62.0375
G01 X28.4046 Y62.1160
G01 X28.3937 Y62.1434
G01 X28.3539 Y62.2277
G01 X28.3451 Y62.2452
G01 X28.3354 Y62.2623
G01 X28.2926 Y62.3339
G01 X28.2821 Y62.3505
G01 X28.2708 Y62.3665
G01 X28.2211 Y62.4335
G01 X28.2090 Y62.4490
G01 X28.1962 Y62.4639
G01 X28.1401 Y62.5257
G01 X28.1266 Y62.5399
G01 X28.1124 Y62.5534
G01 X28.0429 Y62.6162
G01 X28.0429 Y63.4150
G01 X28.0424 Y63.4346
G01 X28.0399 Y63.4837
G01 X28.0367 Y63.5129
G01 X28.0309 Y63.5518
G01 X28.0275 Y63.5711
G01 X28.0232 Y63.5903
G01 X28.0137 Y63.6284
G01 X28.0085 Y63.6473
G01 X28.0023 Y63.6659
G01 X27.9891 Y63.7029
G01 X27.9820 Y63.7212
G01 X27.9741 Y63.7392
G01 X27.9530 Y63.7835
G01 X27.9388 Y63.8093
G01 X27.9134 Y63.8514
G01 X27.9025 Y63.8677
G01 X27.8734 Y63.9072
G01 X27.8613 Y63.9227
G01 X27.8485 Y63.9375
G01 X27.8221 Y63.9666
G01 X27.8085 Y63.9808
G01 X27.4110 Y64.3782
G01 X27.3747 Y64.4113
G01 X27.3599 Y64.4241
G01 X27.3444 Y64.4362
G01 X27.3128 Y64.4595
G01 X27.2968 Y64.4709
G01 X27.2802 Y64.4814
G01 X27.2465 Y64.5015
G01 X27.2294 Y64.5112
G01 X27.2119 Y64.5201
G01 X27.1764 Y64.5368
G01 X27.1585 Y64.5448
G01 X27.1401 Y64.5519
G01 X27.1032 Y64.5651
G01 X27.0845 Y64.5713
G01 X27.0656 Y64.5765
G01 X27.0275 Y64.5860
G01 X27.0083 Y64.5903
G01 X26.9890 Y64.5937
G01 X26.9501 Y64.5995
G01 X26.9307 Y64.6019
G01 X26.9111 Y64.6033
G01 X26.8620 Y64.6056
G01 X23.2704 Y64.6056
G01 X23.2214 Y64.6033
G01 X23.2018 Y64.6019
G01 X23.1823 Y64.5995
G01 X23.1435 Y64.5937
G01 X23.1145 Y64.5883
G01 X23.0669 Y64.5765
G01 X23.0479 Y64.5713
G01 X23.0293 Y64.5651
G01 X22.9831 Y64.5484
G01 X22.9561 Y64.5368
G01 X22.9206 Y64.5201
G01 X22.9030 Y64.5112
G01 X22.8859 Y64.5015
G01 X22.8523 Y64.4814
G01 X22.8357 Y64.4709
G01 X22.8196 Y64.4595
G01 X22.7881 Y64.4362
G01 X22.7726 Y64.4241
G01 X22.7577 Y64.4113
G01 X22.7286 Y64.3849
G01 X22.7144 Y64.3713
G01 X14.4489 Y56.1058
G01 X14.4353 Y56.0916
G01 X14.4089 Y56.0625
G01 X14.3961 Y56.0476
G01 X14.3840 Y56.0321
G01 X14.3606 Y56.0006
G01 X14.3493 Y55.9845
G01 X14.3388 Y55.9679
G01 X14.3186 Y55.9343
G01 X14.3090 Y55.9172
G01 X14.3001 Y55.8996
G01 X14.2833 Y55.8641
G01 X14.2754 Y55.8462
G01 X14.2683 Y55.8279
G01 X14.2551 Y55.7909
G01 X14.2489 Y55.7722
G01 X14.2437 Y55.7533
G01 X14.2342 Y55.7152
G01 X14.2299 Y55.6961
G01 X14.2265 Y55.6767
G01 X14.2207 Y55.6379
G01 X14.2183 Y55.6184
G01 X14.2169 Y55.5988
G01 X14.2150 Y55.5596
G01 X14.2145 Y55.5400
G01 X14.2145 Y45.0043
G01 X14.2150 Y44.9847
G01 X14.2169 Y44.9454
G01 X14.2183 Y44.9259
G01 X14.2207 Y44.9064
G01 X14.2265 Y44.8675
G01 X14.2319 Y44.8386
G01 X14.2437 Y44.7909
G01 X14.2489 Y44.7720
G01 X14.2551 Y44.7534
G01 X14.2683 Y44.7164
G01 X14.2793 Y44.6890
G01 X14.3001 Y44.6446
G01 X14.3090 Y44.6271
G01 X14.3186 Y44.6100
G01 X14.3440 Y44.5680
G01 X14.3606 Y44.5437
G01 X14.3840 Y44.5121
G01 X14.3961 Y44.4967
G01 X14.4089 Y44.4818
G01 X14.4420 Y44.4455
G01 X17.6867 Y41.2006
G00 Z2.0000
G00 X17.6867 Y43.7406
G01 F60.00
G01 Z-0.1100
G01 F100.00
G01 X17.6938 Y43.7212
G01 X17.7013 Y43.7030
G01 X17.7391 Y43.6232
G01 X17.7533 Y43.5974
G01 X17.7886 Y43.5385
G01 X17.7991 Y43.5219
G01 X17.8104 Y43.5058
G01 X17.8513 Y43.4506
G01 X17.8634 Y43.4352
G01 X17.8762 Y43.4203
G01 X17.9224 Y43.3694
G01 X17.9429 Y43.3483
G01 X18.0010 Y43.2955
G01 X18.0236 Y43.2766
G01 X18.0945 Y43.2239
G01 X18.1192 Y43.2079
G01 X18.1781 Y43.1726
G01 X18.1952 Y43.1629
G01 X18.2127 Y43.1541
G01 X18.2748 Y43.1247
G01 X18.3019 Y43.1131
G01 X18.3850 Y43.0833
G01 X18.4133 Y43.0751
G01 X18.4800 Y43.0584
G01 X18.4991 Y43.0541
G01 X18.5185 Y43.0508
G01 X18.5864 Y43.0407
G01 X18.6059 Y43.0383
G01 X18.6255 Y43.0369
G01 X18.7039 Y43.0331
G01 X19.7137 Y43.0330
G01 X19.7333 Y43.0335
G01 X19.8020 Y43.0369
G01 X19.8313 Y43.0394
G01 X19.9090 Y43.0508
G01 X19.9283 Y43.0541
G01 X19.9475 Y43.0584
G01 X20.0141 Y43.0751
G01 X20.0330 Y43.0804
G01 X20.0517 Y43.0865
G01 X20.1164 Y43.1097
G01 X20.1347 Y43.1167
G01 X20.1526 Y43.1247
G01 X20.2147 Y43.1541
G01 X20.2323 Y43.1629
G01 X20.2493 Y43.1726
G01 X20.3083 Y43.2079
G01 X20.3248 Y43.2184
G01 X20.3409 Y43.2297
G01 X20.3961 Y43.2706
G01 X20.4116 Y43.2827
G01 X20.4264 Y43.2955
G01 X20.4773 Y43.3416
G01 X20.4915 Y43.3552
G01 X20.5051 Y43.3694
G01 X20.5512 Y43.4203
G01 X20.5702 Y43.4428
G01 X20.6170 Y43.5058
G01 X20.6283 Y43.5219
G01 X20.6388 Y43.5385
G01 X20.6742 Y43.5974
G01 X20.6884 Y43.6232
G01 X20.7261 Y43.7030
G01 X20.7371 Y43.7304
G01 X20.7602 Y43.7950
G01 X20.7691 Y43.8231
G01 X20.7883 Y43.8992
G01 X20.7944 Y43.9281
G01 X20.8060 Y44.0057
G01 X20.8084 Y44.0252
G01 X20.8099 Y44.0448
G01 X20.8132 Y44.1134
G01 X20.8136 Y44.1428
G01 X20.8093 Y44.2310
G01 X20.8060 Y44.2603
G01 X20.7959 Y44.3283
G01 X20.7926 Y44.3476
G01 X20.7883 Y44.3668
G01 X20.7716 Y44.4334
G01 X20.7664 Y44.4523
G01 X20.7602 Y44.4710
G01 X20.7371 Y44.5356
G01 X20.7300 Y44.5540
G01 X20.7220 Y44.5719
G01 X20.6927 Y44.6340
G01 X20.6838 Y44.6515
G01 X20.6742 Y44.6686
G01 X20.6388 Y44.7275
G01 X20.6283 Y44.7441
G01 X20.6170 Y44.7602
G01 X20.5761 Y44.8154
G01 X20.5640 Y44.8308
G01 X20.5512 Y44.8457
G01 X20.5051 Y44.8966
G01 X20.4915 Y44.9108
G01 X20.4773 Y44.9244
G01 X20.4264 Y44.9705
G01 X20.4116 Y44.9833
G01 X20.3961 Y44.9954
G01 X20.3409 Y45.0363
G01 X20.3166 Y45.0530
G01 X20.2409 Y45.0984
G01 X20.2147 Y45.1119
G01 X20.1526 Y45.1413
G01 X20.1347 Y45.1493
G01 X20.1164 Y45.1563
G01 X20.0517 Y45.1795
G01 X20.0330 Y45.1856
G01 X20.0141 Y45.1909
G01 X19.9475 Y45.2076
G01 X19.9283 Y45.2119
G01 X19.9090 Y45.2152
G01 X19.8410 Y45.2253
G01 X19.8118 Y45.2285
G01 X19.7333 Y45.2325
G01 X19.7137 Y45.2330
G01 X18.7039 Y45.2329
G01 X18.6255 Y45.2291
G01 X18.5961 Y45.2266
G01 X18.5088 Y45.2137
G01 X18.4825 Y45.2082
G01 X17.5144 Y46.1762
G01 X17.5144 Y54.3680
G01 X23.0022 Y59.8558
G01 X23.4527 Y59.8558
G01 X23.4528 Y59.7962
G01 X23.4546 Y59.7668
G01 X23.4570 Y59.7473
G01 X23.4604 Y59.7280
G01 X23.4672 Y59.6993
G01 X23.4729 Y59.6805
G01 X23.4795 Y59.6620
G01 X23.4870 Y59.6439
G01 X23.4954 Y59.6262
G01 X23.5047 Y59.6088
G01 X23.5148 Y59.5920
G01 X23.5257 Y59.5757
G01 X23.5374 Y59.5599
G01 X23.5498 Y59.5447
G01 X23.5630 Y59.5302
G01 X23.5769 Y59.5163
G01 X23.5915 Y59.5031
G01 X23.6066 Y59.4907
G01 X23.6224 Y59.4790
G01 X23.6387 Y59.4681
G01 X23.6556 Y59.4580
G01 X23.6729 Y59.4487
G01 X23.6906 Y59.4403
G01 X23.7088 Y59.4328
G01 X23.7272 Y59.4262
G01 X23.7460 Y59.4205
G01 X23.7651 Y59.4157
G01 X23.7843 Y59.4119
G01 X23.8038 Y59.4090
G01 X23.8233 Y59.4071
G01 X23.8527 Y59.4060
G01 X25.5527 Y59.4060
G01 X25.5723 Y59.4065
G01 X25.5919 Y59.4079
G01 X25.6114 Y59.4103
G01 X25.6308 Y59.4137
G01 X25.6499 Y59.4180
G01 X25.6688 Y59.4232
G01 X25.6875 Y59.4294
G01 X25.7058 Y59.4364
G01 X25.7237 Y59.4444
G01 X25.7413 Y59.4532
G01 X25.7584 Y59.4629
G01 X25.7749 Y59.4734
G01 X25.7910 Y59.4847
G01 X25.8140 Y59.5031
G01 X25.8285 Y59.5163
G01 X25.8424 Y59.5302
G01 X25.8556 Y59.5447
G01 X25.8681 Y59.5599
G01 X25.8798 Y59.5757
G01 X25.8907 Y59.5920
G01 X25.9008 Y59.6088
G01 X25.9100 Y59.6262
G01 X25.9223 Y59.6529
G01 X25.9293 Y59.6712
G01 X25.9355 Y59.6899
G01 X25.9407 Y59.7088
G01 X25.9450 Y59.7280
G01 X25.9484 Y59.7473
G01 X25.9508 Y59.7668
G01 X25.9526 Y59.7962
G01 X25.9527 Y62.5060
G01 X25.9522 Y62.5256
G01 X25.9497 Y62.5550
G01 X25.9450 Y62.5840
G01 X25.9382 Y62.6127
G01 X25.9293 Y62.6408
G01 X25.9184 Y62.6681
G01 X25.9100 Y62.6858
G01 X25.8958 Y62.7116
G01 X25.8798 Y62.7363
G01 X25.8619 Y62.7598
G01 X25.8424 Y62.7818
G01 X25.8213 Y62.8024
G01 X25.7988 Y62.8213
G01 X25.7749 Y62.8386
G01 X25.7499 Y62.8540
G01 X25.7237 Y62.8676
G01 X25.7058 Y62.8756
G01 X25.6875 Y62.8826
G01 X25.6688 Y62.8888
G01 X25.6499 Y62.8940
G01 X25.6308 Y62.8983
G01 X25.6114 Y62.9017
G01 X25.5919 Y62.9041
G01 X25.5625 Y62.9059
G01 X23.8429 Y62.9059
G01 X23.8135 Y62.9041
G01 X23.7940 Y62.9017
G01 X23.7747 Y62.8983
G01 X23.7460 Y62.8915
G01 X23.7272 Y62.8858
G01 X23.7088 Y62.8792
G01 X23.6817 Y62.8676
G01 X23.6556 Y62.8540
G01 X23.6305 Y62.8386
G01 X23.6144 Y62.8273
G01 X23.5990 Y62.8152
G01 X23.5841 Y62.8024
G01 X23.5699 Y62.7888
G01 X23.5563 Y62.7746
G01 X23.5435 Y62.7598
G01 X23.5314 Y62.7443
G01 X23.5201 Y62.7282
G01 X23.5096 Y62.7116
G01 X23.5000 Y62.6946
G01 X23.4911 Y62.6770
G01 X23.4832 Y62.6591
G01 X23.4761 Y62.6408
G01 X23.4699 Y62.6221
G01 X23.4647 Y62.6032
G01 X23.4604 Y62.5840
G01 X23.4570 Y62.5647
G01 X23.4546 Y62.5452
G01 X23.4532 Y62.5256
G01 X23.4527 Y62.5060
G01 X23.4527 Y61.4562
G01 X22.6707 Y61.4562
G01 X22.6511 Y61.4557
G01 X22.6021 Y61.4532
G01 X22.5728 Y61.4499
G01 X22.5340 Y61.4442
G01 X22.5146 Y61.4408
G01 X22.4955 Y61.4365
G01 X22.4479 Y61.4245
G01 X22.4291 Y61.4188
G01 X22.3828 Y61.4024
G01 X22.3555 Y61.3914
G01 X22.3110 Y61.3705
G01 X22.2935 Y61.3617
G01 X22.2764 Y61.3520
G01 X22.2427 Y61.3318
G01 X22.2262 Y61.3213
G01 X22.2101 Y61.3100
G01 X22.1707 Y61.2807
G01 X22.1556 Y61.2682
G01 X22.1191 Y61.2354
G01 X22.1049 Y61.2218
G01 X16.1484 Y55.2653
G01 X16.1348 Y55.2511
G01 X16.1085 Y55.2220
G01 X16.0956 Y55.2071
G01 X16.0836 Y55.1916
G01 X16.0602 Y55.1601
G01 X16.0489 Y55.1440
G01 X16.0384 Y55.1275
G01 X16.0182 Y55.0938
G01 X16.0085 Y55.0767
G01 X15.9997 Y55.0592
G01 X15.9829 Y55.0237
G01 X15.9749 Y55.0057
G01 X15.9678 Y54.9874
G01 X15.9546 Y54.9504
G01 X15.9485 Y54.9318
G01 X15.9432 Y54.9128
G01 X15.9337 Y54.8747
G01 X15.9294 Y54.8556
G01 X15.9260 Y54.8362
G01 X15.9203 Y54.7974
G01 X15.9179 Y54.7779
G01 X15.9164 Y54.7583
G01 X15.9145 Y54.7191
G01 X15.9140 Y54.6995
G01 X15.9140 Y45.8448
G01 X15.9145 Y45.8251
G01 X15.9164 Y45.7859
G01 X15.9179 Y45.7663
G01 X15.9203 Y45.7469
G01 X15.9260 Y45.7080
G01 X15.9294 Y45.6887
G01 X15.9337 Y45.6695
G01 X15.9457 Y45.6219
G01 X15.9514 Y45.6031
G01 X15.9678 Y45.5569
G01 X15.9749 Y45.5385
G01 X15.9829 Y45.5206
G01 X15.9997 Y45.4851
G01 X16.0132 Y45.4590
G01 X16.0384 Y45.4168
G01 X16.0489 Y45.4002
G01 X16.0602 Y45.3842
G01 X16.0895 Y45.3448
G01 X16.1085 Y45.3223
G01 X16.1348 Y45.2932
G01 X16.1484 Y45.2789
G01 X17.6867 Y43.7406
G00 Z2.0000
G00 X20.1164 Y45.6497
G01 F60.00
G01 Z-0.1100
G01 F100.00
G01 X20.1347 Y45.6567
G01 X20.1526 Y45.6647
G01 X20.2147 Y45.6941
G01 X20.2323 Y45.7029
G01 X20.2493 Y45.7126
G01 X20.3083 Y45.7479
G01 X20.3248 Y45.7584
G01 X20.3409 Y45.7697
G01 X20.3961 Y45.8106
G01 X20.4116 Y45.8227
G01 X20.4264 Y45.8355
G01 X20.4845 Y45.8883
G01 X20.5051 Y45.9094
G01 X20.5512 Y45.9603
G01 X20.5702 Y45.9828
G01 X20.6170 Y46.0458
G01 X20.6283 Y46.0619
G01 X20.6388 Y46.0785
G01 X20.6742 Y46.1374
G01 X20.6838 Y46.1545
G01 X20.6927 Y46.1720
G01 X20.7220 Y46.2341
G01 X20.7300 Y46.2520
G01 X20.7371 Y46.2704
G01 X20.7602 Y46.3350
G01 X20.7664 Y46.3537
G01 X20.7716 Y46.3726
G01 X20.7883 Y46.4392
G01 X20.7926 Y46.4584
G01 X20.7959 Y46.4777
G01 X20.8073 Y46.5554
G01 X20.8099 Y46.5848
G01 X20.8132 Y46.6534
G01 X20.8136 Y46.6828
G01 X20.8099 Y46.7612
G01 X20.8084 Y46.7808
G01 X20.8060 Y46.8003
G01 X20.7959 Y46.8683
G01 X20.7926 Y46.8876
G01 X20.7883 Y46.9068
G01 X20.7716 Y46.9734
G01 X20.7664 Y46.9923
G01 X20.7602 Y47.0110
G01 X20.7371 Y47.0756
G01 X20.7300 Y47.0940
G01 X20.7220 Y47.1119
G01 X20.6927 Y47.1740
G01 X20.6838 Y47.1915
G01 X20.6742 Y47.2086
G01 X20.6388 Y47.2675
G01 X20.6283 Y47.2841
G01 X20.6170 Y47.3002
G01 X20.5761 Y47.3554
G01 X20.5640 Y47.3708
G01 X20.5512 Y47.3857
G01 X20.5051 Y47.4366
G01 X20.4915 Y47.4508
G01 X20.4773 Y47.4644
G01 X20.4264 Y47.5105
G01 X20.4116 Y47.5233
G01 X20.3961 Y47.5354
G01 X20.3329 Y47.5821
G01 X20.3083 Y47.5981
G01 X20.2493 Y47.6334
G01 X20.2323 Y47.6431
G01 X20.2147 Y47.6519
G01 X20.1526 Y47.6813
G01 X20.1347 Y47.6893
G01 X20.1164 Y47.6963
G01 X20.0517 Y47.7195
G01 X20.0330 Y47.7256
G01 X20.0141 Y47.7309
G01 X19.9475 Y47.7476
G01 X19.9283 Y47.7519
G01 X19.9090 Y47.7552
G01 X19.8410 Y47.7653
G01 X19.8215 Y47.7677
G01 X19.8020 Y47.7691
G01 X19.7333 Y47.7725
G01 X19.7137 Y47.7730
G01 X18.7137 Y47.7730
G01 X18.6941 Y47.7725
G01 X18.6255 Y47.7691
G01 X18.5961 Y47.7666
G01 X18.5185 Y47.7552
G01 X18.4895 Y47.7498
G01 X18.4038 Y47.7284
G01 X18.3758 Y47.7195
G01 X18.3019 Y47.6929
G01 X18.2748 Y47.6813
G01 X18.2127 Y47.6519
G01 X18.1952 Y47.6431
G01 X18.1781 Y47.6334
G01 X18.1192 Y47.5981
G01 X18.0945 Y47.5821
G01 X18.0236 Y47.5294
G01 X18.0010 Y47.5105
G01 X17.9429 Y47.4577
G01 X17.9224 Y47.4366
G01 X17.8762 Y47.3857
G01 X17.8634 Y47.3708
G01 X17.8513 Y47.3554
G01 X17.8047 Y47.2922
G01 X17.7886 Y47.2675
G01 X17.7533 Y47.2086
G01 X17.7436 Y47.1915
G01 X17.7348 Y47.1740
G01 X17.7054 Y47.1119
G01 X17.6975 Y47.0940
G01 X17.6904 Y47.0756
G01 X17.6672 Y47.0110
G01 X17.6611 Y46.9923
G01 X17.6558 Y46.9734
G01 X17.6392 Y46.9068
G01 X17.6349 Y46.8876
G01 X17.6315 Y46.8683
G01 X17.6214 Y46.8003
G01 X17.6190 Y46.7808
G01 X17.6176 Y46.7612
G01 X17.6142 Y46.6926
G01 X17.6137 Y46.6730
G01 X17.6142 Y46.6534
G01 X17.6176 Y46.5848
G01 X17.6190 Y46.5652
G01 X17.6214 Y46.5457
G01 X17.6315 Y46.4777
G01 X17.6349 Y46.4584
G01 X17.6392 Y46.4392
G01 X17.6558 Y46.3726
G01 X17.6611 Y46.3537
G01 X17.6672 Y46.3350
G01 X17.6904 Y46.2704
G01 X17.6975 Y46.2520
G01 X17.7054 Y46.2341
G01 X17.7348 Y46.1720
G01 X17.7436 Y46.1545
G01 X17.7533 Y46.1374
G01 X17.7886 Y46.0785
G01 X17.7991 Y46.0619
G01 X17.8104 Y46.0458
G01 X17.8513 Y45.9906
G01 X17.8634 Y45.9752
G01 X17.8762 Y45.9603
G01 X17.9224 Y45.9094
G01 X17.9359 Y45.8952
G01 X17.9501 Y45.8816
G01 X18.0010 Y45.8355
G01 X18.0159 Y45.8227
G01 X18.0314 Y45.8106
G01 X18.0945 Y45.7639
G01 X18.1192 Y45.7479
G01 X18.1781 Y45.7126
G01 X18.2039 Y45.6984
G01 X18.2748 Y45.6647
G01 X18.2928 Y45.6567
G01 X18.3111 Y45.6497
G01 X18.3758 Y45.6265
G01 X18.3944 Y45.6204
G01 X18.4133 Y45.6151
G01 X18.4800 Y45.5984
G01 X18.4991 Y45.5941
G01 X18.5185 Y45.5908
G01 X18.5864 Y45.5807
G01 X18.6059 Y45.5783
G01 X18.6255 Y45.5769
G01 X18.6941 Y45.5735
G01 X18.7137 Y45.5730
G01 X19.7137 Y45.5730
G01 X19.7333 Y45.5735
G01 X19.8020 Y45.5769
G01 X19.8215 Y45.5783
G01 X19.8410 Y45.5807
G01 X19.9090 Y45.5908
G01 X19.9283 Y45.5941
G01 X19.9475 Y45.5984
G01 X20.0141 Y45.6151
G01 X20.0330 Y45.6204
G01 X20.0517 Y45.6265
G01 X20.1164 Y45.6497
G00 Z2.0000
G00 X23.6564 Y45.6497
G01 F60.00
G01 Z-0.1100
G01 F100.00
G01 X23.6747 Y45.6567
G01 X23.6926 Y45.6647
G01 X23.7547 Y45.6941
G01 X23.7723 Y45.7029
G01 X23.7893 Y45.7126
G01 X23.8483 Y45.7479
G01 X23.8648 Y45.7584
G01 X23.8809 Y45.7697
G01 X23.9361 Y45.8106
G01 X23.9516 Y45.8227
G01 X23.9664 Y45.8355
G01 X24.0245 Y45.8883
G01 X24.0451 Y45.9094
G01 X24.0912 Y45.9603
G01 X24.1102 Y45.9828
G01 X24.1570 Y46.0458
G01 X24.1683 Y46.0619
G01 X24.1788 Y46.0785
G01 X24.2142 Y46.1374
G01 X24.2238 Y46.1545
G01 X24.2327 Y46.1720
G01 X24.2620 Y46.2341
G01 X24.2700 Y46.2520
G01 X24.2771 Y46.2704
G01 X24.3002 Y46.3350
G01 X24.3064 Y46.3537
G01 X24.3116 Y46.3726
G01 X24.3283 Y46.4392
G01 X24.3326 Y46.4584
G01 X24.3359 Y46.4777
G01 X24.3473 Y46.5554
G01 X24.3499 Y46.5848
G01 X24.3532 Y46.6534
G01 X24.3536 Y46.6828
G01 X24.3499 Y46.7612
G01 X24.3484 Y46.7808
G01 X24.3460 Y46.8003
G01 X24.3359 Y46.8683
G01 X24.3326 Y46.8876
G01 X24.3283 Y46.9068
G01 X24.3116 Y46.9734
G01 X24.3064 Y46.9923
G01 X24.3002 Y47.0110
G01 X24.2771 Y47.0756
G01 X24.2700 Y47.0940
G01 X24.2620 Y47.1119
G01 X24.2327 Y47.1740
G01 X24.2238 Y47.1915
G01 X24.2142 Y47.2086
G01 X24.1788 Y47.2675
G01 X24.1683 Y47.2841
G01 X24.1570 Y47.3002
G01 X24.1161 Y47.3554
G01 X24.1040 Y47.3708
G01 X24.0912 Y47.3857
G01 X24.0451 Y47.4366
G01 X24.0315 Y47.4508
G01 X24.0173 Y47.4644
G01 X23.9664 Y47.5105
G01 X23.9516 Y47.5233
G01 X23.9361 Y47.5354
G01 X23.8729 Y47.5821
G01 X23.8483 Y47.5981
G01 X23.7893 Y47.6334
G01 X23.7723 Y47.6431
G01 X23.7547 Y47.6519
G01 X23.6926 Y47.6813
G01 X23.6747 Y47.6893
G01 X23.6564 Y47.6963
G01 X23.5917 Y47.7195
G01 X23.5730 Y47.7256
G01 X23.5541 Y47.7309
G01 X23.4875 Y47.7476
G01 X23.4683 Y47.7519
G01 X23.4490 Y47.7552
G01 X23.3810 Y47.7653
G01 X23.3615 Y47.7677
G01 X23.3420 Y47.7691
G01 X23.2733 Y47.7725
G01 X23.2537 Y47.7730
G01 X22.2537 Y47.7730
G01 X22.2341 Y47.7725
G01 X22.1655 Y47.7691
G01 X22.1361 Y47.7666
G01 X22.0585 Y47.7552
G01 X22.0295 Y47.7498
G01 X21.9438 Y47.7284
G01 X21.9158 Y47.7195
G01 X21.8419 Y47.6929
G01 X21.8148 Y47.6813
G01 X21.7527 Y47.6519
G01 X21.7352 Y47.6431
G01 X21.7181 Y47.6334
G01 X21.6592 Y47.5981
G01 X21.6345 Y47.5821
G01 X21.5636 Y47.5294
G01 X21.5410 Y47.5105
G01 X21.4829 Y47.4577
G01 X21.4624 Y47.4366
G01 X21.4162 Y47.3857
G01 X21.4034 Y47.3708
G01 X21.3913 Y47.3554
G01 X21.3447 Y47.2922
G01 X21.3286 Y47.2675
G01 X21.2933 Y47.2086
G01 X21.2836 Y47.1915
G01 X21.2748 Y47.1740
G01 X21.2454 Y47.1119
G01 X21.2375 Y47.0940
G01 X21.2304 Y47.0756
G01 X21.2072 Y47.0110
G01 X21.2011 Y46.9923
G01 X21.1958 Y46.9734
G01 X21.1792 Y46.9068
G01 X21.1749 Y46.8876
G01 X21.1715 Y46.8683
G01 X21.1614 Y46.8003
G01 X21.1590 Y46.7808
G01 X21.1576 Y46.7612
G01 X21.1542 Y46.6926
G01 X21.1537 Y46.6730
G01 X21.1542 Y46.6534
G01 X21.1576 Y46.5848
G01 X21.1590 Y46.5652
G01 X21.1614 Y46.5457
G01 X21.1715 Y46.4777
G01 X21.1749 Y46.4584
G01 X21.1792 Y46.4392
G01 X21.1958 Y46.3726
G01 X21.2011 Y46.3537
G01 X21.2072 Y46.3350
G01 X21.2304 Y46.2704
G01 X21.2375 Y46.2520
G01 X21.2454 Y46.2341
G01 X21.2748 Y46.1720
G01 X21.2836 Y46.1545
G01 X21.2933 Y46.1374
G01 X21.3286 Y46.0785
G01 X21.3391 Y46.0619
G01 X21.3504 Y46.0458
G01 X21.3913 Y45.9906
G01 X21.4034 Y45.9752
G01 X21.4162 Y45.9603
G01 X21.4624 Y45.9094
G01 X21.4759 Y45.8952
G01 X21.4901 Y45.8816
G01 X21.5410 Y45.8355
G01 X21.5559 Y45.8227
G01 X21.5714 Y45.8106
G01 X21.6345 Y45.7639
G01 X21.6592 Y45.7479
G01 X21.7181 Y45.7126
G01 X21.7439 Y45.6984
G01 X21.8148 Y45.6647
G01 X21.8328 Y45.6567
G01 X21.8511 Y45.6497
G01 X21.9158 Y45.6265
G01 X21.9344 Y45.6204
G01 X21.9533 Y45.6151
G01 X22.0200 Y45.5984
G01 X22.0391 Y45.5941
G01 X22.0585 Y45.5908
G01 X22.1264 Y45.5807
G01 X22.1459 Y45.5783
G01 X22.1655 Y45.5769
G01 X22.2341 Y45.5735
G01 X22.2537 Y45.5730
G01 X23.2537 Y45.5730
G01 X23.2733 Y45.5735
G01 X23.3420 Y45.5769
G01 X23.3615 Y45.5783
G01 X23.3810 Y45.5807
G01 X23.4490 Y45.5908
G01 X23.4683 Y45.5941
G01 X23.4875 Y45.5984
G01 X23.5541 Y45.6151
G01 X23.5730 Y45.6204
G01 X23.5917 Y45.6265
G01 X23.6564 Y45.6497
G00 Z2.0000
G00 X23.6564 Y43.1097
G01 F60.00
G01 Z-0.1100
G01 F100.00
G01 X23.6747 Y43.1167
G01 X23.6926 Y43.1247
G01 X23.7547 Y43.1541
G01 X23.7723 Y43.1629
G01 X23.7893 Y43.1726
G01 X23.8483 Y43.2079
G01 X23.8648 Y43.2184
G01 X23.8809 Y43.2297
G01 X23.9361 Y43.2706
G01 X23.9516 Y43.2827
G01 X23.9664 Y43.2955
G01 X24.0245 Y43.3483
G01 X24.0451 Y43.3694
G01 X24.0912 Y43.4203
G01 X24.1102 Y43.4428
G01 X24.1570 Y43.5058
G01 X24.1683 Y43.5219
G01 X24.1788 Y43.5385
G01 X24.2142 Y43.5974
G01 X24.2238 Y43.6145
G01 X24.2327 Y43.6320
G01 X24.2620 Y43.6941
G01 X24.2700 Y43.7120
G01 X24.2771 Y43.7304
G01 X24.3002 Y43.7950
G01 X24.3064 Y43.8137
G01 X24.3116 Y43.8326
G01 X24.3283 Y43.8992
G01 X24.3326 Y43.9184
G01 X24.3359 Y43.9377
G01 X24.3473 Y44.0154
G01 X24.3499 Y44.0448
G01 X24.3532 Y44.1134
G01 X24.3536 Y44.1428
G01 X24.3499 Y44.2212
G01 X24.3484 Y44.2408
G01 X24.3460 Y44.2603
G01 X24.3359 Y44.3283
G01 X24.3326 Y44.3476
G01 X24.3283 Y44.3668
G01 X24.3116 Y44.4334
G01 X24.3064 Y44.4523
G01 X24.3002 Y44.4710
G01 X24.2771 Y44.5356
G01 X24.2700 Y44.5540
G01 X24.2620 Y44.5719
G01 X24.2327 Y44.6340
G01 X24.2238 Y44.6515
G01 X24.2142 Y44.6686
G01 X24.1788 Y44.7275
G01 X24.1683 Y44.7441
G01 X24.1570 Y44.7602
G01 X24.1161 Y44.8154
G01 X24.1040 Y44.8308
G01 X24.0912 Y44.8457
G01 X24.0451 Y44.8966
G01 X24.0315 Y44.9108
G01 X24.0173 Y44.9244
G01 X23.9664 Y44.9705
G01 X23.9516 Y44.9833
G01 X23.9361 Y44.9954
G01 X23.8729 Y45.0421
G01 X23.8483 Y45.0581
G01 X23.7893 Y45.0934
G01 X23.7723 Y45.1031
G01 X23.7547 Y45.1119
G01 X23.6926 Y45.1413
G01 X23.6747 Y45.1493
G01 X23.6564 Y45.1563
G01 X23.5917 Y45.1795
G01 X23.5730 Y45.1856
G01 X23.5541 Y45.1909
G01 X23.4875 Y45.2076
G01 X23.4683 Y45.2119
G01 X23.4490 Y45.2152
G01 X23.3810 Y45.2253
G01 X23.3615 Y45.2277
G01 X23.3420 Y45.2291
G01 X23.2733 Y45.2325
G01 X23.2537 Y45.2330
G01 X22.2537 Y45.2330
G01 X22.2341 Y45.2325
G01 X22.1655 Y45.2291
G01 X22.1361 Y45.2266
G01 X22.0585 Y45.2152
G01 X22.0295 Y45.2098
G01 X21.9438 Y45.1884
G01 X21.9158 Y45.1795
G01 X21.8419 Y45.1529
G01 X21.8148 Y45.1413
G01 X21.7527 Y45.1119
G01 X21.7352 Y45.1031
G01 X21.7181 Y45.0934
G01 X21.6592 Y45.0581
G01 X21.6345 Y45.0421
G01 X21.5636 Y44.9894
G01 X21.5410 Y44.9705
G01 X21.4829 Y44.9177
G01 X21.4624 Y44.8966
G01 X21.4162 Y44.8457
G01 X21.4034 Y44.8308
G01 X21.3913 Y44.8154
G01 X21.3447 Y44.7522
G01 X21.3286 Y44.7275
G01 X21.2933 Y44.6686
G01 X21.2836 Y44.6515
G01 X21.2748 Y44.6340
G01 X21.2454 Y44.5719
G01 X21.2375 Y44.5540
G01 X21.2304 Y44.5356
G01 X21.2072 Y44.4710
G01 X21.2011 Y44.4523
G01 X21.1958 Y44.4334
G01 X21.1792 Y44.3668
G01 X21.1749 Y44.3476
G01 X21.1715 Y44.3283
G01 X21.1614 Y44.2603
G01 X21.1590 Y44.2408
G01 X21.1576 Y44.2212
G01 X21.1542 Y44.1526
G01 X21.1537 Y44.1330
G01 X21.1542 Y44.1134
G01 X21.1576 Y44.0448
G01 X21.1590 Y44.0252
G01 X21.1614 Y44.0057
G01 X21.1715 Y43.9377
G01 X21.1749 Y43.9184
G01 X21.1792 Y43.8992
G01 X21.1958 Y43.8326
G01 X21.2011 Y43.8137
G01 X21.2072 Y43.7950
G01 X21.2304 Y43.7304
G01 X21.2375 Y43.7120
G01 X21.2454 Y43.6941
G01 X21.2748 Y43.6320
G01 X21.2836 Y43.6145
G01 X21.2933 Y43.5974
G01 X21.3286 Y43.5385
G01 X21.3391 Y43.5219
G01 X21.3504 Y43.5058
G01 X21.3913 Y43.4506
G01 X21.4034 Y43.4352
G01 X21.4162 Y43.4203
G01 X21.4624 Y43.3694
G01 X21.4759 Y43.3552
G01 X21.4901 Y43.3416
G01 X21.5410 Y43.2955
G01 X21.5559 Y43.2827
G01 X21.5714 Y43.2706
G01 X21.6345 Y43.2239
G01 X21.6592 Y43.2079
G01 X21.7181 Y43.1726
G01 X21.7439 Y43.1584
G01 X21.8148 Y43.1247
G01 X21.8328 Y43.1167
G01 X21.8511 Y43.1097
G01 X21.9158 Y43.0865
G01 X21.9344 Y43.0804
G01 X21.9533 Y43.0751
G01 X22.0200 Y43.0584
G01 X22.0391 Y43.0541
G01 X22.0585 Y43.0508
G01 X22.1264 Y43.0407
G01 X22.1459 Y43.0383
G01 X22.1655 Y43.0369
G01 X22.2341 Y43.0335
G01 X22.2537 Y43.0330
G01 X23.2537 Y43.0330
G01 X23.2733 Y43.0335
G01 X23.3420 Y43.0369
G01 X23.3615 Y43.0383
G01 X23.3810 Y43.0407
G01 X23.4490 Y43.0508
G01 X23.4683 Y43.0541
G01 X23.4875 Y43.0584
G01 X23.5541 Y43.0751
G01 X23.5730 Y43.0804
G01 X23.5917 Y43.0865
G01 X23.6564 Y43.1097
G00 Z2.0000
G00 X23.6229 Y42.6283
G01 F60.00
G01 Z-0.1100
G01 F100.00
G01 X23.5824 Y42.6427
G01 X23.5636 Y42.6484
G01 X23.4875 Y42.6676
G01 X23.4587 Y42.6737
G01 X23.3810 Y42.6853
G01 X23.3615 Y42.6877
G01 X23.3420 Y42.6891
G01 X23.2733 Y42.6925
G01 X23.2537 Y42.6930
G01 X22.2537 Y42.6930
G01 X22.2341 Y42.6925
G01 X22.1655 Y42.6891
G01 X22.1459 Y42.6877
G01 X22.1264 Y42.6853
G01 X22.0585 Y42.6752
G01 X22.0391 Y42.6719
G01 X22.0200 Y42.6676
G01 X21.9533 Y42.6509
G01 X21.9344 Y42.6456
G01 X21.9158 Y42.6395
G01 X21.8511 Y42.6163
G01 X21.8328 Y42.6093
G01 X21.8148 Y42.6013
G01 X21.7527 Y42.5719
G01 X21.7352 Y42.5631
G01 X21.7181 Y42.5534
G01 X21.6592 Y42.5181
G01 X21.6426 Y42.5076
G01 X21.6265 Y42.4963
G01 X21.5636 Y42.4494
G01 X21.5410 Y42.4305
G01 X21.4901 Y42.3844
G01 X21.4759 Y42.3708
G01 X21.4624 Y42.3566
G01 X21.4162 Y42.3057
G01 X21.4034 Y42.2908
G01 X21.3913 Y42.2754
G01 X21.3504 Y42.2202
G01 X21.3391 Y42.2041
G01 X21.3286 Y42.1875
G01 X21.2933 Y42.1286
G01 X21.2836 Y42.1115
G01 X21.2748 Y42.0940
G01 X21.2454 Y42.0319
G01 X21.2375 Y42.0140
G01 X21.2304 Y41.9956
G01 X21.2072 Y41.9310
G01 X21.2011 Y41.9123
G01 X21.1958 Y41.8934
G01 X21.1792 Y41.8268
G01 X21.1749 Y41.8076
G01 X21.1715 Y41.7883
G01 X21.1614 Y41.7203
G01 X21.1590 Y41.7008
G01 X21.1576 Y41.6812
G01 X21.1542 Y41.6126
G01 X21.1537 Y41.5930
G01 X21.1542 Y41.5734
G01 X21.1576 Y41.5048
G01 X21.1590 Y41.4852
G01 X21.1614 Y41.4657
G01 X21.1715 Y41.3977
G01 X21.1749 Y41.3784
G01 X21.1792 Y41.3592
G01 X21.1958 Y41.2926
G01 X21.2011 Y41.2737
G01 X21.2072 Y41.2550
G01 X21.2304 Y41.1904
G01 X21.2375 Y41.1720
G01 X21.2454 Y41.1541
G01 X21.2748 Y41.0920
G01 X21.2836 Y41.0745
G01 X21.2933 Y41.0574
G01 X21.3286 Y40.9985
G01 X21.3391 Y40.9819
G01 X21.3504 Y40.9658
G01 X21.3973 Y40.9028
G01 X21.4162 Y40.8803
G01 X21.4624 Y40.8294
G01 X21.4759 Y40.8152
G01 X21.4901 Y40.8016
G01 X21.5410 Y40.7555
G01 X21.5559 Y40.7427
G01 X21.5714 Y40.7306
G01 X21.6265 Y40.6897
G01 X21.6426 Y40.6784
G01 X21.6592 Y40.6679
G01 X21.7181 Y40.6326
G01 X21.7352 Y40.6229
G01 X21.7527 Y40.6141
G01 X21.8148 Y40.5847
G01 X21.8328 Y40.5767
G01 X21.8511 Y40.5697
G01 X21.9158 Y40.5465
G01 X21.9344 Y40.5404
G01 X21.9533 Y40.5351
G01 X22.0200 Y40.5184
G01 X22.0391 Y40.5141
G01 X22.0585 Y40.5108
G01 X22.1361 Y40.4994
G01 X22.1655 Y40.4969
G01 X22.2341 Y40.4935
G01 X22.2537 Y40.4930
G01 X23.2537 Y40.4930
G01 X23.2733 Y40.4935
G01 X23.3518 Y40.4975
G01 X23.3810 Y40.5007
G01 X23.4490 Y40.5108
G01 X23.4683 Y40.5141
G01 X23.4875 Y40.5184
G01 X23.5541 Y40.5351
G01 X23.5730 Y40.5404
G01 X23.5917 Y40.5465
G01 X23.6564 Y40.5697
G01 X23.6747 Y40.5767
G01 X23.6926 Y40.5847
G01 X23.7635 Y40.6184
G01 X23.7893 Y40.6326
G01 X23.8483 Y40.6679
G01 X23.8648 Y40.6784
G01 X23.8809 Y40.6897
G01 X23.9439 Y40.7366
G01 X23.9664 Y40.7555
G01 X24.0173 Y40.8016
G01 X24.0315 Y40.8152
G01 X24.0451 Y40.8294
G01 X24.0983 Y40.8883
G01 X24.1135 Y40.8970
G01 X24.1555 Y40.9223
G01 X24.1798 Y40.9390
G01 X24.2114 Y40.9624
G01 X24.2268 Y40.9744
G01 X24.2417 Y40.9873
G01 X24.2780 Y41.0203
G01 X26.2914 Y43.0337
G01 X26.3245 Y43.0700
G01 X26.3373 Y43.0849
G01 X26.3494 Y43.1004
G01 X26.3728 Y43.1319
G01 X26.3841 Y43.1480
G01 X26.3946 Y43.1645
G01 X26.4148 Y43.1982
G01 X26.4244 Y43.2153
G01 X26.4333 Y43.2328
G01 X26.4501 Y43.2683
G01 X26.4580 Y43.2863
G01 X26.4651 Y43.3046
G01 X26.4815 Y43.3509
G01 X26.4897 Y43.3792
G01 X26.5015 Y43.4268
G01 X26.5053 Y43.4461
G01 X26.5127 Y43.4946
G01 X26.5159 Y43.5239
G01 X26.5184 Y43.5729
G01 X26.5189 Y43.5925
G01 X26.5189 Y55.6001
G01 X26.5184 Y55.6197
G01 X26.5165 Y55.6590
G01 X26.5151 Y55.6786
G01 X26.5127 Y55.6980
G01 X26.5053 Y55.7466
G01 X26.4992 Y55.7754
G01 X26.4897 Y55.8135
G01 X26.4845 Y55.8324
G01 X26.4783 Y55.8510
G01 X26.4617 Y55.8972
G01 X26.4501 Y55.9243
G01 X26.4333 Y55.9598
G01 X26.4244 Y55.9773
G01 X26.4148 Y55.9944
G01 X26.3894 Y56.0365
G01 X26.3728 Y56.0607
G01 X26.3494 Y56.0923
G01 X26.3373 Y56.1078
G01 X26.3245 Y56.1226
G01 X26.2914 Y56.1589
G01 X25.8436 Y56.6069
G01 X25.8537 Y56.6286
G01 X25.8612 Y56.6468
G01 X25.8959 Y56.7438
G01 X25.9041 Y56.7721
G01 X25.9267 Y56.8625
G01 X25.9321 Y56.8915
G01 X25.9443 Y56.9740
G01 X25.9467 Y56.9935
G01 X25.9481 Y57.0131
G01 X25.9522 Y57.0964
G01 X25.9527 Y57.1160
G01 X25.9527 Y58.1160
G01 X25.9522 Y58.1356
G01 X25.9475 Y58.2287
G01 X25.9443 Y58.2580
G01 X25.9321 Y58.3405
G01 X25.9287 Y58.3599
G01 X25.9244 Y58.3790
G01 X25.9041 Y58.4599
G01 X25.8989 Y58.4789
G01 X25.8927 Y58.4975
G01 X25.8612 Y58.5852
G01 X25.8496 Y58.6123
G01 X25.8139 Y58.6877
G01 X25.8051 Y58.7052
G01 X25.7954 Y58.7223
G01 X25.7526 Y58.7939
G01 X25.7421 Y58.8105
G01 X25.7308 Y58.8265
G01 X25.6811 Y58.8935
G01 X25.6690 Y58.9090
G01 X25.6562 Y58.9239
G01 X25.6001 Y58.9857
G01 X25.5866 Y58.9999
G01 X25.5724 Y59.0134
G01 X25.5106 Y59.0694
G01 X25.4957 Y59.0823
G01 X25.4802 Y59.0943
G01 X25.4132 Y59.1440
G01 X25.3972 Y59.1553
G01 X25.3806 Y59.1658
G01 X25.3090 Y59.2087
G01 X25.2920 Y59.2184
G01 X25.2744 Y59.2272
G01 X25.1990 Y59.2629
G01 X25.1811 Y59.2708
G01 X25.1628 Y59.2779
G01 X25.0842 Y59.3060
G01 X25.0656 Y59.3122
G01 X25.0467 Y59.3174
G01 X24.9657 Y59.3377
G01 X24.9466 Y59.3420
G01 X24.9272 Y59.3453
G01 X24.8447 Y59.3576
G01 X24.8155 Y59.3608
G01 X24.7223 Y59.3655
G01 X24.7027 Y59.3660
G01 X24.6831 Y59.3655
G01 X24.5998 Y59.3614
G01 X24.5802 Y59.3600
G01 X24.5607 Y59.3576
G01 X24.4782 Y59.3453
G01 X24.4589 Y59.3420
G01 X24.4397 Y59.3377
G01 X24.3588 Y59.3174
G01 X24.3399 Y59.3122
G01 X24.3212 Y59.3060
G01 X24.2427 Y59.2779
G01 X24.2244 Y59.2708
G01 X24.2064 Y59.2629
G01 X24.1310 Y59.2272
G01 X24.1135 Y59.2184
G01 X24.0964 Y59.2087
G01 X24.0248 Y59.1658
G01 X24.0083 Y59.1553
G01 X23.9922 Y59.1440
G01 X23.9252 Y59.0943
G01 X23.9097 Y59.0823
G01 X23.8949 Y59.0694
G01 X23.8331 Y59.0134
G01 X23.8188 Y58.9999
G01 X23.8053 Y58.9857
G01 X23.7493 Y58.9239
G01 X23.7365 Y58.9090
G01 X23.7244 Y58.8935
G01 X23.6747 Y58.8265
G01 X23.6634 Y58.8105
G01 X23.6529 Y58.7939
G01 X23.6100 Y58.7223
G01 X23.6003 Y58.7052
G01 X23.5915 Y58.6877
G01 X23.5558 Y58.6123
G01 X23.5479 Y58.5944
G01 X23.5408 Y58.5760
G01 X23.5127 Y58.4975
G01 X23.5065 Y58.4789
G01 X23.5013 Y58.4599
G01 X23.4810 Y58.3790
G01 X23.4767 Y58.3599
G01 X23.4734 Y58.3405
G01 X23.4611 Y58.2580
G01 X23.4579 Y58.2287
G01 X23.4532 Y58.1356
G01 X23.4527 Y58.1160
G01 X23.4527 Y57.1160
G01 X23.4532 Y57.0964
G01 X23.4579 Y57.0033
G01 X23.4611 Y56.9740
G01 X23.4734 Y56.8915
G01 X23.4767 Y56.8721
G01 X23.4810 Y56.8530
G01 X23.5013 Y56.7721
G01 X23.5065 Y56.7531
G01 X23.5127 Y56.7345
G01 X23.5408 Y56.6560
G01 X23.5479 Y56.6376
G01 X23.5558 Y56.6197
G01 X23.5958 Y56.5355
G01 X23.6100 Y56.5097
G01 X23.6529 Y56.4381
G01 X23.6634 Y56.4215
G01 X23.6747 Y56.4055
G01 X23.7244 Y56.3385
G01 X23.7365 Y56.3230
G01 X23.7493 Y56.3081
G01 X23.8053 Y56.2463
G01 X23.8259 Y56.2253
G01 X23.8949 Y56.1626
G01 X23.9097 Y56.1497
G01 X23.9252 Y56.1377
G01 X23.9922 Y56.0880
G01 X24.0083 Y56.0767
G01 X24.0248 Y56.0662
G01 X24.0964 Y56.0233
G01 X24.1135 Y56.0136
G01 X24.1310 Y56.0048
G01 X24.2064 Y55.9691
G01 X24.2271 Y55.9600
G01 X24.9185 Y55.2687
G01 X24.9185 Y43.9240
G01 X23.6229 Y42.6283
G00 Z2.0000
G00 X23.5180 Y40.1199
G01 F60.00
G01 Z-0.1100
G01 F100.00
G01 X23.4779 Y40.1298
G01 X23.4587 Y40.1337
G01 X23.3713 Y40.1466
G01 X23.3420 Y40.1491
G01 X23.2635 Y40.1529
G01 X22.2537 Y40.1530
G01 X22.2341 Y40.1525
G01 X22.1655 Y40.1491
G01 X22.1459 Y40.1477
G01 X22.1264 Y40.1453
G01 X22.0585 Y40.1352
G01 X22.0391 Y40.1319
G01 X22.0200 Y40.1276
G01 X21.9533 Y40.1109
G01 X21.9344 Y40.1056
G01 X21.9158 Y40.0995
G01 X21.8511 Y40.0763
G01 X21.8328 Y40.0693
G01 X21.8148 Y40.0613
G01 X21.7527 Y40.0319
G01 X21.7352 Y40.0231
G01 X21.7181 Y40.0134
G01 X21.6592 Y39.9781
G01 X21.6426 Y39.9676
G01 X21.6265 Y39.9563
G01 X21.5714 Y39.9154
G01 X21.5559 Y39.9033
G01 X21.5410 Y39.8905
G01 X21.4901 Y39.8444
G01 X21.4759 Y39.8308
G01 X21.4624 Y39.8166
G01 X21.4162 Y39.7657
G01 X21.4034 Y39.7508
G01 X21.3913 Y39.7354
G01 X21.3504 Y39.6802
G01 X21.3391 Y39.6641
G01 X21.3286 Y39.6475
G01 X21.2933 Y39.5886
G01 X21.2836 Y39.5715
G01 X21.2748 Y39.5540
G01 X21.2454 Y39.4919
G01 X21.2375 Y39.4740
G01 X21.2304 Y39.4556
G01 X21.2072 Y39.3910
G01 X21.2011 Y39.3723
G01 X21.1958 Y39.3534
G01 X21.1792 Y39.2868
G01 X21.1749 Y39.2676
G01 X21.1715 Y39.2483
G01 X21.1614 Y39.1803
G01 X21.1590 Y39.1608
G01 X21.1576 Y39.1412
G01 X21.1542 Y39.0726
G01 X21.1537 Y39.0530
G01 X21.1542 Y39.0334
G01 X21.1576 Y38.9648
G01 X21.1590 Y38.9452
G01 X21.1614 Y38.9257
G01 X21.1715 Y38.8577
G01 X21.1749 Y38.8384
G01 X21.1792 Y38.8192
G01 X21.1958 Y38.7526
G01 X21.2011 Y38.7337
G01 X21.2072 Y38.7150
G01 X21.2304 Y38.6504
G01 X21.2375 Y38.6320
G01 X21.2454 Y38.6141
G01 X21.2748 Y38.5520
G01 X21.2836 Y38.5345
G01 X21.2933 Y38.5174
G01 X21.3286 Y38.4585
G01 X21.3391 Y38.4419
G01 X21.3504 Y38.4258
G01 X21.3913 Y38.3706
G01 X21.4034 Y38.3552
G01 X21.4162 Y38.3403
G01 X21.4624 Y38.2894
G01 X21.4759 Y38.2752
G01 X21.4901 Y38.2616
G01 X21.5410 Y38.2155
G01 X21.5559 Y38.2027
G01 X21.5714 Y38.1906
G01 X21.6265 Y38.1497
G01 X21.6426 Y38.1384
G01 X21.6592 Y38.1279
G01 X21.7181 Y38.0926
G01 X21.7352 Y38.0829
G01 X21.7527 Y38.0741
G01 X21.8148 Y38.0447
G01 X21.8328 Y38.0367
G01 X21.8511 Y38.0297
G01 X21.9158 Y38.0065
G01 X21.9344 Y38.0004
G01 X21.9533 Y37.9951
G01 X22.0200 Y37.9784
G01 X22.0391 Y37.9741
G01 X22.0585 Y37.9708
G01 X22.1264 Y37.9607
G01 X22.1557 Y37.9575
G01 X22.2341 Y37.9535
G01 X22.2537 Y37.9530
G01 X23.2537 Y37.9530
G01 X23.2733 Y37.9535
G01 X23.3420 Y37.9569
G01 X23.3713 Y37.9594
G01 X23.4490 Y37.9708
G01 X23.4683 Y37.9741
G01 X23.4875 Y37.9784
G01 X23.5541 Y37.9951
G01 X23.5824 Y38.0033
G01 X23.6656 Y38.0331
G01 X23.6926 Y38.0447
G01 X23.7547 Y38.0741
G01 X23.7723 Y38.0829
G01 X23.7893 Y38.0926
G01 X23.8483 Y38.1279
G01 X23.8648 Y38.1384
G01 X23.8809 Y38.1497
G01 X23.9361 Y38.1906
G01 X23.9516 Y38.2027
G01 X23.9664 Y38.2155
G01 X24.0173 Y38.2616
G01 X24.0315 Y38.2752
G01 X24.0451 Y38.2894
G01 X24.0912 Y38.3403
G01 X24.1040 Y38.3552
G01 X24.1161 Y38.3706
G01 X24.1570 Y38.4258
G01 X24.1737 Y38.4501
G01 X24.2191 Y38.5259
G01 X24.2284 Y38.5432
G01 X24.2500 Y38.5887
G01 X30.3554 Y44.6942
G01 X30.3885 Y44.7305
G01 X30.4074 Y44.7531
G01 X30.4425 Y44.8004
G01 X30.4586 Y44.8251
G01 X30.4788 Y44.8587
G01 X30.4884 Y44.8758
G01 X30.4973 Y44.8934
G01 X30.5141 Y44.9289
G01 X30.5257 Y44.9559
G01 X30.5423 Y45.0021
G01 X30.5485 Y45.0208
G01 X30.5537 Y45.0397
G01 X30.5655 Y45.0873
G01 X30.5693 Y45.1066
G01 X30.5767 Y45.1551
G01 X30.5791 Y45.1746
G01 X30.5805 Y45.1942
G01 X30.5824 Y45.2334
G01 X30.5829 Y45.2530
G01 X30.5829 Y56.1558
G01 X30.6524 Y56.2186
G01 X30.6666 Y56.2321
G01 X30.6801 Y56.2463
G01 X30.7362 Y56.3081
G01 X30.7490 Y56.3230
G01 X30.7611 Y56.3385
G01 X30.8165 Y56.4134
G01 X30.8326 Y56.4381
G01 X30.8754 Y56.5097
G01 X30.8851 Y56.5268
G01 X30.8939 Y56.5443
G01 X30.9296 Y56.6197
G01 X30.9376 Y56.6376
G01 X30.9446 Y56.6560
G01 X30.9727 Y56.7345
G01 X30.9789 Y56.7531
G01 X30.9841 Y56.7721
G01 X31.0067 Y56.8625
G01 X31.0121 Y56.8915
G01 X31.0243 Y56.9740
G01 X31.0267 Y56.9935
G01 X31.0281 Y57.0131
G01 X31.0326 Y57.1062
G01 X31.0326 Y58.1258
G01 X31.0281 Y58.2189
G01 X31.0267 Y58.2385
G01 X31.0243 Y58.2580
G01 X31.0121 Y58.3405
G01 X31.0087 Y58.3599
G01 X31.0044 Y58.3790
G01 X30.9841 Y58.4599
G01 X30.9789 Y58.4789
G01 X30.9727 Y58.4975
G01 X30.9446 Y58.5760
G01 X30.9376 Y58.5944
G01 X30.9296 Y58.6123
G01 X30.8939 Y58.6877
G01 X30.8851 Y58.7052
G01 X30.8754 Y58.7223
G01 X30.8274 Y58.8022
G01 X30.8108 Y58.8265
G01 X30.7611 Y58.8935
G01 X30.7490 Y58.9090
G01 X30.7362 Y58.9239
G01 X30.6735 Y58.9929
G01 X30.6524 Y59.0134
G01 X30.5906 Y59.0694
G01 X30.5757 Y59.0823
G01 X30.5602 Y59.0943
G01 X30.4932 Y59.1440
G01 X30.4772 Y59.1553
G01 X30.4606 Y59.1658
G01 X30.3890 Y59.2087
G01 X30.3720 Y59.2184
G01 X30.3544 Y59.2272
G01 X30.2790 Y59.2629
G01 X30.2611 Y59.2708
G01 X30.2428 Y59.2779
G01 X30.1642 Y59.3060
G01 X30.1456 Y59.3122
G01 X30.1267 Y59.3174
G01 X30.0457 Y59.3377
G01 X30.0266 Y59.3420
G01 X30.0072 Y59.3453
G01 X29.9247 Y59.3576
G01 X29.9052 Y59.3600
G01 X29.8857 Y59.3614
G01 X29.8023 Y59.3655
G01 X29.7827 Y59.3660
G01 X29.7631 Y59.3655
G01 X29.6798 Y59.3614
G01 X29.6602 Y59.3600
G01 X29.6407 Y59.3576
G01 X29.5485 Y59.3438
G01 X29.5197 Y59.3377
G01 X29.4388 Y59.3174
G01 X29.4199 Y59.3122
G01 X29.4012 Y59.3060
G01 X29.3227 Y59.2779
G01 X29.3044 Y59.2708
G01 X29.2864 Y59.2629
G01 X29.2110 Y59.2272
G01 X29.1935 Y59.2184
G01 X29.1764 Y59.2087
G01 X29.1048 Y59.1658
G01 X29.0883 Y59.1553
G01 X29.0722 Y59.1440
G01 X29.0052 Y59.0943
G01 X28.9897 Y59.0823
G01 X28.9749 Y59.0694
G01 X28.9131 Y59.0134
G01 X28.8988 Y58.9999
G01 X28.8853 Y58.9857
G01 X28.8293 Y58.9239
G01 X28.8165 Y58.9090
G01 X28.8044 Y58.8935
G01 X28.7547 Y58.8265
G01 X28.7434 Y58.8105
G01 X28.7329 Y58.7939
G01 X28.6900 Y58.7223
G01 X28.6803 Y58.7052
G01 X28.6715 Y58.6877
G01 X28.6358 Y58.6123
G01 X28.6242 Y58.5852
G01 X28.5927 Y58.4975
G01 X28.5865 Y58.4789
G01 X28.5813 Y58.4599
G01 X28.5610 Y58.3790
G01 X28.5567 Y58.3599
G01 X28.5534 Y58.3405
G01 X28.5411 Y58.2580
G01 X28.5387 Y58.2385
G01 X28.5373 Y58.2189
G01 X28.5332 Y58.1356
G01 X28.5327 Y58.1160
G01 X28.5328 Y57.1062
G01 X28.5373 Y57.0131
G01 X28.5387 Y56.9935
G01 X28.5411 Y56.9740
G01 X28.5534 Y56.8915
G01 X28.5588 Y56.8625
G01 X28.5813 Y56.7721
G01 X28.5865 Y56.7531
G01 X28.5927 Y56.7345
G01 X28.6242 Y56.6468
G01 X28.6358 Y56.6197
G01 X28.6715 Y56.5443
G01 X28.6803 Y56.5268
G01 X28.6900 Y56.5097
G01 X28.7329 Y56.4381
G01 X28.7434 Y56.4215
G01 X28.7547 Y56.4055
G01 X28.8044 Y56.3385
G01 X28.8165 Y56.3230
G01 X28.8293 Y56.3081
G01 X28.8853 Y56.2463
G01 X28.8988 Y56.2321
G01 X28.9131 Y56.2186
G01 X28.9820 Y56.1562
G01 X28.9825 Y45.5845
G01 X23.5180 Y40.1199
G00 Z2.0000
G00 X23.4850 Y37.5882
G01 F60.00
G01 Z-0.1100
G01 F100.00
G01 X23.4587 Y37.5937
G01 X23.3713 Y37.6066
G01 X23.3420 Y37.6091
G01 X23.2635 Y37.6129
G01 X22.2537 Y37.6130
G01 X22.2341 Y37.6125
G01 X22.1655 Y37.6091
G01 X22.1361 Y37.6066
G01 X22.0585 Y37.5952
G01 X22.0391 Y37.5919
G01 X22.0200 Y37.5876
G01 X21.9533 Y37.5709
G01 X21.9344 Y37.5656
G01 X21.9158 Y37.5595
G01 X21.8511 Y37.5363
G01 X21.8328 Y37.5293
G01 X21.8148 Y37.5213
G01 X21.7527 Y37.4919
G01 X21.7352 Y37.4831
G01 X21.7181 Y37.4734
G01 X21.6592 Y37.4381
G01 X21.6426 Y37.4276
G01 X21.6265 Y37.4163
G01 X21.5714 Y37.3754
G01 X21.5484 Y37.3570
G01 X21.4901 Y37.3044
G01 X21.4759 Y37.2908
G01 X21.4624 Y37.2766
G01 X21.4162 Y37.2257
G01 X21.4034 Y37.2108
G01 X21.3913 Y37.1954
G01 X21.3504 Y37.1402
G01 X21.3391 Y37.1241
G01 X21.3286 Y37.1075
G01 X21.2933 Y37.0486
G01 X21.2836 Y37.0315
G01 X21.2748 Y37.0140
G01 X21.2454 Y36.9519
G01 X21.2375 Y36.9340
G01 X21.2304 Y36.9156
G01 X21.2072 Y36.8510
G01 X21.2011 Y36.8323
G01 X21.1958 Y36.8134
G01 X21.1792 Y36.7468
G01 X21.1749 Y36.7276
G01 X21.1715 Y36.7083
G01 X21.1614 Y36.6403
G01 X21.1590 Y36.6208
G01 X21.1576 Y36.6012
G01 X21.1542 Y36.5326
G01 X21.1537 Y36.5130
G01 X21.1542 Y36.4934
G01 X21.1576 Y36.4248
G01 X21.1590 Y36.4052
G01 X21.1614 Y36.3857
G01 X21.1715 Y36.3177
G01 X21.1749 Y36.2984
G01 X21.1792 Y36.2792
G01 X21.1958 Y36.2126
G01 X21.2011 Y36.1937
G01 X21.2072 Y36.1750
G01 X21.2304 Y36.1104
G01 X21.2375 Y36.0920
G01 X21.2454 Y36.0741
G01 X21.2748 Y36.0120
G01 X21.2836 Y35.9945
G01 X21.2933 Y35.9774
G01 X21.3286 Y35.9185
G01 X21.3391 Y35.9019
G01 X21.3504 Y35.8858
G01 X21.3913 Y35.8306
G01 X21.4097 Y35.8077
G01 X21.4624 Y35.7494
G01 X21.4759 Y35.7352
G01 X21.4901 Y35.7216
G01 X21.5410 Y35.6755
G01 X21.5559 Y35.6627
G01 X21.5714 Y35.6506
G01 X21.6265 Y35.6097
G01 X21.6426 Y35.5984
G01 X21.6592 Y35.5879
G01 X21.7181 Y35.5526
G01 X21.7439 Y35.5384
G01 X21.8148 Y35.5047
G01 X21.8328 Y35.4967
G01 X21.8511 Y35.4897
G01 X21.9158 Y35.4665
G01 X21.9438 Y35.4576
G01 X22.0200 Y35.4384
G01 X22.0488 Y35.4323
G01 X22.1361 Y35.4194
G01 X22.1655 Y35.4169
G01 X22.2341 Y35.4135
G01 X22.2537 Y35.4130
G01 X23.2537 Y35.4130
G01 X23.2733 Y35.4135
G01 X23.3420 Y35.4169
G01 X23.3713 Y35.4194
G01 X23.4490 Y35.4308
G01 X23.4683 Y35.4341
G01 X23.4875 Y35.4384
G01 X23.5541 Y35.4551
G01 X23.5730 Y35.4604
G01 X23.5917 Y35.4665
G01 X23.6564 Y35.4897
G01 X23.6747 Y35.4967
G01 X23.6926 Y35.5047
G01 X23.7547 Y35.5341
G01 X23.7723 Y35.5429
G01 X23.7893 Y35.5526
G01 X23.8483 Y35.5879
G01 X23.8648 Y35.5984
G01 X23.8809 Y35.6097
G01 X23.9439 Y35.6566
G01 X23.9664 Y35.6755
G01 X24.0173 Y35.7216
G01 X24.0384 Y35.7422
G01 X24.0912 Y35.8003
G01 X24.1040 Y35.8152
G01 X24.1161 Y35.8306
G01 X24.1570 Y35.8858
G01 X24.1683 Y35.9019
G01 X24.1788 Y35.9185
G01 X24.2142 Y35.9774
G01 X24.2238 Y35.9945
G01 X24.2327 Y36.0120
G01 X24.2661 Y36.0830
G01 X24.2736 Y36.1012
G01 X24.2807 Y36.1206
G01 X32.8885 Y44.7284
G01 X32.9021 Y44.7426
G01 X32.9285 Y44.7717
G01 X32.9413 Y44.7866
G01 X32.9534 Y44.8021
G01 X32.9768 Y44.8336
G01 X32.9881 Y44.8497
G01 X32.9986 Y44.8663
G01 X33.0188 Y44.9000
G01 X33.0284 Y44.9170
G01 X33.0373 Y44.9346
G01 X33.0581 Y44.9790
G01 X33.0691 Y45.0063
G01 X33.0823 Y45.0433
G01 X33.0885 Y45.0620
G01 X33.0937 Y45.0809
G01 X33.1032 Y45.1190
G01 X33.1075 Y45.1381
G01 X33.1109 Y45.1575
G01 X33.1167 Y45.1963
G01 X33.1191 Y45.2158
G01 X33.1205 Y45.2354
G01 X33.1224 Y45.2746
G01 X33.1229 Y45.2943
G01 X33.1229 Y56.1558
G01 X33.1924 Y56.2186
G01 X33.2066 Y56.2321
G01 X33.2201 Y56.2463
G01 X33.2762 Y56.3081
G01 X33.2951 Y56.3307
G01 X33.3508 Y56.4055
G01 X33.3621 Y56.4215
G01 X33.3726 Y56.4381
G01 X33.4154 Y56.5097
G01 X33.4251 Y56.5268
G01 X33.4339 Y56.5443
G01 X33.4696 Y56.6197
G01 X33.4776 Y56.6376
G01 X33.4846 Y56.6560
G01 X33.5127 Y56.7345
G01 X33.5189 Y56.7531
G01 X33.5241 Y56.7721
G01 X33.5467 Y56.8625
G01 X33.5521 Y56.8915
G01 X33.5643 Y56.9740
G01 X33.5667 Y56.9935
G01 X33.5681 Y57.0131
G01 X33.5726 Y57.1062
G01 X33.5726 Y58.1258
G01 X33.5681 Y58.2189
G01 X33.5667 Y58.2385
G01 X33.5643 Y58.2580
G01 X33.5521 Y58.3405
G01 X33.5487 Y58.3599
G01 X33.5444 Y58.3790
G01 X33.5241 Y58.4599
G01 X33.5189 Y58.4789
G01 X33.5127 Y58.4975
G01 X33.4846 Y58.5760
G01 X33.4776 Y58.5944
G01 X33.4696 Y58.6123
G01 X33.4339 Y58.6877
G01 X33.4251 Y58.7052
G01 X33.4154 Y58.7223
G01 X33.3726 Y58.7939
G01 X33.3621 Y58.8105
G01 X33.3508 Y58.8265
G01 X33.3011 Y58.8935
G01 X33.2890 Y58.9090
G01 X33.2762 Y58.9239
G01 X33.2201 Y58.9857
G01 X33.2066 Y58.9999
G01 X33.1924 Y59.0134
G01 X33.1306 Y59.0694
G01 X33.1157 Y59.0823
G01 X33.1002 Y59.0943
G01 X33.0332 Y59.1440
G01 X33.0172 Y59.1553
G01 X33.0006 Y59.1658
G01 X32.9290 Y59.2087
G01 X32.9120 Y59.2184
G01 X32.8944 Y59.2272
G01 X32.8101 Y59.2670
G01 X32.7828 Y59.2779
G01 X32.7042 Y59.3060
G01 X32.6856 Y59.3122
G01 X32.6667 Y59.3174
G01 X32.5857 Y59.3377
G01 X32.5666 Y59.3420
G01 X32.5472 Y59.3453
G01 X32.4550 Y59.3589
G01 X32.4257 Y59.3614
G01 X32.3423 Y59.3655
G01 X32.3227 Y59.3660
G01 X32.3031 Y59.3655
G01 X32.2198 Y59.3614
G01 X32.2002 Y59.3600
G01 X32.1807 Y59.3576
G01 X32.0982 Y59.3453
G01 X32.0789 Y59.3420
G01 X32.0597 Y59.3377
G01 X31.9788 Y59.3174
G01 X31.9599 Y59.3122
G01 X31.9412 Y59.3060
G01 X31.8627 Y59.2779
G01 X31.8444 Y59.2708
G01 X31.8264 Y59.2629
G01 X31.7510 Y59.2272
G01 X31.7335 Y59.2184
G01 X31.7164 Y59.2087
G01 X31.6365 Y59.1607
G01 X31.6122 Y59.1440
G01 X31.5452 Y59.0943
G01 X31.5297 Y59.0823
G01 X31.5149 Y59.0694
G01 X31.4531 Y59.0134
G01 X31.4388 Y58.9999
G01 X31.4253 Y58.9857
G01 X31.3693 Y58.9239
G01 X31.3565 Y58.9090
G01 X31.3444 Y58.8935
G01 X31.2947 Y58.8265
G01 X31.2834 Y58.8105
G01 X31.2729 Y58.7939
G01 X31.2300 Y58.7223
G01 X31.2203 Y58.7052
G01 X31.2115 Y58.6877
G01 X31.1758 Y58.6123
G01 X31.1679 Y58.5944
G01 X31.1608 Y58.5760
G01 X31.1327 Y58.4975
G01 X31.1265 Y58.4789
G01 X31.1213 Y58.4599
G01 X31.1010 Y58.3790
G01 X31.0967 Y58.3599
G01 X31.0934 Y58.3405
G01 X31.0811 Y58.2580
G01 X31.0787 Y58.2385
G01 X31.0773 Y58.2189
G01 X31.0732 Y58.1356
G01 X31.0727 Y58.1160
G01 X31.0728 Y57.1062
G01 X31.0773 Y57.0131
G01 X31.0787 Y56.9935
G01 X31.0811 Y56.9740
G01 X31.0934 Y56.8915
G01 X31.0988 Y56.8625
G01 X31.1213 Y56.7721
G01 X31.1265 Y56.7531
G01 X31.1327 Y56.7345
G01 X31.1642 Y56.6468
G01 X31.1758 Y56.6197
G01 X31.2115 Y56.5443
G01 X31.2203 Y56.5268
G01 X31.2300 Y56.5097
G01 X31.2729 Y56.4381
G01 X31.2834 Y56.4215
G01 X31.2947 Y56.4055
G01 X31.3444 Y56.3385
G01 X31.3565 Y56.3230
G01 X31.3693 Y56.3081
G01 X31.4253 Y56.2463
G01 X31.4388 Y56.2321
G01 X31.4531 Y56.2186
G01 X31.5220 Y56.1562
G01 X31.5225 Y45.6257
G01 X23.4850 Y37.5882
G00 Z2.0000
G00 X23.4850 Y35.0482
G01 F60.00
G01 Z-0.1100
G01 F100.00
G01 X23.4587 Y35.0537
G01 X23.3713 Y35.0666
G01 X23.3420 Y35.0691
G01 X23.2635 Y35.0729
G01 X22.2537 Y35.0730
G01 X22.2341 Y35.0725
G01 X22.1655 Y35.0691
G01 X22.1361 Y35.0666
G01 X22.0585 Y35.0552
G01 X22.0391 Y35.0519
G01 X22.0200 Y35.0476
G01 X21.9533 Y35.0309
G01 X21.9344 Y35.0256
G01 X21.9158 Y35.0195
G01 X21.8511 Y34.9963
G01 X21.8328 Y34.9893
G01 X21.8148 Y34.9813
G01 X21.7527 Y34.9519
G01 X21.7352 Y34.9431
G01 X21.7181 Y34.9334
G01 X21.6592 Y34.8981
G01 X21.6426 Y34.8876
G01 X21.6265 Y34.8763
G01 X21.5714 Y34.8354
G01 X21.5484 Y34.8170
G01 X21.4901 Y34.7644
G01 X21.4759 Y34.7508
G01 X21.4624 Y34.7366
G01 X21.4162 Y34.6857
G01 X21.4034 Y34.6708
G01 X21.3913 Y34.6554
G01 X21.3504 Y34.6002
G01 X21.3391 Y34.5841
G01 X21.3286 Y34.5675
G01 X21.2933 Y34.5086
G01 X21.2836 Y34.4915
G01 X21.2748 Y34.4740
G01 X21.2454 Y34.4119
G01 X21.2375 Y34.3940
G01 X21.2304 Y34.3756
G01 X21.2072 Y34.3110
G01 X21.2011 Y34.2923
G01 X21.1958 Y34.2734
G01 X21.1792 Y34.2068
G01 X21.1749 Y34.1876
G01 X21.1715 Y34.1683
G01 X21.1614 Y34.1003
G01 X21.1590 Y34.0808
G01 X21.1576 Y34.0612
G01 X21.1542 Y33.9926
G01 X21.1537 Y33.9730
G01 X21.1542 Y33.9534
G01 X21.1576 Y33.8848
G01 X21.1590 Y33.8652
G01 X21.1614 Y33.8457
G01 X21.1715 Y33.7777
G01 X21.1749 Y33.7584
G01 X21.1792 Y33.7392
G01 X21.1958 Y33.6726
G01 X21.2011 Y33.6537
G01 X21.2072 Y33.6350
G01 X21.2304 Y33.5704
G01 X21.2375 Y33.5520
G01 X21.2454 Y33.5341
G01 X21.2748 Y33.4720
G01 X21.2836 Y33.4545
G01 X21.2933 Y33.4374
G01 X21.3286 Y33.3785
G01 X21.3391 Y33.3619
G01 X21.3504 Y33.3458
G01 X21.3913 Y33.2906
G01 X21.4097 Y33.2677
G01 X21.4624 Y33.2094
G01 X21.4759 Y33.1952
G01 X21.4901 Y33.1816
G01 X21.5410 Y33.1355
G01 X21.5559 Y33.1227
G01 X21.5714 Y33.1106
G01 X21.6265 Y33.0697
G01 X21.6426 Y33.0584
G01 X21.6592 Y33.0479
G01 X21.7181 Y33.0126
G01 X21.7439 Y32.9984
G01 X21.8148 Y32.9647
G01 X21.8328 Y32.9567
G01 X21.8511 Y32.9497
G01 X21.9158 Y32.9265
G01 X21.9438 Y32.9176
G01 X22.0200 Y32.8984
G01 X22.0488 Y32.8923
G01 X22.1361 Y32.8794
G01 X22.1655 Y32.8769
G01 X22.2341 Y32.8735
G01 X22.2537 Y32.8730
G01 X23.2537 Y32.8730
G01 X23.2733 Y32.8735
G01 X23.3420 Y32.8769
G01 X23.3615 Y32.8783
G01 X23.3810 Y32.8807
G01 X23.4490 Y32.8908
G01 X23.4683 Y32.8941
G01 X23.4875 Y32.8984
G01 X23.5541 Y32.9151
G01 X23.5730 Y32.9204
G01 X23.5917 Y32.9265
G01 X23.6564 Y32.9497
G01 X23.6747 Y32.9567
G01 X23.6926 Y32.9647
G01 X23.7547 Y32.9941
G01 X23.7723 Y33.0029
G01 X23.7893 Y33.0126
G01 X23.8483 Y33.0479
G01 X23.8648 Y33.0584
G01 X23.8809 Y33.0697
G01 X23.9361 Y33.1106
G01 X23.9516 Y33.1227
G01 X23.9664 Y33.1355
G01 X24.0173 Y33.1816
G01 X24.0315 Y33.1952
G01 X24.0451 Y33.2094
G01 X24.0912 Y33.2603
G01 X24.1040 Y33.2752
G01 X24.1161 Y33.2906
G01 X24.1628 Y33.3538
G01 X24.1788 Y33.3785
G01 X24.2142 Y33.4374
G01 X24.2238 Y33.4545
G01 X24.2327 Y33.4720
G01 X24.2661 Y33.5430
G01 X24.2736 Y33.5612
G01 X24.2807 Y33.5806
G01 X35.4285 Y44.7284
G01 X35.4421 Y44.7426
G01 X35.4685 Y44.7717
G01 X35.4813 Y44.7866
G01 X35.4934 Y44.8021
G01 X35.5168 Y44.8336
G01 X35.5281 Y44.8497
G01 X35.5386 Y44.8663
G01 X35.5637 Y44.9084
G01 X35.5730 Y44.9258
G01 X35.5981 Y44.9790
G01 X35.6091 Y45.0063
G01 X35.6223 Y45.0433
G01 X35.6285 Y45.0620
G01 X35.6337 Y45.0809
G01 X35.6432 Y45.1190
G01 X35.6493 Y45.1478
G01 X35.6580 Y45.2061
G01 X35.6605 Y45.2354
G01 X35.6624 Y45.2746
G01 X35.6629 Y45.2943
G01 X35.6629 Y56.1558
G01 X35.7324 Y56.2186
G01 X35.7466 Y56.2321
G01 X35.7601 Y56.2463
G01 X35.8162 Y56.3081
G01 X35.8290 Y56.3230
G01 X35.8411 Y56.3385
G01 X35.8965 Y56.4134
G01 X35.9126 Y56.4381
G01 X35.9554 Y56.5097
G01 X35.9651 Y56.5268
G01 X35.9739 Y56.5443
G01 X36.0096 Y56.6197
G01 X36.0176 Y56.6376
G01 X36.0246 Y56.6560
G01 X36.0527 Y56.7345
G01 X36.0589 Y56.7531
G01 X36.0641 Y56.7721
G01 X36.0867 Y56.8625
G01 X36.0921 Y56.8915
G01 X36.1043 Y56.9740
G01 X36.1067 Y56.9935
G01 X36.1081 Y57.0131
G01 X36.1126 Y57.1062
G01 X36.1127 Y58.1160
G01 X36.1122 Y58.1356
G01 X36.1081 Y58.2189
G01 X36.1067 Y58.2385
G01 X36.1043 Y58.2580
G01 X36.0921 Y58.3405
G01 X36.0887 Y58.3599
G01 X36.0844 Y58.3790
G01 X36.0641 Y58.4599
G01 X36.0589 Y58.4789
G01 X36.0527 Y58.4975
G01 X36.0246 Y58.5760
G01 X36.0176 Y58.5944
G01 X36.0096 Y58.6123
G01 X35.9739 Y58.6877
G01 X35.9651 Y58.7052
G01 X35.9554 Y58.7223
G01 X35.9126 Y58.7939
G01 X35.9021 Y58.8105
G01 X35.8908 Y58.8265
G01 X35.8411 Y58.8935
G01 X35.8290 Y58.9090
G01 X35.8162 Y58.9239
G01 X35.7601 Y58.9857
G01 X35.7466 Y58.9999
G01 X35.7324 Y59.0134
G01 X35.6706 Y59.0694
G01 X35.6557 Y59.0823
G01 X35.6402 Y59.0943
G01 X35.5732 Y59.1440
G01 X35.5572 Y59.1553
G01 X35.5406 Y59.1658
G01 X35.4690 Y59.2087
G01 X35.4433 Y59.2229
G01 X35.3501 Y59.2670
G01 X35.3228 Y59.2779
G01 X35.2442 Y59.3060
G01 X35.2256 Y59.3122
G01 X35.2067 Y59.3174
G01 X35.1257 Y59.3377
G01 X35.1066 Y59.3420
G01 X35.0872 Y59.3453
