(G-CODE GENERATED BY FLATCAM v8.994 - www.flatcam.org - Version Date: 2020/11/7)

(Name: MatrixDisplay-B_Cu.gbr_iso_combined_cnc)
(Type: G-code from Geometry)
(Units: MM)

(Created on Friday, 22 April 2022 at 16:25)

(This preprocessor is the default preprocessor used by FlatCAM.)
(It is made to work with MACH3 compatible motion controllers.)

(TOOL DIAMETER: 0.8 mm)
(Feedrate_XY: 100.0 mm/min)
(Feedrate_Z: 60.0 mm/min)
(Feedrate rapids 1500.0 mm/min)

(Z_Cut: -0.11 mm)
(Z_Move: 2.0 mm)
(Z Start: None mm)
(Z End: 5.0 mm)
(X,Y End: None mm)
(Steps per circle: 64)
(Preprocessor Geometry: Default_no_M6)

(X range:    5.6403 ...   57.4640  mm)
(Y range:    7.1160 ...   70.5682  mm)

(Spindle Speed: 1000.0 RPM)
G21
G90
G94

G01 F100.00

M5
G00 Z15.0000
G00 X0.0000 Y0.0000
T1
(MSG, Change to Tool Dia = 0.8000)
M0
G00 Z15.0000
        
M03 S1000.0
G4 P1.0
G01 F100.00
G00 X14.5401 Y11.3640
G01 F60.00
G01 Z-0.1100
G01 F100.00
G01 X14.5075 Y11.3522
G01 X14.4894 Y11.3447
G01 X14.3119 Y11.2607
G01 X14.2861 Y11.2465
G01 X14.1346 Y11.1557
G01 X14.1180 Y11.1452
G01 X14.1020 Y11.1339
G01 X13.9601 Y11.0287
G01 X13.9446 Y11.0166
G01 X13.9297 Y11.0038
G01 X13.7989 Y10.8852
G01 X13.7846 Y10.8716
G01 X13.7711 Y10.8574
G01 X13.6525 Y10.7265
G01 X13.6397 Y10.7117
G01 X13.6276 Y10.6962
G01 X13.5224 Y10.5543
G01 X13.5110 Y10.5383
G01 X13.5005 Y10.5217
G01 X13.4097 Y10.3702
G01 X13.4001 Y10.3531
G01 X13.3912 Y10.3355
G01 X13.3157 Y10.1759
G01 X13.3077 Y10.1579
G01 X13.3007 Y10.1396
G01 X13.2412 Y9.9733
G01 X13.2350 Y9.9546
G01 X13.2298 Y9.9357
G01 X13.1869 Y9.7644
G01 X13.1826 Y9.7452
G01 X13.1792 Y9.7259
G01 X13.1533 Y9.5511
G01 X13.1509 Y9.5316
G01 X13.1494 Y9.5121
G01 X13.1408 Y9.3356
G01 X13.1403 Y9.3160
G01 X13.1408 Y9.2964
G01 X13.1494 Y9.1199
G01 X13.1509 Y9.1004
G01 X13.1533 Y9.0809
G01 X13.1792 Y8.9061
G01 X13.1826 Y8.8868
G01 X13.1869 Y8.8676
G01 X13.2298 Y8.6963
G01 X13.2350 Y8.6774
G01 X13.2412 Y8.6587
G01 X13.3007 Y8.4924
G01 X13.3077 Y8.4741
G01 X13.3157 Y8.4561
G01 X13.3912 Y8.2965
G01 X13.4001 Y8.2789
G01 X13.4097 Y8.2618
G01 X13.5005 Y8.1103
G01 X13.5110 Y8.0937
G01 X13.5224 Y8.0777
G01 X13.6276 Y7.9358
G01 X13.6397 Y7.9203
G01 X13.6525 Y7.9055
G01 X13.7711 Y7.7746
G01 X13.7846 Y7.7604
G01 X13.7989 Y7.7468
G01 X13.9297 Y7.6282
G01 X13.9446 Y7.6154
G01 X13.9601 Y7.6033
G01 X14.1020 Y7.4981
G01 X14.1180 Y7.4868
G01 X14.1346 Y7.4763
G01 X14.2861 Y7.3855
G01 X14.3032 Y7.3758
G01 X14.3207 Y7.3669
G01 X14.4804 Y7.2914
G01 X14.4984 Y7.2835
G01 X14.5167 Y7.2764
G01 X14.6830 Y7.2169
G01 X14.7017 Y7.2107
G01 X14.7206 Y7.2055
G01 X14.8919 Y7.1626
G01 X14.9111 Y7.1583
G01 X14.9304 Y7.1549
G01 X15.1052 Y7.1290
G01 X15.1246 Y7.1266
G01 X15.1442 Y7.1251
G01 X15.3207 Y7.1165
G01 X15.3403 Y7.1160
G01 X15.3599 Y7.1165
G01 X15.5363 Y7.1251
G01 X15.5559 Y7.1266
G01 X15.5754 Y7.1290
G01 X15.7501 Y7.1549
G01 X15.7695 Y7.1583
G01 X15.7886 Y7.1626
G01 X15.9600 Y7.2055
G01 X15.9789 Y7.2107
G01 X15.9975 Y7.2169
G01 X16.1639 Y7.2764
G01 X16.1822 Y7.2835
G01 X16.2001 Y7.2914
G01 X16.3598 Y7.3669
G01 X16.3774 Y7.3758
G01 X16.3944 Y7.3855
G01 X16.5459 Y7.4763
G01 X16.5625 Y7.4868
G01 X16.5786 Y7.4981
G01 X16.7205 Y7.6033
G01 X16.7359 Y7.6154
G01 X16.7508 Y7.6282
G01 X16.8817 Y7.7468
G01 X16.8959 Y7.7604
G01 X16.9095 Y7.7746
G01 X17.0281 Y7.9055
G01 X17.0409 Y7.9203
G01 X17.0530 Y7.9358
G01 X17.1582 Y8.0777
G01 X17.1695 Y8.0937
G01 X17.1800 Y8.1103
G01 X17.2708 Y8.2618
G01 X17.2805 Y8.2789
G01 X17.2893 Y8.2965
G01 X17.3649 Y8.4561
G01 X17.3728 Y8.4741
G01 X17.3799 Y8.4924
G01 X17.4394 Y8.6587
G01 X17.4455 Y8.6774
G01 X17.4508 Y8.6963
G01 X17.4937 Y8.8676
G01 X17.4980 Y8.8868
G01 X17.5014 Y8.9061
G01 X17.5273 Y9.0809
G01 X17.5297 Y9.1004
G01 X17.5311 Y9.1199
G01 X17.5398 Y9.2964
G01 X17.5403 Y9.3160
G01 X17.5398 Y9.3356
G01 X17.5311 Y9.5121
G01 X17.5297 Y9.5316
G01 X17.5273 Y9.5511
G01 X17.5014 Y9.7259
G01 X17.4980 Y9.7452
G01 X17.4937 Y9.7644
G01 X17.4508 Y9.9357
G01 X17.4455 Y9.9546
G01 X17.4394 Y9.9733
G01 X17.3799 Y10.1396
G01 X17.3728 Y10.1579
G01 X17.3649 Y10.1759
G01 X17.2893 Y10.3355
G01 X17.2805 Y10.3531
G01 X17.2708 Y10.3702
G01 X17.1800 Y10.5217
G01 X17.1695 Y10.5383
G01 X17.1582 Y10.5543
G01 X17.0530 Y10.6962
G01 X17.0409 Y10.7117
G01 X17.0281 Y10.7265
G01 X16.9095 Y10.8574
G01 X16.8959 Y10.8716
G01 X16.8817 Y10.8852
G01 X16.7508 Y11.0038
G01 X16.7359 Y11.0166
G01 X16.7205 Y11.0287
G01 X16.5786 Y11.1339
G01 X16.5625 Y11.1452
G01 X16.5459 Y11.1557
G01 X16.3944 Y11.2465
G01 X16.3774 Y11.2562
G01 X16.3598 Y11.2651
G01 X16.2001 Y11.3406
G01 X16.1731 Y11.3522
G01 X16.1405 Y11.3640
G01 X16.1405 Y13.0485
G01 X21.5922 Y18.5003
G01 X24.1722 Y18.5003
G01 X24.1919 Y18.5008
G01 X24.2311 Y18.5027
G01 X24.2507 Y18.5041
G01 X24.2702 Y18.5065
G01 X24.3090 Y18.5123
G01 X24.3380 Y18.5177
G01 X24.3856 Y18.5295
G01 X24.4045 Y18.5347
G01 X24.4232 Y18.5409
G01 X24.4694 Y18.5575
G01 X24.4964 Y18.5691
G01 X24.5319 Y18.5859
G01 X24.5495 Y18.5948
G01 X24.5665 Y18.6044
G01 X24.6002 Y18.6246
G01 X24.6249 Y18.6407
G01 X24.6722 Y18.6758
G01 X24.6948 Y18.6947
G01 X24.7239 Y18.7211
G01 X24.7381 Y18.7347
G01 X28.7816 Y22.7782
G01 X28.7952 Y22.7924
G01 X28.8215 Y22.8215
G01 X28.8344 Y22.8364
G01 X28.8464 Y22.8519
G01 X28.8698 Y22.8834
G01 X28.8811 Y22.8995
G01 X28.8916 Y22.9161
G01 X28.9168 Y22.9582
G01 X28.9260 Y22.9755
G01 X28.9512 Y23.0288
G01 X28.9622 Y23.0561
G01 X28.9754 Y23.0931
G01 X28.9815 Y23.1118
G01 X28.9868 Y23.1307
G01 X28.9963 Y23.1688
G01 X29.0024 Y23.1976
G01 X29.0111 Y23.2558
G01 X29.0136 Y23.2852
G01 X29.0155 Y23.3244
G01 X29.0160 Y23.3440
G01 X29.0160 Y30.8015
G01 X29.0155 Y30.8211
G01 X29.0130 Y30.8702
G01 X29.0097 Y30.8994
G01 X29.0040 Y30.9383
G01 X29.0006 Y30.9576
G01 X28.9963 Y30.9768
G01 X28.9843 Y31.0244
G01 X28.9754 Y31.0524
G01 X28.9622 Y31.0894
G01 X28.9551 Y31.1077
G01 X28.9471 Y31.1257
G01 X28.9260 Y31.1700
G01 X28.9118 Y31.1958
G01 X28.8916 Y31.2295
G01 X28.8811 Y31.2461
G01 X28.8698 Y31.2621
G01 X28.8464 Y31.2937
G01 X28.8280 Y31.3167
G01 X28.7885 Y31.3603
G01 X26.1501 Y33.9988
G01 X26.1359 Y34.0124
G01 X26.1068 Y34.0387
G01 X26.0920 Y34.0516
G01 X26.0765 Y34.0636
G01 X26.0449 Y34.0870
G01 X26.0289 Y34.0983
G01 X26.0123 Y34.1088
G01 X25.9701 Y34.1340
G01 X25.9528 Y34.1432
G01 X25.9085 Y34.1643
G01 X25.8905 Y34.1723
G01 X25.8722 Y34.1794
G01 X25.8352 Y34.1926
G01 X25.8166 Y34.1987
G01 X25.7977 Y34.2040
G01 X25.7596 Y34.2135
G01 X25.7404 Y34.2178
G01 X25.7211 Y34.2212
G01 X25.6822 Y34.2269
G01 X25.6530 Y34.2302
G01 X25.6039 Y34.2327
G01 X25.5843 Y34.2332
G01 X24.8051 Y34.2332
G01 X24.7640 Y34.2705
G01 X24.7491 Y34.2833
G01 X24.7336 Y34.2954
G01 X24.6785 Y34.3363
G01 X24.6624 Y34.3476
G01 X24.6458 Y34.3581
G01 X24.5869 Y34.3934
G01 X24.5698 Y34.4031
G01 X24.5523 Y34.4119
G01 X24.4902 Y34.4413
G01 X24.4722 Y34.4493
G01 X24.4539 Y34.4563
G01 X24.3892 Y34.4795
G01 X24.3612 Y34.4884
G01 X24.2850 Y34.5076
G01 X24.2659 Y34.5119
G01 X24.2465 Y34.5152
G01 X24.1689 Y34.5266
G01 X24.1395 Y34.5291
G01 X24.0709 Y34.5325
G01 X24.0513 Y34.5330
G01 X23.0513 Y34.5330
G01 X23.0317 Y34.5325
G01 X22.9630 Y34.5291
G01 X22.9435 Y34.5277
G01 X22.9240 Y34.5253
G01 X22.8560 Y34.5152
G01 X22.8367 Y34.5119
G01 X22.8175 Y34.5076
G01 X22.7509 Y34.4909
G01 X22.7320 Y34.4856
G01 X22.7133 Y34.4795
G01 X22.6486 Y34.4563
G01 X22.6303 Y34.4493
G01 X22.6124 Y34.4413
G01 X22.5503 Y34.4119
G01 X22.5327 Y34.4031
G01 X22.5157 Y34.3934
G01 X22.4567 Y34.3581
G01 X22.4402 Y34.3476
G01 X22.4241 Y34.3363
G01 X22.3689 Y34.2954
G01 X22.3534 Y34.2833
G01 X22.3386 Y34.2705
G01 X22.2877 Y34.2244
G01 X22.2735 Y34.2108
G01 X22.2599 Y34.1966
G01 X22.2138 Y34.1457
G01 X22.2010 Y34.1308
G01 X22.1889 Y34.1154
G01 X22.1480 Y34.0602
G01 X22.1313 Y34.0359
G01 X22.0859 Y33.9601
G01 X22.0723 Y33.9340
G01 X22.0389 Y33.8630
G01 X22.0279 Y33.8356
G01 X22.0016 Y33.7617
G01 X21.9934 Y33.7334
G01 X21.9767 Y33.6668
G01 X21.9724 Y33.6476
G01 X21.9691 Y33.6283
G01 X21.9577 Y33.5506
G01 X21.9551 Y33.5212
G01 X21.9518 Y33.4526
G01 X21.9514 Y33.4232
G01 X21.9557 Y33.3350
G01 X21.9590 Y33.3057
G01 X21.9691 Y33.2377
G01 X21.9724 Y33.2184
G01 X21.9767 Y33.1992
G01 X21.9934 Y33.1326
G01 X21.9986 Y33.1137
G01 X22.0048 Y33.0950
G01 X22.0279 Y33.0304
G01 X22.0350 Y33.0120
G01 X22.0430 Y32.9941
G01 X22.0723 Y32.9320
G01 X22.0812 Y32.9145
G01 X22.0908 Y32.8974
G01 X22.1262 Y32.8385
G01 X22.1422 Y32.8138
G01 X22.1889 Y32.7506
G01 X22.2010 Y32.7352
G01 X22.2138 Y32.7203
G01 X22.2599 Y32.6694
G01 X22.2735 Y32.6552
G01 X22.2877 Y32.6416
G01 X22.3459 Y32.5890
G01 X22.3689 Y32.5706
G01 X22.4241 Y32.5297
G01 X22.4402 Y32.5184
G01 X22.4567 Y32.5079
G01 X22.5157 Y32.4726
G01 X22.5327 Y32.4629
G01 X22.5503 Y32.4541
G01 X22.6124 Y32.4247
G01 X22.6303 Y32.4167
G01 X22.6486 Y32.4097
G01 X22.7133 Y32.3865
G01 X22.7320 Y32.3804
G01 X22.7509 Y32.3751
G01 X22.8175 Y32.3584
G01 X22.8367 Y32.3541
G01 X22.8560 Y32.3508
G01 X22.9240 Y32.3407
G01 X22.9435 Y32.3383
G01 X22.9630 Y32.3369
G01 X23.0317 Y32.3335
G01 X23.0513 Y32.3330
G01 X24.0513 Y32.3330
G01 X24.0709 Y32.3335
G01 X24.1395 Y32.3369
G01 X24.1689 Y32.3394
G01 X24.2465 Y32.3508
G01 X24.2659 Y32.3541
G01 X24.2850 Y32.3584
G01 X24.3612 Y32.3776
G01 X24.3892 Y32.3865
G01 X24.4539 Y32.4097
G01 X24.4722 Y32.4167
G01 X24.4902 Y32.4247
G01 X24.5523 Y32.4541
G01 X24.5698 Y32.4629
G01 X24.5869 Y32.4726
G01 X24.6458 Y32.5079
G01 X24.6624 Y32.5184
G01 X24.6785 Y32.5297
G01 X24.7336 Y32.5706
G01 X24.7491 Y32.5827
G01 X24.7640 Y32.5955
G01 X24.8051 Y32.6328
G01 X25.2529 Y32.6328
G01 X27.4156 Y30.4701
G01 X27.4156 Y23.6755
G01 X23.8408 Y20.1007
G01 X21.2608 Y20.1007
G01 X21.2411 Y20.1002
G01 X21.1921 Y20.0977
G01 X21.1628 Y20.0944
G01 X21.1143 Y20.0871
G01 X21.0950 Y20.0833
G01 X21.0474 Y20.0715
G01 X21.0191 Y20.0633
G01 X20.9729 Y20.0468
G01 X20.9545 Y20.0398
G01 X20.9366 Y20.0318
G01 X20.9011 Y20.0150
G01 X20.8835 Y20.0062
G01 X20.8665 Y19.9965
G01 X20.8328 Y19.9763
G01 X20.8162 Y19.9658
G01 X20.8001 Y19.9545
G01 X20.7686 Y19.9311
G01 X20.7531 Y19.9190
G01 X20.7383 Y19.9062
G01 X20.7020 Y19.8732
G01 X14.7745 Y13.9458
G01 X14.7609 Y13.9316
G01 X14.7345 Y13.9025
G01 X14.7217 Y13.8876
G01 X14.7096 Y13.8722
G01 X14.6862 Y13.8406
G01 X14.6749 Y13.8246
G01 X14.6644 Y13.8080
G01 X14.6393 Y13.7658
G01 X14.6300 Y13.7485
G01 X14.6089 Y13.7042
G01 X14.6010 Y13.6862
G01 X14.5939 Y13.6679
G01 X14.5807 Y13.6309
G01 X14.5718 Y13.6029
G01 X14.5598 Y13.5553
G01 X14.5555 Y13.5361
G01 X14.5521 Y13.5168
G01 X14.5450 Y13.4682
G01 X14.5425 Y13.4389
G01 X14.5406 Y13.3996
G01 X14.5401 Y13.3800
G01 X14.5401 Y11.3640
G00 Z2.0000
G00 X20.9139 Y24.7897
G01 F60.00
G01 Z-0.1100
G01 F100.00
G01 X20.9322 Y24.7967
G01 X20.9502 Y24.8047
G01 X21.0123 Y24.8341
G01 X21.0298 Y24.8429
G01 X21.0469 Y24.8526
G01 X21.1058 Y24.8879
G01 X21.1224 Y24.8984
G01 X21.1385 Y24.9097
G01 X21.1936 Y24.9506
G01 X21.2091 Y24.9627
G01 X21.2240 Y24.9755
G01 X21.2821 Y25.0283
G01 X21.3026 Y25.0494
G01 X21.3488 Y25.1003
G01 X21.3677 Y25.1228
G01 X21.4146 Y25.1858
G01 X21.4259 Y25.2019
G01 X21.4364 Y25.2185
G01 X21.4717 Y25.2774
G01 X21.4814 Y25.2945
G01 X21.4902 Y25.3120
G01 X21.5196 Y25.3741
G01 X21.5275 Y25.3920
G01 X21.5346 Y25.4104
G01 X21.5578 Y25.4750
G01 X21.5639 Y25.4937
G01 X21.5692 Y25.5126
G01 X21.5858 Y25.5792
G01 X21.5901 Y25.5984
G01 X21.5935 Y25.6177
G01 X21.6049 Y25.6954
G01 X21.6074 Y25.7248
G01 X21.6108 Y25.7934
G01 X21.6112 Y25.8228
G01 X21.6074 Y25.9012
G01 X21.6060 Y25.9208
G01 X21.6036 Y25.9403
G01 X21.5935 Y26.0083
G01 X21.5901 Y26.0276
G01 X21.5858 Y26.0468
G01 X21.5692 Y26.1134
G01 X21.5639 Y26.1323
G01 X21.5578 Y26.1510
G01 X21.5346 Y26.2156
G01 X21.5275 Y26.2340
G01 X21.5196 Y26.2519
G01 X21.4902 Y26.3140
G01 X21.4814 Y26.3315
G01 X21.4717 Y26.3486
G01 X21.4364 Y26.4075
G01 X21.4259 Y26.4241
G01 X21.4146 Y26.4402
G01 X21.3737 Y26.4954
G01 X21.3616 Y26.5108
G01 X21.3488 Y26.5257
G01 X21.3026 Y26.5766
G01 X21.2891 Y26.5908
G01 X21.2749 Y26.6044
G01 X21.2240 Y26.6505
G01 X21.2091 Y26.6633
G01 X21.1936 Y26.6754
G01 X21.1305 Y26.7221
G01 X21.1058 Y26.7381
G01 X21.0469 Y26.7734
G01 X21.0298 Y26.7831
G01 X21.0123 Y26.7919
G01 X20.9502 Y26.8213
G01 X20.9322 Y26.8293
G01 X20.9139 Y26.8363
G01 X20.8492 Y26.8595
G01 X20.8306 Y26.8656
G01 X20.8117 Y26.8709
G01 X20.7450 Y26.8876
G01 X20.7259 Y26.8919
G01 X20.7065 Y26.8952
G01 X20.6386 Y26.9053
G01 X20.6191 Y26.9077
G01 X20.5995 Y26.9091
G01 X20.5309 Y26.9125
G01 X20.5113 Y26.9130
G01 X19.5113 Y26.9130
G01 X19.4917 Y26.9125
G01 X19.4230 Y26.9091
G01 X19.3937 Y26.9066
G01 X19.3160 Y26.8952
G01 X19.2871 Y26.8898
G01 X19.2014 Y26.8684
G01 X19.1733 Y26.8595
G01 X19.0994 Y26.8329
G01 X19.0724 Y26.8213
G01 X19.0103 Y26.7919
G01 X18.9927 Y26.7831
G01 X18.9757 Y26.7734
G01 X18.9167 Y26.7381
G01 X18.8921 Y26.7221
G01 X18.8211 Y26.6694
G01 X18.7986 Y26.6505
G01 X18.7405 Y26.5977
G01 X18.7199 Y26.5766
G01 X18.6738 Y26.5257
G01 X18.6610 Y26.5108
G01 X18.6489 Y26.4954
G01 X18.6022 Y26.4322
G01 X18.5862 Y26.4075
G01 X18.5508 Y26.3486
G01 X18.5412 Y26.3315
G01 X18.5323 Y26.3140
G01 X18.5030 Y26.2519
G01 X18.4950 Y26.2340
G01 X18.4879 Y26.2156
G01 X18.4648 Y26.1510
G01 X18.4586 Y26.1323
G01 X18.4534 Y26.1134
G01 X18.4367 Y26.0468
G01 X18.4324 Y26.0276
G01 X18.4291 Y26.0083
G01 X18.4190 Y25.9403
G01 X18.4166 Y25.9208
G01 X18.4151 Y25.9012
G01 X18.4118 Y25.8326
G01 X18.4113 Y25.8130
G01 X18.4118 Y25.7934
G01 X18.4151 Y25.7248
G01 X18.4166 Y25.7052
G01 X18.4190 Y25.6857
G01 X18.4291 Y25.6177
G01 X18.4324 Y25.5984
G01 X18.4367 Y25.5792
G01 X18.4534 Y25.5126
G01 X18.4586 Y25.4937
G01 X18.4648 Y25.4750
G01 X18.4879 Y25.4104
G01 X18.4950 Y25.3920
G01 X18.5030 Y25.3741
G01 X18.5323 Y25.3120
G01 X18.5412 Y25.2945
G01 X18.5508 Y25.2774
G01 X18.5862 Y25.2185
G01 X18.5967 Y25.2019
G01 X18.6080 Y25.1858
G01 X18.6489 Y25.1306
G01 X18.6610 Y25.1152
G01 X18.6738 Y25.1003
G01 X18.7199 Y25.0494
G01 X18.7335 Y25.0352
G01 X18.7477 Y25.0216
G01 X18.7986 Y24.9755
G01 X18.8134 Y24.9627
G01 X18.8289 Y24.9506
G01 X18.8921 Y24.9039
G01 X18.9167 Y24.8879
G01 X18.9757 Y24.8526
G01 X19.0015 Y24.8384
G01 X19.0724 Y24.8047
G01 X19.0903 Y24.7967
G01 X19.1086 Y24.7897
G01 X19.1733 Y24.7665
G01 X19.1920 Y24.7604
G01 X19.2109 Y24.7551
G01 X19.2775 Y24.7384
G01 X19.2967 Y24.7341
G01 X19.3160 Y24.7308
G01 X19.3840 Y24.7207
G01 X19.4035 Y24.7183
G01 X19.4230 Y24.7169
G01 X19.4917 Y24.7135
G01 X19.5113 Y24.7130
G01 X20.5113 Y24.7130
G01 X20.5309 Y24.7135
G01 X20.5995 Y24.7169
G01 X20.6191 Y24.7183
G01 X20.6386 Y24.7207
G01 X20.7065 Y24.7308
G01 X20.7259 Y24.7341
G01 X20.7450 Y24.7384
G01 X20.8117 Y24.7551
G01 X20.8306 Y24.7604
G01 X20.8492 Y24.7665
G01 X20.9139 Y24.7897
G00 Z2.0000
G00 X20.9139 Y27.3297
G01 F60.00
G01 Z-0.1100
G01 F100.00
G01 X20.9322 Y27.3367
G01 X20.9502 Y27.3447
G01 X21.0123 Y27.3741
G01 X21.0298 Y27.3829
G01 X21.0469 Y27.3926
G01 X21.1058 Y27.4279
G01 X21.1224 Y27.4384
G01 X21.1385 Y27.4497
G01 X21.1936 Y27.4906
G01 X21.2091 Y27.5027
G01 X21.2240 Y27.5155
G01 X21.2821 Y27.5683
G01 X21.3026 Y27.5894
G01 X21.3488 Y27.6403
G01 X21.3677 Y27.6628
G01 X21.4146 Y27.7258
G01 X21.4259 Y27.7419
G01 X21.4364 Y27.7585
G01 X21.4717 Y27.8174
G01 X21.4814 Y27.8345
G01 X21.4902 Y27.8520
G01 X21.5196 Y27.9141
G01 X21.5275 Y27.9320
G01 X21.5346 Y27.9504
G01 X21.5578 Y28.0150
G01 X21.5639 Y28.0337
G01 X21.5692 Y28.0526
G01 X21.5858 Y28.1192
G01 X21.5901 Y28.1384
G01 X21.5935 Y28.1577
G01 X21.6049 Y28.2354
G01 X21.6074 Y28.2648
G01 X21.6108 Y28.3334
G01 X21.6112 Y28.3628
G01 X21.6074 Y28.4412
G01 X21.6060 Y28.4608
G01 X21.6036 Y28.4803
G01 X21.5935 Y28.5483
G01 X21.5901 Y28.5676
G01 X21.5858 Y28.5868
G01 X21.5692 Y28.6534
G01 X21.5639 Y28.6723
G01 X21.5578 Y28.6910
G01 X21.5346 Y28.7556
G01 X21.5275 Y28.7740
G01 X21.5196 Y28.7919
G01 X21.4902 Y28.8540
G01 X21.4814 Y28.8715
G01 X21.4717 Y28.8886
G01 X21.4364 Y28.9475
G01 X21.4259 Y28.9641
G01 X21.4146 Y28.9802
G01 X21.3737 Y29.0354
G01 X21.3616 Y29.0508
G01 X21.3488 Y29.0657
G01 X21.3026 Y29.1166
G01 X21.2891 Y29.1308
G01 X21.2749 Y29.1444
G01 X21.2240 Y29.1905
G01 X21.2091 Y29.2033
G01 X21.1936 Y29.2154
G01 X21.1305 Y29.2621
G01 X21.1058 Y29.2781
G01 X21.0469 Y29.3134
G01 X21.0298 Y29.3231
G01 X21.0123 Y29.3319
G01 X20.9502 Y29.3613
G01 X20.9322 Y29.3693
G01 X20.9139 Y29.3763
G01 X20.8492 Y29.3995
G01 X20.8306 Y29.4056
G01 X20.8117 Y29.4109
G01 X20.7450 Y29.4276
G01 X20.7259 Y29.4319
G01 X20.7065 Y29.4352
G01 X20.6386 Y29.4453
G01 X20.6191 Y29.4477
G01 X20.5995 Y29.4491
G01 X20.5309 Y29.4525
G01 X20.5113 Y29.4530
G01 X19.5113 Y29.4530
G01 X19.4917 Y29.4525
G01 X19.4230 Y29.4491
G01 X19.3937 Y29.4466
G01 X19.3160 Y29.4352
G01 X19.2871 Y29.4298
G01 X19.2014 Y29.4084
G01 X19.1733 Y29.3995
G01 X19.0994 Y29.3729
G01 X19.0724 Y29.3613
G01 X19.0103 Y29.3319
G01 X18.9927 Y29.3231
G01 X18.9757 Y29.3134
G01 X18.9167 Y29.2781
G01 X18.8921 Y29.2621
G01 X18.8211 Y29.2094
G01 X18.7986 Y29.1905
G01 X18.7405 Y29.1377
G01 X18.7199 Y29.1166
G01 X18.6738 Y29.0657
G01 X18.6610 Y29.0508
G01 X18.6489 Y29.0354
G01 X18.6022 Y28.9722
G01 X18.5862 Y28.9475
G01 X18.5508 Y28.8886
G01 X18.5412 Y28.8715
G01 X18.5323 Y28.8540
G01 X18.5030 Y28.7919
G01 X18.4950 Y28.7740
G01 X18.4879 Y28.7556
G01 X18.4648 Y28.6910
G01 X18.4586 Y28.6723
G01 X18.4534 Y28.6534
G01 X18.4367 Y28.5868
G01 X18.4324 Y28.5676
G01 X18.4291 Y28.5483
G01 X18.4190 Y28.4803
G01 X18.4166 Y28.4608
G01 X18.4151 Y28.4412
G01 X18.4118 Y28.3726
G01 X18.4113 Y28.3530
G01 X18.4118 Y28.3334
G01 X18.4151 Y28.2648
G01 X18.4166 Y28.2452
G01 X18.4190 Y28.2257
G01 X18.4291 Y28.1577
G01 X18.4324 Y28.1384
G01 X18.4367 Y28.1192
G01 X18.4534 Y28.0526
G01 X18.4586 Y28.0337
G01 X18.4648 Y28.0150
G01 X18.4879 Y27.9504
G01 X18.4950 Y27.9320
G01 X18.5030 Y27.9141
G01 X18.5323 Y27.8520
G01 X18.5412 Y27.8345
G01 X18.5508 Y27.8174
G01 X18.5862 Y27.7585
G01 X18.5967 Y27.7419
G01 X18.6080 Y27.7258
G01 X18.6489 Y27.6706
G01 X18.6610 Y27.6552
G01 X18.6738 Y27.6403
G01 X18.7199 Y27.5894
G01 X18.7335 Y27.5752
G01 X18.7477 Y27.5616
G01 X18.7986 Y27.5155
G01 X18.8134 Y27.5027
G01 X18.8289 Y27.4906
G01 X18.8921 Y27.4439
G01 X18.9167 Y27.4279
G01 X18.9757 Y27.3926
G01 X19.0015 Y27.3784
G01 X19.0724 Y27.3447
G01 X19.0903 Y27.3367
G01 X19.1086 Y27.3297
G01 X19.1733 Y27.3065
G01 X19.1920 Y27.3004
G01 X19.2109 Y27.2951
G01 X19.2775 Y27.2784
G01 X19.2967 Y27.2741
G01 X19.3160 Y27.2708
G01 X19.3840 Y27.2607
G01 X19.4035 Y27.2583
G01 X19.4230 Y27.2569
G01 X19.4917 Y27.2535
G01 X19.5113 Y27.2530
G01 X20.5113 Y27.2530
G01 X20.5309 Y27.2535
G01 X20.5995 Y27.2569
G01 X20.6191 Y27.2583
G01 X20.6386 Y27.2607
G01 X20.7065 Y27.2708
G01 X20.7259 Y27.2741
G01 X20.7450 Y27.2784
G01 X20.8117 Y27.2951
G01 X20.8306 Y27.3004
G01 X20.8492 Y27.3065
G01 X20.9139 Y27.3297
G00 Z2.0000
G00 X20.9139 Y29.8697
G01 F60.00
G01 Z-0.1100
G01 F100.00
G01 X20.9322 Y29.8767
G01 X20.9502 Y29.8847
G01 X21.0123 Y29.9141
G01 X21.0298 Y29.9229
G01 X21.0469 Y29.9326
G01 X21.1058 Y29.9679
G01 X21.1224 Y29.9784
G01 X21.1385 Y29.9897
G01 X21.1936 Y30.0306
G01 X21.2091 Y30.0427
G01 X21.2240 Y30.0555
G01 X21.2821 Y30.1083
G01 X21.3026 Y30.1294
G01 X21.3488 Y30.1803
G01 X21.3677 Y30.2028
G01 X21.4146 Y30.2658
G01 X21.4259 Y30.2819
G01 X21.4364 Y30.2985
G01 X21.4717 Y30.3574
G01 X21.4814 Y30.3745
G01 X21.4902 Y30.3920
G01 X21.5196 Y30.4541
G01 X21.5275 Y30.4720
G01 X21.5346 Y30.4904
G01 X21.5578 Y30.5550
G01 X21.5639 Y30.5737
G01 X21.5692 Y30.5926
G01 X21.5858 Y30.6592
G01 X21.5901 Y30.6784
G01 X21.5935 Y30.6977
G01 X21.6049 Y30.7754
G01 X21.6074 Y30.8048
G01 X21.6108 Y30.8734
G01 X21.6112 Y30.9028
G01 X21.6074 Y30.9812
G01 X21.6060 Y31.0008
G01 X21.6036 Y31.0203
G01 X21.5935 Y31.0883
G01 X21.5901 Y31.1076
G01 X21.5858 Y31.1268
G01 X21.5692 Y31.1934
G01 X21.5639 Y31.2123
G01 X21.5578 Y31.2310
G01 X21.5346 Y31.2956
G01 X21.5275 Y31.3140
G01 X21.5196 Y31.3319
G01 X21.4902 Y31.3940
G01 X21.4814 Y31.4115
G01 X21.4717 Y31.4286
G01 X21.4364 Y31.4875
G01 X21.4259 Y31.5041
G01 X21.4146 Y31.5202
G01 X21.3737 Y31.5754
G01 X21.3616 Y31.5908
G01 X21.3488 Y31.6057
G01 X21.3026 Y31.6566
G01 X21.2891 Y31.6708
G01 X21.2749 Y31.6844
G01 X21.2240 Y31.7305
G01 X21.2091 Y31.7433
G01 X21.1936 Y31.7554
G01 X21.1305 Y31.8021
G01 X21.1058 Y31.8181
G01 X21.0469 Y31.8534
G01 X21.0298 Y31.8631
G01 X21.0123 Y31.8719
G01 X20.9502 Y31.9013
G01 X20.9322 Y31.9093
G01 X20.9139 Y31.9163
G01 X20.8492 Y31.9395
G01 X20.8306 Y31.9456
G01 X20.8117 Y31.9509
G01 X20.7450 Y31.9676
G01 X20.7259 Y31.9719
G01 X20.7065 Y31.9752
G01 X20.6386 Y31.9853
G01 X20.6191 Y31.9877
G01 X20.5995 Y31.9891
G01 X20.5309 Y31.9925
G01 X20.5113 Y31.9930
G01 X19.5113 Y31.9930
G01 X19.4917 Y31.9925
G01 X19.4230 Y31.9891
G01 X19.3937 Y31.9866
G01 X19.3160 Y31.9752
G01 X19.2871 Y31.9698
G01 X19.2014 Y31.9484
G01 X19.1733 Y31.9395
G01 X19.0994 Y31.9129
G01 X19.0724 Y31.9013
G01 X19.0103 Y31.8719
G01 X18.9927 Y31.8631
G01 X18.9757 Y31.8534
G01 X18.9167 Y31.8181
G01 X18.8921 Y31.8021
G01 X18.8211 Y31.7494
G01 X18.7986 Y31.7305
G01 X18.7405 Y31.6777
G01 X18.7199 Y31.6566
G01 X18.6738 Y31.6057
G01 X18.6610 Y31.5908
G01 X18.6489 Y31.5754
G01 X18.6022 Y31.5122
G01 X18.5862 Y31.4875
G01 X18.5508 Y31.4286
G01 X18.5412 Y31.4115
G01 X18.5323 Y31.3940
G01 X18.5030 Y31.3319
G01 X18.4950 Y31.3140
G01 X18.4879 Y31.2956
G01 X18.4648 Y31.2310
G01 X18.4586 Y31.2123
G01 X18.4534 Y31.1934
G01 X18.4367 Y31.1268
G01 X18.4324 Y31.1076
G01 X18.4291 Y31.0883
G01 X18.4190 Y31.0203
G01 X18.4166 Y31.0008
G01 X18.4151 Y30.9812
G01 X18.4118 Y30.9126
G01 X18.4113 Y30.8930
G01 X18.4118 Y30.8734
G01 X18.4151 Y30.8048
G01 X18.4166 Y30.7852
G01 X18.4190 Y30.7657
G01 X18.4291 Y30.6977
G01 X18.4324 Y30.6784
G01 X18.4367 Y30.6592
G01 X18.4534 Y30.5926
G01 X18.4586 Y30.5737
G01 X18.4648 Y30.5550
G01 X18.4879 Y30.4904
G01 X18.4950 Y30.4720
G01 X18.5030 Y30.4541
G01 X18.5323 Y30.3920
G01 X18.5412 Y30.3745
G01 X18.5508 Y30.3574
G01 X18.5862 Y30.2985
G01 X18.5967 Y30.2819
G01 X18.6080 Y30.2658
G01 X18.6489 Y30.2106
G01 X18.6610 Y30.1952
G01 X18.6738 Y30.1803
G01 X18.7199 Y30.1294
G01 X18.7335 Y30.1152
G01 X18.7477 Y30.1016
G01 X18.7986 Y30.0555
G01 X18.8134 Y30.0427
G01 X18.8289 Y30.0306
G01 X18.8921 Y29.9839
G01 X18.9167 Y29.9679
G01 X18.9757 Y29.9326
G01 X19.0015 Y29.9184
G01 X19.0724 Y29.8847
G01 X19.0903 Y29.8767
G01 X19.1086 Y29.8697
G01 X19.1733 Y29.8465
G01 X19.1920 Y29.8404
G01 X19.2109 Y29.8351
G01 X19.2775 Y29.8184
G01 X19.2967 Y29.8141
G01 X19.3160 Y29.8108
G01 X19.3840 Y29.8007
G01 X19.4035 Y29.7983
G01 X19.4230 Y29.7969
G01 X19.4917 Y29.7935
G01 X19.5113 Y29.7930
G01 X20.5113 Y29.7930
G01 X20.5309 Y29.7935
G01 X20.5995 Y29.7969
G01 X20.6191 Y29.7983
G01 X20.6386 Y29.8007
G01 X20.7065 Y29.8108
G01 X20.7259 Y29.8141
G01 X20.7450 Y29.8184
G01 X20.8117 Y29.8351
G01 X20.8306 Y29.8404
G01 X20.8492 Y29.8465
G01 X20.9139 Y29.8697
G00 Z2.0000
G00 X20.9139 Y32.4097
G01 F60.00
G01 Z-0.1100
G01 F100.00
G01 X20.9322 Y32.4167
G01 X20.9502 Y32.4247
G01 X21.0123 Y32.4541
G01 X21.0298 Y32.4629
G01 X21.0469 Y32.4726
G01 X21.1058 Y32.5079
G01 X21.1224 Y32.5184
G01 X21.1385 Y32.5297
G01 X21.1936 Y32.5706
G01 X21.2091 Y32.5827
G01 X21.2240 Y32.5955
G01 X21.2821 Y32.6483
G01 X21.3026 Y32.6694
G01 X21.3488 Y32.7203
G01 X21.3677 Y32.7428
G01 X21.4146 Y32.8058
G01 X21.4259 Y32.8219
G01 X21.4364 Y32.8385
G01 X21.4717 Y32.8974
G01 X21.4814 Y32.9145
G01 X21.4902 Y32.9320
G01 X21.5196 Y32.9941
G01 X21.5275 Y33.0120
G01 X21.5346 Y33.0304
G01 X21.5578 Y33.0950
G01 X21.5639 Y33.1137
G01 X21.5692 Y33.1326
G01 X21.5858 Y33.1992
G01 X21.5901 Y33.2184
G01 X21.5935 Y33.2377
G01 X21.6049 Y33.3154
G01 X21.6074 Y33.3448
G01 X21.6108 Y33.4134
G01 X21.6112 Y33.4428
G01 X21.6074 Y33.5212
G01 X21.6060 Y33.5408
G01 X21.6036 Y33.5603
G01 X21.5935 Y33.6283
G01 X21.5901 Y33.6476
G01 X21.5858 Y33.6668
G01 X21.5692 Y33.7334
G01 X21.5639 Y33.7523
G01 X21.5578 Y33.7710
G01 X21.5346 Y33.8356
G01 X21.5275 Y33.8540
G01 X21.5196 Y33.8719
G01 X21.4902 Y33.9340
G01 X21.4814 Y33.9515
G01 X21.4717 Y33.9686
G01 X21.4364 Y34.0275
G01 X21.4259 Y34.0441
G01 X21.4146 Y34.0602
G01 X21.3737 Y34.1154
G01 X21.3616 Y34.1308
G01 X21.3488 Y34.1457
G01 X21.3026 Y34.1966
G01 X21.2891 Y34.2108
G01 X21.2749 Y34.2244
G01 X21.2240 Y34.2705
G01 X21.2091 Y34.2833
G01 X21.1936 Y34.2954
G01 X21.1305 Y34.3421
G01 X21.1058 Y34.3581
G01 X21.0469 Y34.3934
G01 X21.0298 Y34.4031
G01 X21.0123 Y34.4119
G01 X20.9502 Y34.4413
G01 X20.9322 Y34.4493
G01 X20.9139 Y34.4563
G01 X20.8492 Y34.4795
G01 X20.8306 Y34.4856
G01 X20.8117 Y34.4909
G01 X20.7450 Y34.5076
G01 X20.7259 Y34.5119
G01 X20.7065 Y34.5152
G01 X20.6386 Y34.5253
G01 X20.6191 Y34.5277
G01 X20.5995 Y34.5291
G01 X20.5309 Y34.5325
G01 X20.5113 Y34.5330
G01 X19.5113 Y34.5330
G01 X19.4917 Y34.5325
G01 X19.4230 Y34.5291
G01 X19.3937 Y34.5266
G01 X19.3160 Y34.5152
G01 X19.2871 Y34.5098
G01 X19.2014 Y34.4884
G01 X19.1733 Y34.4795
G01 X19.0994 Y34.4529
G01 X19.0724 Y34.4413
G01 X19.0103 Y34.4119
G01 X18.9927 Y34.4031
G01 X18.9757 Y34.3934
G01 X18.9167 Y34.3581
G01 X18.8921 Y34.3421
G01 X18.8211 Y34.2894
G01 X18.7986 Y34.2705
G01 X18.7405 Y34.2177
G01 X18.7199 Y34.1966
G01 X18.6738 Y34.1457
G01 X18.6610 Y34.1308
G01 X18.6489 Y34.1154
G01 X18.6022 Y34.0522
G01 X18.5862 Y34.0275
G01 X18.5508 Y33.9686
G01 X18.5412 Y33.9515
G01 X18.5323 Y33.9340
G01 X18.5030 Y33.8719
G01 X18.4950 Y33.8540
G01 X18.4879 Y33.8356
G01 X18.4648 Y33.7710
G01 X18.4586 Y33.7523
G01 X18.4534 Y33.7334
G01 X18.4367 Y33.6668
G01 X18.4324 Y33.6476
G01 X18.4291 Y33.6283
G01 X18.4190 Y33.5603
G01 X18.4166 Y33.5408
G01 X18.4151 Y33.5212
G01 X18.4118 Y33.4526
G01 X18.4113 Y33.4330
G01 X18.4118 Y33.4134
G01 X18.4151 Y33.3448
G01 X18.4166 Y33.3252
G01 X18.4190 Y33.3057
G01 X18.4291 Y33.2377
G01 X18.4324 Y33.2184
G01 X18.4367 Y33.1992
G01 X18.4534 Y33.1326
G01 X18.4586 Y33.1137
G01 X18.4648 Y33.0950
G01 X18.4879 Y33.0304
G01 X18.4950 Y33.0120
G01 X18.5030 Y32.9941
G01 X18.5323 Y32.9320
G01 X18.5412 Y32.9145
G01 X18.5508 Y32.8974
G01 X18.5862 Y32.8385
G01 X18.5967 Y32.8219
G01 X18.6080 Y32.8058
G01 X18.6489 Y32.7506
G01 X18.6610 Y32.7352
G01 X18.6738 Y32.7203
G01 X18.7199 Y32.6694
G01 X18.7335 Y32.6552
G01 X18.7477 Y32.6416
G01 X18.7986 Y32.5955
G01 X18.8134 Y32.5827
G01 X18.8289 Y32.5706
G01 X18.8921 Y32.5239
G01 X18.9167 Y32.5079
G01 X18.9757 Y32.4726
G01 X19.0015 Y32.4584
G01 X19.0724 Y32.4247
G01 X19.0903 Y32.4167
G01 X19.1086 Y32.4097
G01 X19.1733 Y32.3865
G01 X19.1920 Y32.3804
G01 X19.2109 Y32.3751
G01 X19.2775 Y32.3584
G01 X19.2967 Y32.3541
G01 X19.3160 Y32.3508
G01 X19.3840 Y32.3407
G01 X19.4035 Y32.3383
G01 X19.4230 Y32.3369
G01 X19.4917 Y32.3335
G01 X19.5113 Y32.3330
G01 X20.5113 Y32.3330
G01 X20.5309 Y32.3335
G01 X20.5995 Y32.3369
G01 X20.6191 Y32.3383
G01 X20.6386 Y32.3407
G01 X20.7065 Y32.3508
G01 X20.7259 Y32.3541
G01 X20.7450 Y32.3584
G01 X20.8117 Y32.3751
G01 X20.8306 Y32.3804
G01 X20.8492 Y32.3865
G01 X20.9139 Y32.4097
G00 Z2.0000
G00 X20.9139 Y34.9497
G01 F60.00
G01 Z-0.1100
G01 F100.00
G01 X20.9322 Y34.9567
G01 X20.9502 Y34.9647
G01 X21.0123 Y34.9941
G01 X21.0298 Y35.0029
G01 X21.0469 Y35.0126
G01 X21.1058 Y35.0479
G01 X21.1224 Y35.0584
G01 X21.1385 Y35.0697
G01 X21.1936 Y35.1106
G01 X21.2091 Y35.1227
G01 X21.2240 Y35.1355
G01 X21.2821 Y35.1883
G01 X21.3026 Y35.2094
G01 X21.3488 Y35.2603
G01 X21.3677 Y35.2828
G01 X21.4146 Y35.3458
G01 X21.4259 Y35.3619
G01 X21.4364 Y35.3785
G01 X21.4717 Y35.4374
G01 X21.4814 Y35.4545
G01 X21.4902 Y35.4720
G01 X21.5196 Y35.5341
G01 X21.5275 Y35.5520
G01 X21.5346 Y35.5704
G01 X21.5578 Y35.6350
G01 X21.5639 Y35.6537
G01 X21.5692 Y35.6726
G01 X21.5858 Y35.7392
G01 X21.5901 Y35.7584
G01 X21.5935 Y35.7777
G01 X21.6049 Y35.8554
G01 X21.6074 Y35.8848
G01 X21.6108 Y35.9534
G01 X21.6112 Y35.9828
G01 X21.6074 Y36.0612
G01 X21.6060 Y36.0808
G01 X21.6036 Y36.1003
G01 X21.5935 Y36.1683
G01 X21.5901 Y36.1876
G01 X21.5858 Y36.2068
G01 X21.5692 Y36.2734
G01 X21.5639 Y36.2923
G01 X21.5578 Y36.3110
G01 X21.5346 Y36.3756
G01 X21.5275 Y36.3940
G01 X21.5196 Y36.4119
G01 X21.4902 Y36.4740
G01 X21.4814 Y36.4915
G01 X21.4717 Y36.5086
G01 X21.4364 Y36.5675
G01 X21.4259 Y36.5841
G01 X21.4146 Y36.6002
G01 X21.3737 Y36.6554
G01 X21.3616 Y36.6708
G01 X21.3488 Y36.6857
G01 X21.3026 Y36.7366
G01 X21.2891 Y36.7508
G01 X21.2749 Y36.7644
G01 X21.2240 Y36.8105
G01 X21.2091 Y36.8233
G01 X21.1936 Y36.8354
G01 X21.1305 Y36.8821
G01 X21.1058 Y36.8981
G01 X21.0469 Y36.9334
G01 X21.0298 Y36.9431
G01 X21.0123 Y36.9519
G01 X20.9502 Y36.9813
G01 X20.9322 Y36.9893
G01 X20.9139 Y36.9963
G01 X20.8492 Y37.0195
G01 X20.8306 Y37.0256
G01 X20.8117 Y37.0309
G01 X20.7450 Y37.0476
G01 X20.7259 Y37.0519
G01 X20.7065 Y37.0552
G01 X20.6386 Y37.0653
G01 X20.6191 Y37.0677
G01 X20.5995 Y37.0691
G01 X20.5309 Y37.0725
G01 X20.5113 Y37.0730
G01 X19.5113 Y37.0730
G01 X19.4917 Y37.0725
G01 X19.4230 Y37.0691
G01 X19.3937 Y37.0666
G01 X19.3160 Y37.0552
G01 X19.2871 Y37.0498
G01 X19.2014 Y37.0284
G01 X19.1733 Y37.0195
G01 X19.0994 Y36.9929
G01 X19.0724 Y36.9813
G01 X19.0103 Y36.9519
G01 X18.9927 Y36.9431
G01 X18.9757 Y36.9334
G01 X18.9167 Y36.8981
G01 X18.8921 Y36.8821
G01 X18.8211 Y36.8294
G01 X18.7986 Y36.8105
G01 X18.7405 Y36.7577
G01 X18.7199 Y36.7366
G01 X18.6738 Y36.6857
G01 X18.6610 Y36.6708
G01 X18.6489 Y36.6554
G01 X18.6022 Y36.5922
G01 X18.5862 Y36.5675
G01 X18.5508 Y36.5086
G01 X18.5412 Y36.4915
G01 X18.5323 Y36.4740
G01 X18.5030 Y36.4119
G01 X18.4950 Y36.3940
G01 X18.4879 Y36.3756
G01 X18.4648 Y36.3110
G01 X18.4586 Y36.2923
G01 X18.4534 Y36.2734
G01 X18.4367 Y36.2068
G01 X18.4324 Y36.1876
G01 X18.4291 Y36.1683
G01 X18.4190 Y36.1003
G01 X18.4166 Y36.0808
G01 X18.4151 Y36.0612
G01 X18.4118 Y35.9926
G01 X18.4113 Y35.9730
G01 X18.4118 Y35.9534
G01 X18.4151 Y35.8848
G01 X18.4166 Y35.8652
G01 X18.4190 Y35.8457
G01 X18.4291 Y35.7777
G01 X18.4324 Y35.7584
G01 X18.4367 Y35.7392
G01 X18.4534 Y35.6726
G01 X18.4586 Y35.6537
G01 X18.4648 Y35.6350
G01 X18.4879 Y35.5704
G01 X18.4950 Y35.5520
G01 X18.5030 Y35.5341
G01 X18.5323 Y35.4720
G01 X18.5412 Y35.4545
G01 X18.5508 Y35.4374
G01 X18.5862 Y35.3785
G01 X18.5967 Y35.3619
G01 X18.6080 Y35.3458
G01 X18.6489 Y35.2906
G01 X18.6610 Y35.2752
G01 X18.6738 Y35.2603
G01 X18.7199 Y35.2094
G01 X18.7335 Y35.1952
G01 X18.7477 Y35.1816
G01 X18.7986 Y35.1355
G01 X18.8134 Y35.1227
G01 X18.8289 Y35.1106
G01 X18.8921 Y35.0639
G01 X18.9167 Y35.0479
G01 X18.9757 Y35.0126
G01 X19.0015 Y34.9984
G01 X19.0724 Y34.9647
G01 X19.0903 Y34.9567
G01 X19.1086 Y34.9497
G01 X19.1733 Y34.9265
G01 X19.1920 Y34.9204
G01 X19.2109 Y34.9151
G01 X19.2775 Y34.8984
G01 X19.2967 Y34.8941
G01 X19.3160 Y34.8908
G01 X19.3840 Y34.8807
G01 X19.4035 Y34.8783
G01 X19.4230 Y34.8769
G01 X19.4917 Y34.8735
G01 X19.5113 Y34.8730
G01 X20.5113 Y34.8730
G01 X20.5309 Y34.8735
G01 X20.5995 Y34.8769
G01 X20.6191 Y34.8783
G01 X20.6386 Y34.8807
G01 X20.7065 Y34.8908
G01 X20.7259 Y34.8941
G01 X20.7450 Y34.8984
G01 X20.8117 Y34.9151
G01 X20.8306 Y34.9204
G01 X20.8492 Y34.9265
G01 X20.9139 Y34.9497
G00 Z2.0000
G00 X18.7574 Y37.7128
G01 F60.00
G01 Z-0.1100
G01 F100.00
G01 X18.7986 Y37.6755
G01 X18.8134 Y37.6627
G01 X18.8289 Y37.6506
G01 X18.8841 Y37.6097
G01 X18.9002 Y37.5984
G01 X18.9167 Y37.5879
G01 X18.9757 Y37.5526
G01 X18.9927 Y37.5429
G01 X19.0103 Y37.5341
G01 X19.0813 Y37.5006
G01 X19.1086 Y37.4897
G01 X19.1733 Y37.4665
G01 X19.1920 Y37.4604
G01 X19.2109 Y37.4551
G01 X19.2775 Y37.4384
G01 X19.2967 Y37.4341
G01 X19.3160 Y37.4308
G01 X19.3840 Y37.4207
G01 X19.4035 Y37.4183
G01 X19.4230 Y37.4169
G01 X19.4917 Y37.4135
G01 X19.5113 Y37.4130
G01 X20.5113 Y37.4130
G01 X20.5309 Y37.4135
G01 X20.5995 Y37.4169
G01 X20.6289 Y37.4194
G01 X20.7065 Y37.4308
G01 X20.7259 Y37.4341
G01 X20.7450 Y37.4384
G01 X20.8117 Y37.4551
G01 X20.8400 Y37.4633
G01 X20.9139 Y37.4897
G01 X20.9413 Y37.5006
G01 X21.0123 Y37.5341
G01 X21.0298 Y37.5429
G01 X21.0469 Y37.5526
G01 X21.1058 Y37.5879
G01 X21.1224 Y37.5984
G01 X21.1385 Y37.6097
G01 X21.1936 Y37.6506
G01 X21.2091 Y37.6627
G01 X21.2240 Y37.6755
G01 X21.2749 Y37.7216
G01 X21.2891 Y37.7352
G01 X21.3026 Y37.7494
G01 X21.3488 Y37.8003
G01 X21.3616 Y37.8152
G01 X21.3737 Y37.8306
G01 X21.4146 Y37.8858
G01 X21.4259 Y37.9019
G01 X21.4364 Y37.9185
G01 X21.4717 Y37.9774
G01 X21.4814 Y37.9945
G01 X21.4902 Y38.0120
G01 X21.5196 Y38.0741
G01 X21.5275 Y38.0920
G01 X21.5346 Y38.1104
G01 X21.5578 Y38.1750
G01 X21.5639 Y38.1937
G01 X21.5692 Y38.2126
G01 X21.5858 Y38.2792
G01 X21.5901 Y38.2984
G01 X21.5935 Y38.3177
G01 X21.6036 Y38.3857
G01 X21.6060 Y38.4052
G01 X21.6074 Y38.4248
G01 X21.6108 Y38.4934
G01 X21.6113 Y38.5130
G01 X21.6108 Y38.5326
G01 X21.6074 Y38.6012
G01 X21.6060 Y38.6208
G01 X21.6036 Y38.6403
G01 X21.5935 Y38.7083
G01 X21.5901 Y38.7276
G01 X21.5858 Y38.7468
G01 X21.5692 Y38.8134
G01 X21.5639 Y38.8323
G01 X21.5578 Y38.8510
G01 X21.5346 Y38.9156
G01 X21.5237 Y38.9430
G01 X21.4902 Y39.0140
G01 X21.4814 Y39.0315
G01 X21.4717 Y39.0486
G01 X21.4364 Y39.1075
G01 X21.4259 Y39.1241
G01 X21.4146 Y39.1402
G01 X21.3737 Y39.1954
G01 X21.3616 Y39.2108
G01 X21.3488 Y39.2257
G01 X21.3026 Y39.2766
G01 X21.2891 Y39.2908
G01 X21.2749 Y39.3044
G01 X21.2240 Y39.3505
G01 X21.2091 Y39.3633
G01 X21.1936 Y39.3754
G01 X21.1385 Y39.4163
G01 X21.1224 Y39.4276
G01 X21.1058 Y39.4381
G01 X21.0469 Y39.4734
G01 X21.0298 Y39.4831
G01 X21.0123 Y39.4919
G01 X20.9502 Y39.5213
G01 X20.9322 Y39.5293
G01 X20.9139 Y39.5363
G01 X20.8492 Y39.5595
G01 X20.8306 Y39.5656
G01 X20.8117 Y39.5709
G01 X20.7450 Y39.5876
G01 X20.7259 Y39.5919
G01 X20.7065 Y39.5952
G01 X20.6386 Y39.6053
G01 X20.6191 Y39.6077
G01 X20.5995 Y39.6091
G01 X20.5309 Y39.6125
G01 X20.5113 Y39.6130
G01 X19.5113 Y39.6130
G01 X19.4917 Y39.6125
G01 X19.4230 Y39.6091
G01 X19.3937 Y39.6066
G01 X19.3160 Y39.5952
G01 X19.2967 Y39.5919
G01 X19.2775 Y39.5876
G01 X19.2014 Y39.5684
G01 X19.1733 Y39.5595
G01 X19.1086 Y39.5363
G01 X19.0903 Y39.5293
G01 X19.0724 Y39.5213
G01 X19.0103 Y39.4919
G01 X18.9927 Y39.4831
G01 X18.9757 Y39.4734
G01 X18.9167 Y39.4381
G01 X18.9002 Y39.4276
G01 X18.8841 Y39.4163
G01 X18.8289 Y39.3754
G01 X18.8134 Y39.3633
G01 X18.7986 Y39.3505
G01 X18.7574 Y39.3132
G01 X17.9707 Y39.3132
G01 X13.2134 Y44.0705
G01 X13.2134 Y59.9055
G01 X22.2757 Y68.9678
G01 X28.1628 Y68.9678
G01 X32.3201 Y64.8105
G01 X32.3201 Y64.6162
G01 X32.2506 Y64.5534
G01 X32.2364 Y64.5399
G01 X32.2229 Y64.5257
G01 X32.1668 Y64.4639
G01 X32.1540 Y64.4490
G01 X32.1419 Y64.4335
G01 X32.0922 Y64.3665
G01 X32.0809 Y64.3505
G01 X32.0704 Y64.3339
G01 X32.0276 Y64.2623
G01 X32.0179 Y64.2452
G01 X32.0091 Y64.2277
G01 X31.9734 Y64.1523
G01 X31.9654 Y64.1344
G01 X31.9584 Y64.1160
G01 X31.9303 Y64.0375
G01 X31.9241 Y64.0189
G01 X31.9189 Y63.9999
G01 X31.8986 Y63.9190
G01 X31.8943 Y63.8999
G01 X31.8909 Y63.8805
G01 X31.8787 Y63.7980
G01 X31.8763 Y63.7785
G01 X31.8749 Y63.7589
G01 X31.8708 Y63.6756
G01 X31.8703 Y63.6560
G01 X31.8703 Y62.6560
G01 X31.8708 Y62.6364
G01 X31.8749 Y62.5531
G01 X31.8763 Y62.5335
G01 X31.8787 Y62.5140
G01 X31.8909 Y62.4315
G01 X31.8943 Y62.4121
G01 X31.8986 Y62.3930
G01 X31.9189 Y62.3121
G01 X31.9241 Y62.2931
G01 X31.9303 Y62.2745
G01 X31.9584 Y62.1960
G01 X31.9654 Y62.1776
G01 X31.9734 Y62.1597
G01 X32.0091 Y62.0843
G01 X32.0179 Y62.0668
G01 X32.0276 Y62.0497
G01 X32.0704 Y61.9781
G01 X32.0809 Y61.9615
G01 X32.0922 Y61.9455
G01 X32.1479 Y61.8707
G01 X32.1668 Y61.8481
G01 X32.2229 Y61.7863
G01 X32.2364 Y61.7721
G01 X32.2506 Y61.7586
G01 X32.3124 Y61.7026
G01 X32.3273 Y61.6897
G01 X32.3428 Y61.6777
G01 X32.4098 Y61.6280
G01 X32.4258 Y61.6167
G01 X32.4424 Y61.6062
G01 X32.5140 Y61.5633
G01 X32.5397 Y61.5491
G01 X32.6329 Y61.5050
G01 X32.6602 Y61.4941
G01 X32.7388 Y61.4660
G01 X32.7574 Y61.4598
G01 X32.7763 Y61.4546
G01 X32.8668 Y61.4321
G01 X32.8958 Y61.4267
G01 X32.9783 Y61.4144
G01 X32.9978 Y61.4120
G01 X33.0173 Y61.4106
G01 X33.1007 Y61.4065
G01 X33.1203 Y61.4060
G01 X33.1399 Y61.4065
G01 X33.2232 Y61.4106
G01 X33.2428 Y61.4120
G01 X33.2623 Y61.4144
G01 X33.3448 Y61.4267
G01 X33.3641 Y61.4300
G01 X33.3833 Y61.4343
G01 X33.4642 Y61.4546
G01 X33.4831 Y61.4598
G01 X33.5018 Y61.4660
G01 X33.5803 Y61.4941
G01 X33.5986 Y61.5012
G01 X33.6166 Y61.5091
G01 X33.6920 Y61.5448
G01 X33.7095 Y61.5536
G01 X33.7266 Y61.5633
G01 X33.7982 Y61.6062
G01 X33.8147 Y61.6167
G01 X33.8308 Y61.6280
G01 X33.8978 Y61.6777
G01 X33.9133 Y61.6897
G01 X33.9281 Y61.7026
G01 X33.9899 Y61.7586
G01 X34.0042 Y61.7721
G01 X34.0177 Y61.7863
G01 X34.0737 Y61.8481
G01 X34.0865 Y61.8630
G01 X34.0986 Y61.8785
G01 X34.1483 Y61.9455
G01 X34.1596 Y61.9615
G01 X34.1701 Y61.9781
G01 X34.2130 Y62.0497
G01 X34.2227 Y62.0668
G01 X34.2315 Y62.0843
G01 X34.2672 Y62.1597
G01 X34.2751 Y62.1776
G01 X34.2822 Y62.1960
G01 X34.3103 Y62.2745
G01 X34.3165 Y62.2931
G01 X34.3217 Y62.3121
G01 X34.3420 Y62.3930
G01 X34.3463 Y62.4121
G01 X34.3496 Y62.4315
G01 X34.3619 Y62.5140
G01 X34.3643 Y62.5335
G01 X34.3657 Y62.5531
G01 X34.3698 Y62.6364
G01 X34.3703 Y62.6560
G01 X34.3702 Y63.6658
G01 X34.3657 Y63.7589
G01 X34.3643 Y63.7785
G01 X34.3619 Y63.7980
G01 X34.3496 Y63.8805
G01 X34.3463 Y63.8999
G01 X34.3420 Y63.9190
G01 X34.3217 Y63.9999
G01 X34.3165 Y64.0189
G01 X34.3103 Y64.0375
G01 X34.2822 Y64.1160
G01 X34.2713 Y64.1434
G01 X34.2315 Y64.2277
G01 X34.2227 Y64.2452
G01 X34.2130 Y64.2623
G01 X34.1701 Y64.3339
G01 X34.1596 Y64.3505
G01 X34.1483 Y64.3665
G01 X34.0986 Y64.4335
G01 X34.0865 Y64.4490
G01 X34.0737 Y64.4639
G01 X34.0177 Y64.5257
G01 X34.0042 Y64.5399
G01 X33.9899 Y64.5534
G01 X33.9205 Y64.6162
G01 X33.9205 Y65.1420
G01 X33.9200 Y65.1616
G01 X33.9181 Y65.2008
G01 X33.9166 Y65.2204
G01 X33.9142 Y65.2399
G01 X33.9085 Y65.2788
G01 X33.9051 Y65.2981
G01 X33.9008 Y65.3173
G01 X33.8913 Y65.3554
G01 X33.8860 Y65.3743
G01 X33.8799 Y65.3929
G01 X33.8666 Y65.4299
G01 X33.8596 Y65.4482
G01 X33.8516 Y65.4662
G01 X33.8348 Y65.5017
G01 X33.8213 Y65.5278
G01 X33.7961 Y65.5700
G01 X33.7856 Y65.5866
G01 X33.7743 Y65.6026
G01 X33.7509 Y65.6342
G01 X33.7325 Y65.6571
G01 X33.6996 Y65.6936
G01 X33.6861 Y65.7078
G01 X29.0601 Y70.3338
G01 X29.0459 Y70.3474
G01 X29.0168 Y70.3737
G01 X28.9942 Y70.3927
G01 X28.9469 Y70.4278
G01 X28.9223 Y70.4438
G01 X28.8886 Y70.4640
G01 X28.8715 Y70.4737
G01 X28.8539 Y70.4825
G01 X28.8184 Y70.4993
G01 X28.7914 Y70.5109
G01 X28.7452 Y70.5276
G01 X28.7266 Y70.5337
G01 X28.7076 Y70.5390
G01 X28.6695 Y70.5485
G01 X28.6504 Y70.5528
G01 X28.6310 Y70.5562
G01 X28.5922 Y70.5619
G01 X28.5629 Y70.5652
G01 X28.5139 Y70.5677
G01 X28.4943 Y70.5682
G01 X21.9443 Y70.5682
G01 X21.9247 Y70.5677
G01 X21.8756 Y70.5652
G01 X21.8464 Y70.5619
G01 X21.8075 Y70.5562
G01 X21.7882 Y70.5528
G01 X21.7690 Y70.5485
G01 X21.7214 Y70.5365
G01 X21.6934 Y70.5276
G01 X21.6564 Y70.5144
G01 X21.6381 Y70.5073
G01 X21.6201 Y70.4993
G01 X21.5758 Y70.4782
G01 X21.5500 Y70.4640
G01 X21.5163 Y70.4438
G01 X21.4997 Y70.4333
G01 X21.4837 Y70.4220
G01 X21.4521 Y70.3986
G01 X21.4291 Y70.3802
G01 X21.3927 Y70.3474
G01 X21.3785 Y70.3338
G01 X11.8474 Y60.8027
G01 X11.8338 Y60.7885
G01 X11.8075 Y60.7594
G01 X11.7885 Y60.7369
G01 X11.7534 Y60.6896
G01 X11.7374 Y60.6649
G01 X11.7172 Y60.6312
G01 X11.7075 Y60.6141
G01 X11.6987 Y60.5966
G01 X11.6819 Y60.5611
G01 X11.6703 Y60.5340
G01 X11.6536 Y60.4878
G01 X11.6475 Y60.4692
G01 X11.6422 Y60.4503
G01 X11.6327 Y60.4122
G01 X11.6284 Y60.3930
G01 X11.6250 Y60.3737
G01 X11.6193 Y60.3348
G01 X11.6160 Y60.3056
G01 X11.6135 Y60.2565
G01 X11.6130 Y60.2369
G01 X11.6130 Y43.7391
G01 X11.6135 Y43.7195
G01 X11.6160 Y43.6704
G01 X11.6193 Y43.6412
G01 X11.6250 Y43.6023
G01 X11.6284 Y43.5830
G01 X11.6327 Y43.5638
G01 X11.6422 Y43.5257
G01 X11.6475 Y43.5068
G01 X11.6536 Y43.4882
G01 X11.6703 Y43.4420
G01 X11.6819 Y43.4149
G01 X11.6987 Y43.3794
G01 X11.7075 Y43.3619
G01 X11.7172 Y43.3448
G01 X11.7374 Y43.3111
G01 X11.7534 Y43.2864
G01 X11.7885 Y43.2391
G01 X11.8075 Y43.2166
G01 X11.8338 Y43.1875
G01 X11.8474 Y43.1733
G01 X17.0735 Y37.9472
G01 X17.0877 Y37.9336
G01 X17.1168 Y37.9073
G01 X17.1316 Y37.8944
G01 X17.1471 Y37.8824
G01 X17.1787 Y37.8590
G01 X17.1947 Y37.8477
G01 X17.2113 Y37.8372
G01 X17.2450 Y37.8170
G01 X17.2708 Y37.8028
G01 X17.3151 Y37.7817
G01 X17.3331 Y37.7737
G01 X17.3514 Y37.7666
G01 X17.3976 Y37.7502
G01 X17.4259 Y37.7420
G01 X17.4640 Y37.7325
G01 X17.4832 Y37.7282
G01 X17.5025 Y37.7248
G01 X17.5511 Y37.7177
G01 X17.5804 Y37.7152
G01 X17.6197 Y37.7133
G01 X17.6393 Y37.7128
G01 X18.7574 Y37.7128
G00 Z2.0000
G00 X18.7574 Y40.2528
G01 F60.00
G01 Z-0.1100
G01 F100.00
G01 X18.7986 Y40.2155
G01 X18.8134 Y40.2027
G01 X18.8289 Y40.1906
G01 X18.8841 Y40.1497
G01 X18.9002 Y40.1384
G01 X18.9167 Y40.1279
G01 X18.9757 Y40.0926
G01 X18.9927 Y40.0829
G01 X19.0103 Y40.0741
G01 X19.0813 Y40.0406
G01 X19.1086 Y40.0297
G01 X19.1733 Y40.0065
G01 X19.1920 Y40.0004
G01 X19.2109 Y39.9951
G01 X19.2775 Y39.9784
G01 X19.2967 Y39.9741
G01 X19.3160 Y39.9708
G01 X19.3840 Y39.9607
G01 X19.4035 Y39.9583
G01 X19.4230 Y39.9569
G01 X19.4917 Y39.9535
G01 X19.5113 Y39.9530
G01 X20.5113 Y39.9530
G01 X20.5309 Y39.9535
G01 X20.5995 Y39.9569
G01 X20.6191 Y39.9583
G01 X20.6386 Y39.9607
G01 X20.7065 Y39.9708
G01 X20.7259 Y39.9741
G01 X20.7450 Y39.9784
G01 X20.8117 Y39.9951
G01 X20.8306 Y40.0004
G01 X20.8492 Y40.0065
G01 X20.9139 Y40.0297
G01 X20.9413 Y40.0406
G01 X21.0211 Y40.0784
G01 X21.0469 Y40.0926
G01 X21.1058 Y40.1279
G01 X21.1224 Y40.1384
G01 X21.1385 Y40.1497
G01 X21.2014 Y40.1966
G01 X21.2240 Y40.2155
G01 X21.2749 Y40.2616
G01 X21.2891 Y40.2752
G01 X21.3026 Y40.2894
G01 X21.3488 Y40.3403
G01 X21.3616 Y40.3552
G01 X21.3737 Y40.3706
G01 X21.4146 Y40.4258
G01 X21.4259 Y40.4419
G01 X21.4364 Y40.4585
G01 X21.4717 Y40.5174
G01 X21.4814 Y40.5345
G01 X21.4902 Y40.5520
G01 X21.5196 Y40.6141
G01 X21.5275 Y40.6320
G01 X21.5346 Y40.6504
G01 X21.5578 Y40.7150
G01 X21.5666 Y40.7431
G01 X21.5858 Y40.8192
G01 X21.5901 Y40.8384
G01 X21.5935 Y40.8577
G01 X21.6036 Y40.9257
G01 X21.6060 Y40.9452
G01 X21.6074 Y40.9648
G01 X21.6108 Y41.0334
G01 X21.6113 Y41.0530
G01 X21.6108 Y41.0726
G01 X21.6074 Y41.1412
G01 X21.6060 Y41.1608
G01 X21.6036 Y41.1803
G01 X21.5935 Y41.2483
G01 X21.5901 Y41.2676
G01 X21.5858 Y41.2868
G01 X21.5692 Y41.3534
G01 X21.5639 Y41.3723
G01 X21.5578 Y41.3910
G01 X21.5346 Y41.4556
G01 X21.5275 Y41.4740
G01 X21.5196 Y41.4919
G01 X21.4902 Y41.5540
G01 X21.4814 Y41.5715
G01 X21.4717 Y41.5886
G01 X21.4364 Y41.6475
G01 X21.4259 Y41.6641
G01 X21.4146 Y41.6802
G01 X21.3737 Y41.7354
G01 X21.3616 Y41.7508
G01 X21.3488 Y41.7657
G01 X21.3026 Y41.8166
G01 X21.2891 Y41.8308
G01 X21.2749 Y41.8444
G01 X21.2240 Y41.8905
G01 X21.2091 Y41.9033
G01 X21.1936 Y41.9154
G01 X21.1385 Y41.9563
G01 X21.1224 Y41.9676
G01 X21.1058 Y41.9781
G01 X21.0469 Y42.0134
G01 X21.0298 Y42.0231
G01 X21.0123 Y42.0319
G01 X20.9502 Y42.0613
G01 X20.9322 Y42.0693
G01 X20.9139 Y42.0763
G01 X20.8492 Y42.0995
G01 X20.8306 Y42.1056
G01 X20.8117 Y42.1109
G01 X20.7450 Y42.1276
G01 X20.7162 Y42.1337
G01 X20.6386 Y42.1453
G01 X20.6191 Y42.1477
G01 X20.5995 Y42.1491
G01 X20.5309 Y42.1525
G01 X20.5113 Y42.1530
G01 X19.5113 Y42.1530
G01 X19.4917 Y42.1525
G01 X19.4230 Y42.1491
G01 X19.4035 Y42.1477
G01 X19.3840 Y42.1453
G01 X19.3160 Y42.1352
G01 X19.2967 Y42.1319
G01 X19.2775 Y42.1276
G01 X19.2109 Y42.1109
G01 X19.1920 Y42.1056
G01 X19.1733 Y42.0995
G01 X19.1086 Y42.0763
G01 X19.0813 Y42.0654
G01 X19.0103 Y42.0319
G01 X18.9927 Y42.0231
G01 X18.9757 Y42.0134
G01 X18.9167 Y41.9781
G01 X18.9002 Y41.9676
G01 X18.8841 Y41.9563
G01 X18.8289 Y41.9154
G01 X18.8134 Y41.9033
G01 X18.7986 Y41.8905
G01 X18.7574 Y41.8532
G01 X17.9707 Y41.8532
G01 X14.9129 Y44.9110
G01 X14.9129 Y59.0650
G01 X22.7837 Y66.9358
G01 X27.7913 Y66.9358
G01 X29.7801 Y64.9471
G01 X29.7801 Y64.6162
G01 X29.7106 Y64.5534
G01 X29.6964 Y64.5399
G01 X29.6829 Y64.5257
G01 X29.6268 Y64.4639
G01 X29.6140 Y64.4490
G01 X29.6019 Y64.4335
G01 X29.5522 Y64.3665
G01 X29.5409 Y64.3505
G01 X29.5304 Y64.3339
G01 X29.4876 Y64.2623
G01 X29.4779 Y64.2452
G01 X29.4691 Y64.2277
G01 X29.4334 Y64.1523
G01 X29.4254 Y64.1344
G01 X29.4184 Y64.1160
G01 X29.3903 Y64.0375
G01 X29.3841 Y64.0189
G01 X29.3789 Y63.9999
G01 X29.3586 Y63.9190
G01 X29.3543 Y63.8999
G01 X29.3509 Y63.8805
G01 X29.3387 Y63.7980
G01 X29.3355 Y63.7687
G01 X29.3308 Y63.6756
G01 X29.3303 Y63.6560
G01 X29.3303 Y62.6560
G01 X29.3308 Y62.6364
G01 X29.3349 Y62.5531
G01 X29.3374 Y62.5237
G01 X29.3525 Y62.4218
G01 X29.3586 Y62.3930
G01 X29.3789 Y62.3121
G01 X29.3841 Y62.2931
G01 X29.3903 Y62.2745
G01 X29.4184 Y62.1960
G01 X29.4254 Y62.1776
G01 X29.4334 Y62.1597
G01 X29.4691 Y62.0843
G01 X29.4779 Y62.0668
G01 X29.4876 Y62.0497
G01 X29.5304 Y61.9781
G01 X29.5409 Y61.9615
G01 X29.5522 Y61.9455
G01 X29.6019 Y61.8785
G01 X29.6140 Y61.8630
G01 X29.6268 Y61.8481
G01 X29.6829 Y61.7863
G01 X29.6964 Y61.7721
G01 X29.7106 Y61.7586
G01 X29.7724 Y61.7026
G01 X29.7873 Y61.6897
G01 X29.8028 Y61.6777
G01 X29.8698 Y61.6280
G01 X29.8858 Y61.6167
G01 X29.9024 Y61.6062
G01 X29.9740 Y61.5633
G01 X29.9910 Y61.5536
G01 X30.0086 Y61.5448
G01 X30.0840 Y61.5091
G01 X30.1019 Y61.5012
G01 X30.1202 Y61.4941
G01 X30.1988 Y61.4660
G01 X30.2174 Y61.4598
G01 X30.2363 Y61.4546
G01 X30.3173 Y61.4343
G01 X30.3364 Y61.4300
G01 X30.3558 Y61.4267
G01 X30.4383 Y61.4144
G01 X30.4578 Y61.4120
G01 X30.4773 Y61.4106
G01 X30.5607 Y61.4065
G01 X30.5803 Y61.4060
G01 X30.5999 Y61.4065
G01 X30.6832 Y61.4106
G01 X30.7028 Y61.4120
G01 X30.7223 Y61.4144
G01 X30.8048 Y61.4267
G01 X30.8241 Y61.4300
G01 X30.8433 Y61.4343
G01 X30.9242 Y61.4546
G01 X30.9431 Y61.4598
G01 X30.9618 Y61.4660
G01 X31.0403 Y61.4941
G01 X31.0586 Y61.5012
G01 X31.0766 Y61.5091
G01 X31.1520 Y61.5448
G01 X31.1695 Y61.5536
G01 X31.1866 Y61.5633
G01 X31.2582 Y61.6062
G01 X31.2828 Y61.6222
G01 X31.3656 Y61.6836
G01 X31.3881 Y61.7026
G01 X31.4499 Y61.7586
G01 X31.4642 Y61.7721
G01 X31.4777 Y61.7863
G01 X31.5337 Y61.8481
G01 X31.5465 Y61.8630
G01 X31.5586 Y61.8785
G01 X31.6083 Y61.9455
G01 X31.6196 Y61.9615
G01 X31.6301 Y61.9781
G01 X31.6730 Y62.0497
G01 X31.6827 Y62.0668
G01 X31.6915 Y62.0843
G01 X31.7272 Y62.1597
G01 X31.7351 Y62.1776
G01 X31.7422 Y62.1960
G01 X31.7703 Y62.2745
G01 X31.7765 Y62.2931
G01 X31.7817 Y62.3121
G01 X31.8020 Y62.3930
G01 X31.8063 Y62.4121
G01 X31.8096 Y62.4315
G01 X31.8219 Y62.5140
G01 X31.8243 Y62.5335
G01 X31.8257 Y62.5531
G01 X31.8298 Y62.6364
G01 X31.8303 Y62.6560
G01 X31.8302 Y63.6658
G01 X31.8257 Y63.7589
G01 X31.8243 Y63.7785
G01 X31.8219 Y63.7980
G01 X31.8081 Y63.8902
G01 X31.8020 Y63.9190
G01 X31.7817 Y63.9999
G01 X31.7765 Y64.0189
G01 X31.7703 Y64.0375
G01 X31.7422 Y64.1160
G01 X31.7351 Y64.1344
G01 X31.7272 Y64.1523
G01 X31.6872 Y64.2365
G01 X31.6730 Y64.2623
G01 X31.6301 Y64.3339
G01 X31.6196 Y64.3505
G01 X31.6083 Y64.3665
G01 X31.5586 Y64.4335
G01 X31.5465 Y64.4490
G01 X31.5337 Y64.4639
G01 X31.4777 Y64.5257
G01 X31.4642 Y64.5399
G01 X31.4499 Y64.5534
G01 X31.3805 Y64.6162
G01 X31.3805 Y65.2785
G01 X31.3800 Y65.2981
G01 X31.3775 Y65.3472
G01 X31.3755 Y65.3667
G01 X31.3685 Y65.4153
G01 X31.3651 Y65.4346
G01 X31.3608 Y65.4538
G01 X31.3513 Y65.4919
G01 X31.3460 Y65.5108
G01 X31.3399 Y65.5294
G01 X31.3266 Y65.5664
G01 X31.3196 Y65.5847
G01 X31.3116 Y65.6027
G01 X31.2948 Y65.6382
G01 X31.2860 Y65.6557
G01 X31.2763 Y65.6728
G01 X31.2561 Y65.7065
G01 X31.2456 Y65.7231
G01 X31.2343 Y65.7391
G01 X31.2109 Y65.7707
G01 X31.1988 Y65.7861
G01 X31.1860 Y65.8010
G01 X31.1530 Y65.8373
G01 X28.6886 Y68.3018
G01 X28.6744 Y68.3154
G01 X28.6453 Y68.3417
G01 X28.6228 Y68.3607
G01 X28.5754 Y68.3958
G01 X28.5508 Y68.4118
G01 X28.5171 Y68.4320
G01 X28.5000 Y68.4417
G01 X28.4825 Y68.4505
G01 X28.4470 Y68.4673
G01 X28.4199 Y68.4789
G01 X28.3644 Y68.4988
G01 X28.3456 Y68.5045
G01 X28.2981 Y68.5165
G01 X28.2789 Y68.5208
G01 X28.2596 Y68.5242
G01 X28.2207 Y68.5299
G01 X28.2012 Y68.5323
G01 X28.1816 Y68.5338
G01 X28.1424 Y68.5357
G01 X28.1228 Y68.5362
G01 X22.4523 Y68.5362
G01 X22.4327 Y68.5357
G01 X22.3836 Y68.5332
G01 X22.3544 Y68.5299
G01 X22.3155 Y68.5242
G01 X22.2962 Y68.5208
G01 X22.2770 Y68.5165
G01 X22.2294 Y68.5045
G01 X22.2014 Y68.4956
G01 X22.1644 Y68.4824
G01 X22.1461 Y68.4753
G01 X22.1281 Y68.4673
G01 X22.0838 Y68.4462
G01 X22.0580 Y68.4320
G01 X22.0243 Y68.4118
G01 X22.0077 Y68.4013
G01 X21.9917 Y68.3900
G01 X21.9601 Y68.3666
G01 X21.9371 Y68.3482
G01 X21.9007 Y68.3154
G01 X21.8865 Y68.3018
G01 X13.5469 Y59.9623
G01 X13.5334 Y59.9480
G01 X13.5070 Y59.9189
G01 X13.4880 Y59.8964
G01 X13.4529 Y59.8491
G01 X13.4369 Y59.8244
G01 X13.4167 Y59.7907
G01 X13.4070 Y59.7737
G01 X13.3982 Y59.7561
G01 X13.3814 Y59.7206
G01 X13.3698 Y59.6935
G01 X13.3499 Y59.6381
G01 X13.3442 Y59.6193
G01 X13.3322 Y59.5717
G01 X13.3279 Y59.5526
G01 X13.3245 Y59.5332
G01 X13.3188 Y59.4944
G01 X13.3164 Y59.4749
G01 X13.3149 Y59.4553
G01 X13.3130 Y59.4161
G01 X13.3125 Y59.3964
G01 X13.3125 Y44.5796
G01 X13.3130 Y44.5599
G01 X13.3155 Y44.5109
G01 X13.3188 Y44.4816
G01 X13.3245 Y44.4428
G01 X13.3279 Y44.4234
G01 X13.3322 Y44.4043
G01 X13.3442 Y44.3567
G01 X13.3531 Y44.3286
G01 X13.3664 Y44.2917
G01 X13.3734 Y44.2733
G01 X13.3814 Y44.2554
G01 X13.4025 Y44.2111
G01 X13.4167 Y44.1853
G01 X13.4369 Y44.1516
G01 X13.4474 Y44.1350
G01 X13.4587 Y44.1189
G01 X13.4821 Y44.0874
G01 X13.5005 Y44.0644
G01 X13.5400 Y44.0208
G01 X17.0735 Y40.4872
G01 X17.0877 Y40.4736
G01 X17.1241 Y40.4408
G01 X17.1471 Y40.4224
G01 X17.1787 Y40.3990
G01 X17.1947 Y40.3877
G01 X17.2113 Y40.3772
G01 X17.2450 Y40.3570
G01 X17.2708 Y40.3428
G01 X17.3151 Y40.3217
G01 X17.3331 Y40.3137
G01 X17.3514 Y40.3066
G01 X17.3884 Y40.2934
G01 X17.4070 Y40.2873
G01 X17.4259 Y40.2820
G01 X17.4640 Y40.2725
G01 X17.4928 Y40.2664
G01 X17.5414 Y40.2591
G01 X17.5608 Y40.2567
G01 X17.5804 Y40.2552
G01 X17.6197 Y40.2533
G01 X17.6393 Y40.2528
G01 X18.7574 Y40.2528
G00 Z2.0000
G00 X18.7574 Y42.7928
G01 F60.00
G01 Z-0.1100
G01 F100.00
G01 X18.7986 Y42.7555
G01 X18.8134 Y42.7427
G01 X18.8289 Y42.7306
G01 X18.8841 Y42.6897
G01 X18.9002 Y42.6784
G01 X18.9167 Y42.6679
G01 X18.9757 Y42.6326
G01 X18.9927 Y42.6229
G01 X19.0103 Y42.6141
G01 X19.0724 Y42.5847
G01 X19.0903 Y42.5767
G01 X19.1086 Y42.5697
G01 X19.1733 Y42.5465
G01 X19.2014 Y42.5376
G01 X19.2775 Y42.5184
G01 X19.2967 Y42.5141
G01 X19.3160 Y42.5108
G01 X19.3937 Y42.4994
G01 X19.4230 Y42.4969
G01 X19.4917 Y42.4935
G01 X19.5113 Y42.4930
G01 X20.5211 Y42.4931
G01 X20.5995 Y42.4969
G01 X20.6191 Y42.4983
G01 X20.6386 Y42.5007
G01 X20.7065 Y42.5108
G01 X20.7259 Y42.5141
G01 X20.7450 Y42.5184
G01 X20.8117 Y42.5351
G01 X20.8400 Y42.5433
G01 X20.9139 Y42.5697
G01 X20.9322 Y42.5767
G01 X20.9502 Y42.5847
G01 X21.0123 Y42.6141
G01 X21.0298 Y42.6229
G01 X21.0469 Y42.6326
G01 X21.1058 Y42.6679
G01 X21.1224 Y42.6784
G01 X21.1385 Y42.6897
G01 X21.1936 Y42.7306
G01 X21.2166 Y42.7490
G01 X21.2749 Y42.8016
G01 X21.2891 Y42.8152
G01 X21.3026 Y42.8294
G01 X21.3488 Y42.8803
G01 X21.3677 Y42.9028
G01 X21.4146 Y42.9658
G01 X21.4312 Y42.9901
G01 X21.4717 Y43.0574
G01 X21.4814 Y43.0745
G01 X21.4902 Y43.0920
G01 X21.5196 Y43.1541
G01 X21.5275 Y43.1720
G01 X21.5346 Y43.1904
G01 X21.5578 Y43.2550
G01 X21.5639 Y43.2737
G01 X21.5692 Y43.2926
G01 X21.5881 Y43.3688
G01 X21.5935 Y43.3977
G01 X21.6049 Y43.4754
G01 X21.6074 Y43.5048
G01 X21.6108 Y43.5734
G01 X21.6112 Y43.6028
G01 X21.6074 Y43.6812
G01 X21.6060 Y43.7008
G01 X21.6036 Y43.7203
G01 X21.5935 Y43.7883
G01 X21.5901 Y43.8076
G01 X21.5858 Y43.8268
G01 X21.5692 Y43.8934
G01 X21.5639 Y43.9123
G01 X21.5578 Y43.9310
G01 X21.5346 Y43.9956
G01 X21.5275 Y44.0140
G01 X21.5196 Y44.0319
G01 X21.4902 Y44.0940
G01 X21.4814 Y44.1115
G01 X21.4717 Y44.1286
G01 X21.4364 Y44.1875
G01 X21.4203 Y44.2122
G01 X21.3737 Y44.2754
G01 X21.3616 Y44.2908
G01 X21.3488 Y44.3057
G01 X21.2960 Y44.3638
G01 X21.2749 Y44.3844
G01 X21.2240 Y44.4305
G01 X21.2091 Y44.4433
G01 X21.1936 Y44.4554
G01 X21.1385 Y44.4963
G01 X21.1224 Y44.5076
G01 X21.1058 Y44.5181
G01 X21.0469 Y44.5534
G01 X21.0298 Y44.5631
G01 X21.0123 Y44.5719
G01 X20.9502 Y44.6013
G01 X20.9322 Y44.6093
G01 X20.9139 Y44.6163
G01 X20.8492 Y44.6395
G01 X20.8306 Y44.6456
G01 X20.8117 Y44.6509
G01 X20.7450 Y44.6676
G01 X20.7162 Y44.6737
G01 X20.6386 Y44.6853
G01 X20.6191 Y44.6877
G01 X20.5995 Y44.6891
G01 X20.5309 Y44.6925
G01 X20.5113 Y44.6930
G01 X19.5113 Y44.6930
G01 X19.4917 Y44.6925
G01 X19.4230 Y44.6891
G01 X19.4035 Y44.6877
G01 X19.3840 Y44.6853
G01 X19.3160 Y44.6752
G01 X19.2967 Y44.6719
G01 X19.2775 Y44.6676
G01 X19.2109 Y44.6509
G01 X19.1920 Y44.6456
G01 X19.1733 Y44.6395
G01 X19.1086 Y44.6163
G01 X19.0813 Y44.6054
G01 X19.0103 Y44.5719
G01 X18.9927 Y44.5631
G01 X18.9757 Y44.5534
G01 X18.9167 Y44.5181
G01 X18.9002 Y44.5076
G01 X18.8841 Y44.4963
G01 X18.8289 Y44.4554
G01 X18.8134 Y44.4433
G01 X18.7986 Y44.4305
G01 X18.7574 Y44.3932
G01 X17.9707 Y44.3932
G01 X16.6124 Y45.7515
G01 X16.6124 Y57.9355
G01 X23.6822 Y65.0053
G01 X27.2401 Y65.0053
G01 X27.2401 Y64.6162
G01 X27.1706 Y64.5534
G01 X27.1564 Y64.5399
G01 X27.1429 Y64.5257
G01 X27.0868 Y64.4639
G01 X27.0740 Y64.4490
G01 X27.0619 Y64.4335
G01 X27.0122 Y64.3665
G01 X27.0009 Y64.3505
G01 X26.9904 Y64.3339
G01 X26.9476 Y64.2623
G01 X26.9379 Y64.2452
G01 X26.9291 Y64.2277
G01 X26.8934 Y64.1523
G01 X26.8854 Y64.1344
G01 X26.8784 Y64.1160
G01 X26.8503 Y64.0375
G01 X26.8441 Y64.0189
G01 X26.8389 Y63.9999
G01 X26.8186 Y63.9190
G01 X26.8143 Y63.8999
G01 X26.8109 Y63.8805
G01 X26.7987 Y63.7980
G01 X26.7963 Y63.7785
G01 X26.7949 Y63.7589
G01 X26.7908 Y63.6756
G01 X26.7903 Y63.6560
G01 X26.7903 Y62.6560
G01 X26.7908 Y62.6364
G01 X26.7955 Y62.5433
G01 X26.7987 Y62.5140
G01 X26.8109 Y62.4315
G01 X26.8143 Y62.4121
G01 X26.8186 Y62.3930
G01 X26.8389 Y62.3121
G01 X26.8441 Y62.2931
G01 X26.8503 Y62.2745
G01 X26.8784 Y62.1960
G01 X26.8854 Y62.1776
G01 X26.8934 Y62.1597
G01 X26.9291 Y62.0843
G01 X26.9379 Y62.0668
G01 X26.9476 Y62.0497
G01 X26.9904 Y61.9781
G01 X27.0009 Y61.9615
G01 X27.0122 Y61.9455
G01 X27.0619 Y61.8785
G01 X27.0740 Y61.8630
G01 X27.0868 Y61.8481
G01 X27.1429 Y61.7863
G01 X27.1564 Y61.7721
G01 X27.1706 Y61.7586
G01 X27.2324 Y61.7026
G01 X27.2473 Y61.6897
G01 X27.2628 Y61.6777
G01 X27.3377 Y61.6222
G01 X27.3624 Y61.6062
G01 X27.4340 Y61.5633
G01 X27.4510 Y61.5536
G01 X27.4686 Y61.5448
G01 X27.5440 Y61.5091
G01 X27.5710 Y61.4975
G01 X27.6681 Y61.4628
G01 X27.6963 Y61.4546
G01 X27.7868 Y61.4321
G01 X27.8158 Y61.4267
G01 X27.8983 Y61.4144
G01 X27.9178 Y61.4120
G01 X27.9373 Y61.4106
G01 X28.0207 Y61.4065
G01 X28.0403 Y61.4060
G01 X28.0599 Y61.4065
G01 X28.1432 Y61.4106
G01 X28.1628 Y61.4120
G01 X28.1823 Y61.4144
G01 X28.2648 Y61.4267
G01 X28.2841 Y61.4300
G01 X28.3033 Y61.4343
G01 X28.3937 Y61.4571
G01 X28.4218 Y61.4660
G01 X28.5003 Y61.4941
G01 X28.5186 Y61.5012
G01 X28.5366 Y61.5091
G01 X28.6120 Y61.5448
G01 X28.6381 Y61.5583
G01 X28.7265 Y61.6113
G01 X28.7508 Y61.6280
G01 X28.8178 Y61.6777
G01 X28.8408 Y61.6961
G01 X28.9099 Y61.7586
G01 X28.9242 Y61.7721
G01 X28.9377 Y61.7863
G01 X28.9937 Y61.8481
G01 X29.0127 Y61.8707
G01 X29.0741 Y61.9534
G01 X29.0901 Y61.9781
G01 X29.1330 Y62.0497
G01 X29.1427 Y62.0668
G01 X29.1515 Y62.0843
G01 X29.1872 Y62.1597
G01 X29.1951 Y62.1776
G01 X29.2022 Y62.1960
G01 X29.2303 Y62.2745
G01 X29.2365 Y62.2931
G01 X29.2417 Y62.3121
G01 X29.2620 Y62.3930
G01 X29.2663 Y62.4121
G01 X29.2696 Y62.4315
G01 X29.2819 Y62.5140
G01 X29.2843 Y62.5335
G01 X29.2857 Y62.5531
G01 X29.2898 Y62.6364
G01 X29.2903 Y62.6560
G01 X29.2902 Y63.6658
G01 X29.2857 Y63.7589
G01 X29.2843 Y63.7785
G01 X29.2819 Y63.7980
G01 X29.2681 Y63.8902
G01 X29.2620 Y63.9190
G01 X29.2417 Y63.9999
G01 X29.2365 Y64.0189
G01 X29.2303 Y64.0375
G01 X29.2022 Y64.1160
G01 X29.1913 Y64.1434
G01 X29.1515 Y64.2277
G01 X29.1427 Y64.2452
G01 X29.1330 Y64.2623
G01 X29.0901 Y64.3339
G01 X29.0796 Y64.3505
G01 X29.0683 Y64.3665
G01 X29.0186 Y64.4335
G01 X29.0065 Y64.4490
G01 X28.9937 Y64.4639
G01 X28.9377 Y64.5257
G01 X28.9242 Y64.5399
G01 X28.9099 Y64.5534
G01 X28.8405 Y64.6162
G01 X28.8405 Y65.4150
G01 X28.8400 Y65.4346
G01 X28.8375 Y65.4837
G01 X28.8342 Y65.5129
G01 X28.8285 Y65.5518
G01 X28.8251 Y65.5711
G01 X28.8208 Y65.5903
G01 X28.8113 Y65.6284
G01 X28.8060 Y65.6473
G01 X28.7999 Y65.6659
G01 X28.7866 Y65.7029
G01 X28.7796 Y65.7212
G01 X28.7716 Y65.7392
G01 X28.7505 Y65.7835
G01 X28.7363 Y65.8093
G01 X28.7110 Y65.8514
G01 X28.7001 Y65.8677
G01 X28.6709 Y65.9072
G01 X28.6588 Y65.9227
G01 X28.6460 Y65.9375
G01 X28.6196 Y65.9666
G01 X28.6061 Y65.9808
G01 X28.2086 Y66.3782
G01 X28.1723 Y66.4113
G01 X28.1574 Y66.4241
G01 X28.1420 Y66.4362
G01 X28.1104 Y66.4595
G01 X28.0944 Y66.4709
G01 X28.0778 Y66.4814
G01 X28.0441 Y66.5015
G01 X28.0270 Y66.5112
G01 X28.0095 Y66.5201
G01 X27.9740 Y66.5368
G01 X27.9469 Y66.5484
G01 X27.9007 Y66.5651
G01 X27.8821 Y66.5713
G01 X27.8632 Y66.5765
G01 X27.8251 Y66.5860
G01 X27.8059 Y66.5903
G01 X27.7866 Y66.5937
G01 X27.7477 Y66.5995
G01 X27.7282 Y66.6019
G01 X27.7086 Y66.6033
G01 X27.6596 Y66.6056
G01 X23.3410 Y66.6056
G01 X23.2919 Y66.6033
G01 X23.2723 Y66.6019
G01 X23.2529 Y66.5995
G01 X23.2140 Y66.5937
G01 X23.1851 Y66.5883
G01 X23.1374 Y66.5765
G01 X23.1185 Y66.5713
G01 X23.0998 Y66.5651
G01 X23.0537 Y66.5484
G01 X23.0266 Y66.5368
G01 X22.9911 Y66.5201
G01 X22.9736 Y66.5112
G01 X22.9565 Y66.5015
G01 X22.9144 Y66.4762
G01 X22.8901 Y66.4595
G01 X22.8586 Y66.4362
G01 X22.8431 Y66.4241
G01 X22.8283 Y66.4113
G01 X22.7992 Y66.3849
G01 X22.7849 Y66.3713
G01 X15.2464 Y58.8328
G01 X15.2329 Y58.8186
G01 X15.2065 Y58.7895
G01 X15.1937 Y58.7746
G01 X15.1816 Y58.7591
G01 X15.1582 Y58.7276
G01 X15.1469 Y58.7115
G01 X15.1364 Y58.6950
G01 X15.1162 Y58.6613
G01 X15.1065 Y58.6442
G01 X15.0977 Y58.6267
G01 X15.0809 Y58.5912
G01 X15.0693 Y58.5641
G01 X15.0527 Y58.5179
G01 X15.0465 Y58.4993
G01 X15.0413 Y58.4803
G01 X15.0317 Y58.4422
G01 X15.0274 Y58.4231
G01 X15.0241 Y58.4037
G01 X15.0183 Y58.3649
G01 X15.0159 Y58.3454
G01 X15.0144 Y58.3258
G01 X15.0125 Y58.2866
G01 X15.0120 Y58.2670
G01 X15.0120 Y45.4200
G01 X15.0125 Y45.4004
G01 X15.0144 Y45.3612
G01 X15.0159 Y45.3416
G01 X15.0183 Y45.3221
G01 X15.0241 Y45.2833
G01 X15.0294 Y45.2543
G01 X15.0413 Y45.2067
G01 X15.0465 Y45.1878
G01 X15.0527 Y45.1691
G01 X15.0659 Y45.1321
G01 X15.0768 Y45.1048
G01 X15.0977 Y45.0604
G01 X15.1065 Y45.0428
G01 X15.1162 Y45.0257
G01 X15.1415 Y44.9837
G01 X15.1582 Y44.9594
G01 X15.1816 Y44.9279
G01 X15.1937 Y44.9124
G01 X15.2065 Y44.8975
G01 X15.2396 Y44.8612
G01 X17.0735 Y43.0272
G01 X17.0877 Y43.0136
G01 X17.1168 Y42.9873
G01 X17.1316 Y42.9744
G01 X17.1471 Y42.9624
G01 X17.1787 Y42.9390
G01 X17.1947 Y42.9277
G01 X17.2113 Y42.9172
G01 X17.2535 Y42.8920
G01 X17.2796 Y42.8785
G01 X17.3151 Y42.8617
G01 X17.3331 Y42.8537
G01 X17.3514 Y42.8466
G01 X17.3884 Y42.8334
G01 X17.4164 Y42.8245
G01 X17.4736 Y42.8102
G01 X17.5025 Y42.8048
G01 X17.5414 Y42.7991
G01 X17.5608 Y42.7967
G01 X17.5804 Y42.7952
G01 X17.6197 Y42.7933
G01 X17.6393 Y42.7928
G01 X18.7574 Y42.7928
G00 Z2.0000
G00 X18.7574 Y45.3328
G01 F60.00
G01 Z-0.1100
G01 F100.00
G01 X18.7986 Y45.2955
G01 X18.8134 Y45.2827
G01 X18.8289 Y45.2706
G01 X18.8841 Y45.2297
G01 X18.9002 Y45.2184
G01 X18.9167 Y45.2079
G01 X18.9757 Y45.1726
G01 X18.9927 Y45.1629
G01 X19.0103 Y45.1541
G01 X19.0724 Y45.1247
G01 X19.0903 Y45.1167
G01 X19.1086 Y45.1097
G01 X19.1733 Y45.0865
G01 X19.2014 Y45.0776
G01 X19.2775 Y45.0584
G01 X19.2967 Y45.0541
G01 X19.3160 Y45.0508
G01 X19.3937 Y45.0394
G01 X19.4230 Y45.0369
G01 X19.4917 Y45.0335
G01 X19.5113 Y45.0330
G01 X20.5211 Y45.0331
G01 X20.6093 Y45.0375
G01 X20.6386 Y45.0407
G01 X20.7065 Y45.0508
G01 X20.7259 Y45.0541
G01 X20.7450 Y45.0584
G01 X20.8212 Y45.0776
G01 X20.8492 Y45.0865
G01 X20.9139 Y45.1097
G01 X20.9322 Y45.1167
G01 X20.9502 Y45.1247
G01 X21.0123 Y45.1541
G01 X21.0384 Y45.1676
G01 X21.1058 Y45.2079
G01 X21.1305 Y45.2239
G01 X21.1936 Y45.2706
G01 X21.2091 Y45.2827
G01 X21.2240 Y45.2955
G01 X21.2749 Y45.3416
G01 X21.2891 Y45.3552
G01 X21.3026 Y45.3694
G01 X21.3488 Y45.4203
G01 X21.3616 Y45.4352
G01 X21.3737 Y45.4506
G01 X21.4146 Y45.5058
G01 X21.4259 Y45.5219
G01 X21.4364 Y45.5385
G01 X21.4767 Y45.6059
G01 X21.4902 Y45.6320
G01 X21.5196 Y45.6941
G01 X21.5275 Y45.7120
G01 X21.5346 Y45.7304
G01 X21.5578 Y45.7950
G01 X21.5639 Y45.8137
G01 X21.5692 Y45.8326
G01 X21.5858 Y45.8992
G01 X21.5901 Y45.9184
G01 X21.5935 Y45.9377
G01 X21.6036 Y46.0057
G01 X21.6060 Y46.0252
G01 X21.6074 Y46.0448
G01 X21.6112 Y46.1232
G01 X21.6108 Y46.1526
G01 X21.6074 Y46.2212
G01 X21.6060 Y46.2408
G01 X21.6036 Y46.2603
G01 X21.5935 Y46.3283
G01 X21.5901 Y46.3476
G01 X21.5858 Y46.3668
G01 X21.5692 Y46.4334
G01 X21.5639 Y46.4523
G01 X21.5578 Y46.4710
G01 X21.5346 Y46.5356
G01 X21.5275 Y46.5540
G01 X21.5196 Y46.5719
G01 X21.4902 Y46.6340
G01 X21.4814 Y46.6515
G01 X21.4717 Y46.6686
G01 X21.4364 Y46.7275
G01 X21.4259 Y46.7441
G01 X21.4146 Y46.7602
G01 X21.3737 Y46.8154
G01 X21.3616 Y46.8308
G01 X21.3488 Y46.8457
G01 X21.3026 Y46.8966
G01 X21.2891 Y46.9108
G01 X21.2749 Y46.9244
G01 X21.2240 Y46.9705
G01 X21.2091 Y46.9833
G01 X21.1936 Y46.9954
G01 X21.1385 Y47.0363
G01 X21.1224 Y47.0476
G01 X21.1058 Y47.0581
G01 X21.0469 Y47.0934
G01 X21.0298 Y47.1031
G01 X21.0123 Y47.1119
G01 X20.9413 Y47.1454
G01 X20.9139 Y47.1563
G01 X20.8400 Y47.1827
G01 X20.8117 Y47.1909
G01 X20.7450 Y47.2076
G01 X20.7259 Y47.2119
G01 X20.7065 Y47.2152
G01 X20.6289 Y47.2266
G01 X20.5995 Y47.2291
G01 X20.5309 Y47.2325
G01 X20.5113 Y47.2330
G01 X19.5113 Y47.2330
G01 X19.4917 Y47.2325
G01 X19.4230 Y47.2291
G01 X19.4035 Y47.2277
G01 X19.3840 Y47.2253
G01 X19.3160 Y47.2152
G01 X19.2871 Y47.2098
G01 X19.2109 Y47.1909
G01 X19.1920 Y47.1856
G01 X19.1733 Y47.1795
G01 X19.1086 Y47.1563
G01 X19.0903 Y47.1493
G01 X19.0724 Y47.1413
G01 X19.0103 Y47.1119
G01 X18.9927 Y47.1031
G01 X18.9757 Y47.0934
G01 X18.9167 Y47.0581
G01 X18.9002 Y47.0476
G01 X18.8838 Y47.0361
G01 X18.3120 Y47.6080
G01 X18.3120 Y56.8760
G01 X23.2917 Y61.8558
G01 X24.2503 Y61.8558
G01 X24.2504 Y61.7962
G01 X24.2522 Y61.7668
G01 X24.2546 Y61.7473
G01 X24.2580 Y61.7280
G01 X24.2623 Y61.7088
G01 X24.2675 Y61.6899
G01 X24.2737 Y61.6712
G01 X24.2807 Y61.6529
G01 X24.2887 Y61.6350
G01 X24.2975 Y61.6174
G01 X24.3072 Y61.6004
G01 X24.3177 Y61.5838
G01 X24.3290 Y61.5677
G01 X24.3411 Y61.5522
G01 X24.3539 Y61.5374
G01 X24.3674 Y61.5232
G01 X24.3817 Y61.5096
G01 X24.3965 Y61.4968
G01 X24.4120 Y61.4847
G01 X24.4281 Y61.4734
G01 X24.4446 Y61.4629
G01 X24.4617 Y61.4532
G01 X24.4793 Y61.4444
G01 X24.4972 Y61.4364
G01 X24.5155 Y61.4294
G01 X24.5342 Y61.4232
G01 X24.5531 Y61.4180
G01 X24.5722 Y61.4137
G01 X24.5916 Y61.4103
G01 X24.6111 Y61.4079
G01 X24.6307 Y61.4065
G01 X24.6503 Y61.4060
G01 X26.3503 Y61.4060
G01 X26.3699 Y61.4065
G01 X26.3895 Y61.4079
G01 X26.4090 Y61.4103
G01 X26.4283 Y61.4137
G01 X26.4475 Y61.4180
G01 X26.4664 Y61.4232
G01 X26.4850 Y61.4294
G01 X26.5124 Y61.4403
G01 X26.5301 Y61.4487
G01 X26.5474 Y61.4580
G01 X26.5725 Y61.4734
G01 X26.5886 Y61.4847
G01 X26.6040 Y61.4968
G01 X26.6189 Y61.5096
G01 X26.6331 Y61.5232
G01 X26.6467 Y61.5374
G01 X26.6595 Y61.5522
G01 X26.6716 Y61.5677
G01 X26.6829 Y61.5838
G01 X26.6983 Y61.6088
G01 X26.7076 Y61.6262
G01 X26.7160 Y61.6439
G01 X26.7235 Y61.6620
G01 X26.7301 Y61.6805
G01 X26.7383 Y61.7088
G01 X26.7426 Y61.7280
G01 X26.7460 Y61.7473
G01 X26.7484 Y61.7668
G01 X26.7498 Y61.7864
G01 X26.7503 Y61.8060
G01 X26.7503 Y64.5060
G01 X26.7498 Y64.5256
G01 X26.7473 Y64.5550
G01 X26.7426 Y64.5840
G01 X26.7358 Y64.6127
G01 X26.7269 Y64.6408
G01 X26.7160 Y64.6681
G01 X26.7030 Y64.6946
G01 X26.6882 Y64.7200
G01 X26.6773 Y64.7363
G01 X26.6595 Y64.7598
G01 X26.6400 Y64.7818
G01 X26.6189 Y64.8024
G01 X26.5964 Y64.8213
G01 X26.5725 Y64.8386
G01 X26.5474 Y64.8540
G01 X26.5213 Y64.8676
G01 X26.4942 Y64.8792
G01 X26.4664 Y64.8888
G01 X26.4475 Y64.8940
G01 X26.4283 Y64.8983
G01 X26.3992 Y64.9030
G01 X26.3797 Y64.9049
G01 X26.3601 Y64.9059
G01 X24.6405 Y64.9059
G01 X24.6111 Y64.9041
G01 X24.5916 Y64.9017
G01 X24.5722 Y64.8983
G01 X24.5436 Y64.8915
G01 X24.5155 Y64.8826
G01 X24.4882 Y64.8717
G01 X24.4617 Y64.8588
G01 X24.4363 Y64.8439
G01 X24.4120 Y64.8273
G01 X24.3965 Y64.8152
G01 X24.3817 Y64.8024
G01 X24.3606 Y64.7818
G01 X24.3474 Y64.7673
G01 X24.3349 Y64.7521
G01 X24.3232 Y64.7363
G01 X24.3123 Y64.7200
G01 X24.3022 Y64.7032
G01 X24.2930 Y64.6858
G01 X24.2846 Y64.6681
G01 X24.2771 Y64.6500
G01 X24.2705 Y64.6315
G01 X24.2648 Y64.6127
G01 X24.2600 Y64.5936
G01 X24.2562 Y64.5744
G01 X24.2533 Y64.5550
G01 X24.2508 Y64.5256
G01 X24.2503 Y64.5060
G01 X24.2503 Y63.4562
G01 X22.9603 Y63.4562
G01 X22.9407 Y63.4557
G01 X22.9014 Y63.4538
G01 X22.8818 Y63.4523
G01 X22.8624 Y63.4499
G01 X22.8235 Y63.4442
G01 X22.8042 Y63.4408
G01 X22.7850 Y63.4365
G01 X22.7469 Y63.4270
G01 X22.7186 Y63.4188
G01 X22.6724 Y63.4024
G01 X22.6541 Y63.3953
G01 X22.6361 Y63.3873
G01 X22.5918 Y63.3662
G01 X22.5660 Y63.3520
G01 X22.5323 Y63.3318
G01 X22.5157 Y63.3213
G01 X22.4997 Y63.3100
G01 X22.4603 Y63.2807
G01 X22.4378 Y63.2617
G01 X22.4087 Y63.2354
G01 X22.3945 Y63.2218
G01 X16.9459 Y57.7733
G01 X16.9324 Y57.7591
G01 X16.9060 Y57.7300
G01 X16.8932 Y57.7151
G01 X16.8811 Y57.6996
G01 X16.8577 Y57.6681
G01 X16.8464 Y57.6520
G01 X16.8359 Y57.6355
G01 X16.8157 Y57.6018
G01 X16.8060 Y57.5847
G01 X16.7972 Y57.5672
G01 X16.7804 Y57.5317
G01 X16.7688 Y57.5046
G01 X16.7522 Y57.4584
G01 X16.7460 Y57.4398
G01 X16.7408 Y57.4208
G01 X16.7312 Y57.3827
G01 X16.7269 Y57.3636
G01 X16.7236 Y57.3442
G01 X16.7178 Y57.3054
G01 X16.7154 Y57.2859
G01 X16.7140 Y57.2663
G01 X16.7120 Y57.2271
G01 X16.7116 Y57.2075
G01 X16.7116 Y47.2765
G01 X16.7120 Y47.2569
G01 X16.7140 Y47.2177
G01 X16.7154 Y47.1981
G01 X16.7178 Y47.1786
G01 X16.7251 Y47.1301
G01 X16.7290 Y47.1108
G01 X16.7408 Y47.0632
G01 X16.7490 Y47.0349
G01 X16.7654 Y46.9886
G01 X16.7725 Y46.9703
G01 X16.7804 Y46.9523
G01 X16.7972 Y46.9168
G01 X16.8108 Y46.8907
G01 X16.8359 Y46.8485
G01 X16.8464 Y46.8320
G01 X16.8577 Y46.8159
G01 X16.8811 Y46.7844
G01 X16.8995 Y46.7614
G01 X16.9324 Y46.7249
G01 X16.9459 Y46.7107
G01 X18.0895 Y45.5672
G01 X18.1037 Y45.5536
G01 X18.1328 Y45.5273
G01 X18.1553 Y45.5083
G01 X18.2026 Y45.4732
G01 X18.2273 Y45.4572
G01 X18.2695 Y45.4320
G01 X18.2956 Y45.4185
G01 X18.3311 Y45.4017
G01 X18.3491 Y45.3937
G01 X18.3674 Y45.3866
G01 X18.4044 Y45.3734
G01 X18.4230 Y45.3673
G01 X18.4419 Y45.3620
G01 X18.4800 Y45.3525
G01 X18.4992 Y45.3482
G01 X18.5185 Y45.3448
G01 X18.5574 Y45.3391
G01 X18.5768 Y45.3367
G01 X18.5964 Y45.3352
G01 X18.6455 Y45.3329
G01 X18.7574 Y45.3328
G00 Z2.0000
G00 X20.9139 Y47.6497
G01 F60.00
G01 Z-0.1100
G01 F100.00
G01 X20.9322 Y47.6567
G01 X20.9502 Y47.6647
G01 X21.0123 Y47.6941
G01 X21.0298 Y47.7029
G01 X21.0469 Y47.7126
G01 X21.1058 Y47.7479
G01 X21.1224 Y47.7584
G01 X21.1385 Y47.7697
G01 X21.1936 Y47.8106
G01 X21.2091 Y47.8227
G01 X21.2240 Y47.8355
G01 X21.2821 Y47.8883
G01 X21.3026 Y47.9094
G01 X21.3488 Y47.9603
G01 X21.3677 Y47.9828
G01 X21.4146 Y48.0458
G01 X21.4259 Y48.0619
G01 X21.4364 Y48.0785
G01 X21.4717 Y48.1374
G01 X21.4814 Y48.1545
G01 X21.4902 Y48.1720
G01 X21.5196 Y48.2341
G01 X21.5275 Y48.2520
G01 X21.5346 Y48.2704
G01 X21.5578 Y48.3350
G01 X21.5639 Y48.3537
G01 X21.5692 Y48.3726
G01 X21.5858 Y48.4392
G01 X21.5901 Y48.4584
G01 X21.5935 Y48.4777
G01 X21.6049 Y48.5554
G01 X21.6074 Y48.5848
G01 X21.6108 Y48.6534
G01 X21.6112 Y48.6828
G01 X21.6074 Y48.7612
G01 X21.6060 Y48.7808
G01 X21.6036 Y48.8003
G01 X21.5935 Y48.8683
G01 X21.5901 Y48.8876
G01 X21.5858 Y48.9068
G01 X21.5692 Y48.9734
G01 X21.5639 Y48.9923
G01 X21.5578 Y49.0110
G01 X21.5346 Y49.0756
G01 X21.5275 Y49.0940
G01 X21.5196 Y49.1119
G01 X21.4902 Y49.1740
G01 X21.4814 Y49.1915
G01 X21.4717 Y49.2086
G01 X21.4364 Y49.2675
G01 X21.4259 Y49.2841
G01 X21.4146 Y49.3002
G01 X21.3737 Y49.3554
G01 X21.3616 Y49.3708
G01 X21.3488 Y49.3857
G01 X21.3026 Y49.4366
G01 X21.2891 Y49.4508
G01 X21.2749 Y49.4644
G01 X21.2240 Y49.5105
G01 X21.2091 Y49.5233
G01 X21.1936 Y49.5354
G01 X21.1305 Y49.5821
G01 X21.1058 Y49.5981
G01 X21.0469 Y49.6334
G01 X21.0298 Y49.6431
G01 X21.0123 Y49.6519
G01 X20.9502 Y49.6813
G01 X20.9322 Y49.6893
G01 X20.9139 Y49.6963
G01 X20.8492 Y49.7195
G01 X20.8306 Y49.7256
G01 X20.8117 Y49.7309
G01 X20.7450 Y49.7476
G01 X20.7259 Y49.7519
G01 X20.7065 Y49.7552
G01 X20.6386 Y49.7653
G01 X20.6191 Y49.7677
G01 X20.5995 Y49.7691
G01 X20.5309 Y49.7725
G01 X20.5113 Y49.7730
G01 X19.5113 Y49.7730
G01 X19.4917 Y49.7725
G01 X19.4230 Y49.7691
G01 X19.3937 Y49.7666
G01 X19.3160 Y49.7552
G01 X19.2871 Y49.7498
G01 X19.2014 Y49.7284
G01 X19.1733 Y49.7195
G01 X19.0994 Y49.6929
G01 X19.0724 Y49.6813
G01 X19.0103 Y49.6519
G01 X18.9927 Y49.6431
G01 X18.9757 Y49.6334
G01 X18.9167 Y49.5981
G01 X18.8921 Y49.5821
G01 X18.8211 Y49.5294
G01 X18.7986 Y49.5105
G01 X18.7405 Y49.4577
G01 X18.7199 Y49.4366
G01 X18.6738 Y49.3857
G01 X18.6610 Y49.3708
G01 X18.6489 Y49.3554
G01 X18.6022 Y49.2922
G01 X18.5862 Y49.2675
G01 X18.5508 Y49.2086
G01 X18.5412 Y49.1915
G01 X18.5323 Y49.1740
G01 X18.5030 Y49.1119
G01 X18.4950 Y49.0940
G01 X18.4879 Y49.0756
G01 X18.4648 Y49.0110
G01 X18.4586 Y48.9923
G01 X18.4534 Y48.9734
G01 X18.4367 Y48.9068
G01 X18.4324 Y48.8876
G01 X18.4291 Y48.8683
G01 X18.4190 Y48.8003
G01 X18.4166 Y48.7808
G01 X18.4151 Y48.7612
G01 X18.4118 Y48.6926
G01 X18.4113 Y48.6730
G01 X18.4118 Y48.6534
G01 X18.4151 Y48.5848
G01 X18.4166 Y48.5652
G01 X18.4190 Y48.5457
G01 X18.4291 Y48.4777
G01 X18.4324 Y48.4584
G01 X18.4367 Y48.4392
G01 X18.4534 Y48.3726
G01 X18.4586 Y48.3537
G01 X18.4648 Y48.3350
G01 X18.4879 Y48.2704
G01 X18.4950 Y48.2520
G01 X18.5030 Y48.2341
G01 X18.5323 Y48.1720
G01 X18.5412 Y48.1545
G01 X18.5508 Y48.1374
G01 X18.5862 Y48.0785
G01 X18.5967 Y48.0619
G01 X18.6080 Y48.0458
G01 X18.6489 Y47.9906
G01 X18.6610 Y47.9752
G01 X18.6738 Y47.9603
G01 X18.7199 Y47.9094
G01 X18.7335 Y47.8952
G01 X18.7477 Y47.8816
G01 X18.7986 Y47.8355
G01 X18.8134 Y47.8227
G01 X18.8289 Y47.8106
G01 X18.8921 Y47.7639
G01 X18.9167 Y47.7479
G01 X18.9757 Y47.7126
G01 X19.0015 Y47.6984
G01 X19.0724 Y47.6647
G01 X19.0903 Y47.6567
G01 X19.1086 Y47.6497
G01 X19.1733 Y47.6265
G01 X19.1920 Y47.6204
G01 X19.2109 Y47.6151
G01 X19.2775 Y47.5984
G01 X19.2967 Y47.5941
G01 X19.3160 Y47.5908
G01 X19.3840 Y47.5807
G01 X19.4035 Y47.5783
G01 X19.4230 Y47.5769
G01 X19.4917 Y47.5735
G01 X19.5113 Y47.5730
G01 X20.5113 Y47.5730
G01 X20.5309 Y47.5735
G01 X20.5995 Y47.5769
G01 X20.6191 Y47.5783
G01 X20.6386 Y47.5807
G01 X20.7065 Y47.5908
G01 X20.7259 Y47.5941
G01 X20.7450 Y47.5984
G01 X20.8117 Y47.6151
G01 X20.8306 Y47.6204
G01 X20.8492 Y47.6265
G01 X20.9139 Y47.6497
G00 Z2.0000
G00 X24.4539 Y47.6497
G01 F60.00
G01 Z-0.1100
G01 F100.00
G01 X24.4722 Y47.6567
G01 X24.4902 Y47.6647
G01 X24.5523 Y47.6941
G01 X24.5698 Y47.7029
G01 X24.5869 Y47.7126
G01 X24.6458 Y47.7479
G01 X24.6624 Y47.7584
G01 X24.6785 Y47.7697
G01 X24.7336 Y47.8106
G01 X24.7491 Y47.8227
G01 X24.7640 Y47.8355
G01 X24.8221 Y47.8883
G01 X24.8426 Y47.9094
G01 X24.8888 Y47.9603
G01 X24.9077 Y47.9828
G01 X24.9546 Y48.0458
G01 X24.9659 Y48.0619
G01 X24.9764 Y48.0785
G01 X25.0117 Y48.1374
G01 X25.0214 Y48.1545
G01 X25.0302 Y48.1720
G01 X25.0596 Y48.2341
G01 X25.0675 Y48.2520
G01 X25.0746 Y48.2704
G01 X25.0978 Y48.3350
G01 X25.1039 Y48.3537
G01 X25.1092 Y48.3726
G01 X25.1258 Y48.4392
G01 X25.1301 Y48.4584
G01 X25.1335 Y48.4777
G01 X25.1449 Y48.5554
G01 X25.1474 Y48.5848
G01 X25.1508 Y48.6534
G01 X25.1512 Y48.6828
G01 X25.1474 Y48.7612
G01 X25.1460 Y48.7808
G01 X25.1436 Y48.8003
G01 X25.1335 Y48.8683
G01 X25.1301 Y48.8876
G01 X25.1258 Y48.9068
G01 X25.1092 Y48.9734
G01 X25.1039 Y48.9923
G01 X25.0978 Y49.0110
G01 X25.0746 Y49.0756
G01 X25.0675 Y49.0940
G01 X25.0596 Y49.1119
G01 X25.0302 Y49.1740
G01 X25.0214 Y49.1915
G01 X25.0117 Y49.2086
G01 X24.9764 Y49.2675
G01 X24.9659 Y49.2841
G01 X24.9546 Y49.3002
G01 X24.9137 Y49.3554
G01 X24.9016 Y49.3708
G01 X24.8888 Y49.3857
G01 X24.8426 Y49.4366
G01 X24.8291 Y49.4508
G01 X24.8149 Y49.4644
G01 X24.7640 Y49.5105
G01 X24.7491 Y49.5233
G01 X24.7336 Y49.5354
G01 X24.6705 Y49.5821
G01 X24.6458 Y49.5981
G01 X24.5869 Y49.6334
G01 X24.5698 Y49.6431
G01 X24.5523 Y49.6519
G01 X24.4902 Y49.6813
G01 X24.4722 Y49.6893
G01 X24.4539 Y49.6963
G01 X24.3892 Y49.7195
G01 X24.3706 Y49.7256
G01 X24.3517 Y49.7309
G01 X24.2850 Y49.7476
G01 X24.2659 Y49.7519
G01 X24.2465 Y49.7552
G01 X24.1786 Y49.7653
G01 X24.1591 Y49.7677
G01 X24.1395 Y49.7691
G01 X24.0709 Y49.7725
G01 X24.0513 Y49.7730
G01 X23.0513 Y49.7730
G01 X23.0317 Y49.7725
G01 X22.9630 Y49.7691
G01 X22.9337 Y49.7666
G01 X22.8560 Y49.7552
G01 X22.8271 Y49.7498
G01 X22.7414 Y49.7284
G01 X22.7133 Y49.7195
G01 X22.6394 Y49.6929
G01 X22.6124 Y49.6813
G01 X22.5503 Y49.6519
G01 X22.5327 Y49.6431
G01 X22.5157 Y49.6334
G01 X22.4567 Y49.5981
G01 X22.4321 Y49.5821
G01 X22.3611 Y49.5294
G01 X22.3386 Y49.5105
G01 X22.2805 Y49.4577
G01 X22.2599 Y49.4366
G01 X22.2138 Y49.3857
G01 X22.2010 Y49.3708
G01 X22.1889 Y49.3554
G01 X22.1422 Y49.2922
G01 X22.1262 Y49.2675
G01 X22.0908 Y49.2086
G01 X22.0812 Y49.1915
G01 X22.0723 Y49.1740
G01 X22.0430 Y49.1119
G01 X22.0350 Y49.0940
G01 X22.0279 Y49.0756
G01 X22.0048 Y49.0110
G01 X21.9986 Y48.9923
G01 X21.9934 Y48.9734
G01 X21.9767 Y48.9068
G01 X21.9724 Y48.8876
G01 X21.9691 Y48.8683
G01 X21.9590 Y48.8003
G01 X21.9566 Y48.7808
G01 X21.9551 Y48.7612
G01 X21.9518 Y48.6926
G01 X21.9513 Y48.6730
G01 X21.9518 Y48.6534
G01 X21.9551 Y48.5848
G01 X21.9566 Y48.5652
G01 X21.9590 Y48.5457
G01 X21.9691 Y48.4777
G01 X21.9724 Y48.4584
G01 X21.9767 Y48.4392
G01 X21.9934 Y48.3726
G01 X21.9986 Y48.3537
G01 X22.0048 Y48.3350
G01 X22.0279 Y48.2704
G01 X22.0350 Y48.2520
G01 X22.0430 Y48.2341
G01 X22.0723 Y48.1720
G01 X22.0812 Y48.1545
G01 X22.0908 Y48.1374
G01 X22.1262 Y48.0785
G01 X22.1367 Y48.0619
G01 X22.1480 Y48.0458
G01 X22.1889 Y47.9906
G01 X22.2010 Y47.9752
G01 X22.2138 Y47.9603
G01 X22.2599 Y47.9094
G01 X22.2735 Y47.8952
G01 X22.2877 Y47.8816
G01 X22.3386 Y47.8355
G01 X22.3534 Y47.8227
G01 X22.3689 Y47.8106
G01 X22.4321 Y47.7639
G01 X22.4567 Y47.7479
G01 X22.5157 Y47.7126
G01 X22.5415 Y47.6984
G01 X22.6124 Y47.6647
G01 X22.6303 Y47.6567
G01 X22.6486 Y47.6497
G01 X22.7133 Y47.6265
G01 X22.7320 Y47.6204
G01 X22.7509 Y47.6151
G01 X22.8175 Y47.5984
G01 X22.8367 Y47.5941
G01 X22.8560 Y47.5908
G01 X22.9240 Y47.5807
G01 X22.9435 Y47.5783
G01 X22.9630 Y47.5769
G01 X23.0317 Y47.5735
G01 X23.0513 Y47.5730
G01 X24.0513 Y47.5730
G01 X24.0709 Y47.5735
G01 X24.1395 Y47.5769
G01 X24.1591 Y47.5783
G01 X24.1786 Y47.5807
G01 X24.2465 Y47.5908
G01 X24.2659 Y47.5941
G01 X24.2850 Y47.5984
G01 X24.3517 Y47.6151
G01 X24.3706 Y47.6204
G01 X24.3892 Y47.6265
G01 X24.4539 Y47.6497
G00 Z2.0000
G00 X24.4539 Y45.1097
G01 F60.00
G01 Z-0.1100
G01 F100.00
G01 X24.4722 Y45.1167
G01 X24.4902 Y45.1247
G01 X24.5523 Y45.1541
G01 X24.5698 Y45.1629
G01 X24.5869 Y45.1726
G01 X24.6458 Y45.2079
G01 X24.6624 Y45.2184
G01 X24.6785 Y45.2297
G01 X24.7336 Y45.2706
G01 X24.7491 Y45.2827
G01 X24.7640 Y45.2955
G01 X24.8221 Y45.3483
G01 X24.8426 Y45.3694
G01 X24.8888 Y45.4203
G01 X24.9077 Y45.4428
G01 X24.9546 Y45.5058
G01 X24.9659 Y45.5219
G01 X24.9764 Y45.5385
G01 X25.0117 Y45.5974
G01 X25.0214 Y45.6145
G01 X25.0302 Y45.6320
G01 X25.0596 Y45.6941
G01 X25.0675 Y45.7120
G01 X25.0746 Y45.7304
G01 X25.0978 Y45.7950
G01 X25.1039 Y45.8137
G01 X25.1092 Y45.8326
G01 X25.1258 Y45.8992
G01 X25.1301 Y45.9184
G01 X25.1335 Y45.9377
G01 X25.1449 Y46.0154
G01 X25.1474 Y46.0448
G01 X25.1508 Y46.1134
G01 X25.1512 Y46.1428
G01 X25.1474 Y46.2212
G01 X25.1460 Y46.2408
G01 X25.1436 Y46.2603
G01 X25.1335 Y46.3283
G01 X25.1301 Y46.3476
G01 X25.1258 Y46.3668
G01 X25.1092 Y46.4334
G01 X25.1039 Y46.4523
G01 X25.0978 Y46.4710
G01 X25.0746 Y46.5356
G01 X25.0675 Y46.5540
G01 X25.0596 Y46.5719
G01 X25.0302 Y46.6340
G01 X25.0214 Y46.6515
G01 X25.0117 Y46.6686
G01 X24.9764 Y46.7275
G01 X24.9659 Y46.7441
G01 X24.9546 Y46.7602
G01 X24.9137 Y46.8154
G01 X24.9016 Y46.8308
G01 X24.8888 Y46.8457
G01 X24.8426 Y46.8966
G01 X24.8291 Y46.9108
G01 X24.8149 Y46.9244
G01 X24.7640 Y46.9705
G01 X24.7491 Y46.9833
G01 X24.7336 Y46.9954
G01 X24.6705 Y47.0421
G01 X24.6458 Y47.0581
G01 X24.5869 Y47.0934
G01 X24.5698 Y47.1031
G01 X24.5523 Y47.1119
G01 X24.4902 Y47.1413
G01 X24.4722 Y47.1493
G01 X24.4539 Y47.1563
G01 X24.3892 Y47.1795
G01 X24.3706 Y47.1856
G01 X24.3517 Y47.1909
G01 X24.2850 Y47.2076
G01 X24.2659 Y47.2119
G01 X24.2465 Y47.2152
G01 X24.1786 Y47.2253
G01 X24.1591 Y47.2277
G01 X24.1395 Y47.2291
G01 X24.0709 Y47.2325
G01 X24.0513 Y47.2330
G01 X23.0513 Y47.2330
G01 X23.0317 Y47.2325
G01 X22.9630 Y47.2291
G01 X22.9337 Y47.2266
G01 X22.8560 Y47.2152
G01 X22.8271 Y47.2098
G01 X22.7414 Y47.1884
G01 X22.7133 Y47.1795
G01 X22.6394 Y47.1529
G01 X22.6124 Y47.1413
G01 X22.5503 Y47.1119
G01 X22.5327 Y47.1031
G01 X22.5157 Y47.0934
G01 X22.4567 Y47.0581
G01 X22.4321 Y47.0421
G01 X22.3611 Y46.9894
G01 X22.3386 Y46.9705
G01 X22.2805 Y46.9177
G01 X22.2599 Y46.8966
G01 X22.2138 Y46.8457
G01 X22.2010 Y46.8308
G01 X22.1889 Y46.8154
G01 X22.1422 Y46.7522
G01 X22.1262 Y46.7275
G01 X22.0908 Y46.6686
G01 X22.0812 Y46.6515
G01 X22.0723 Y46.6340
G01 X22.0430 Y46.5719
G01 X22.0350 Y46.5540
G01 X22.0279 Y46.5356
G01 X22.0048 Y46.4710
G01 X21.9986 Y46.4523
G01 X21.9934 Y46.4334
G01 X21.9767 Y46.3668
G01 X21.9724 Y46.3476
G01 X21.9691 Y46.3283
G01 X21.9590 Y46.2603
G01 X21.9566 Y46.2408
G01 X21.9551 Y46.2212
G01 X21.9518 Y46.1526
G01 X21.9513 Y46.1330
G01 X21.9518 Y46.1134
G01 X21.9551 Y46.0448
G01 X21.9566 Y46.0252
G01 X21.9590 Y46.0057
G01 X21.9691 Y45.9377
G01 X21.9724 Y45.9184
G01 X21.9767 Y45.8992
G01 X21.9934 Y45.8326
G01 X21.9986 Y45.8137
G01 X22.0048 Y45.7950
G01 X22.0279 Y45.7304
G01 X22.0350 Y45.7120
G01 X22.0430 Y45.6941
G01 X22.0723 Y45.6320
G01 X22.0812 Y45.6145
G01 X22.0908 Y45.5974
G01 X22.1262 Y45.5385
G01 X22.1367 Y45.5219
G01 X22.1480 Y45.5058
G01 X22.1889 Y45.4506
G01 X22.2010 Y45.4352
G01 X22.2138 Y45.4203
G01 X22.2599 Y45.3694
G01 X22.2735 Y45.3552
G01 X22.2877 Y45.3416
G01 X22.3386 Y45.2955
G01 X22.3534 Y45.2827
G01 X22.3689 Y45.2706
G01 X22.4321 Y45.2239
G01 X22.4567 Y45.2079
G01 X22.5157 Y45.1726
G01 X22.5415 Y45.1584
G01 X22.6124 Y45.1247
G01 X22.6303 Y45.1167
G01 X22.6486 Y45.1097
G01 X22.7133 Y45.0865
G01 X22.7320 Y45.0804
G01 X22.7509 Y45.0751
G01 X22.8175 Y45.0584
G01 X22.8367 Y45.0541
G01 X22.8560 Y45.0508
G01 X22.9240 Y45.0407
G01 X22.9435 Y45.0383
G01 X22.9630 Y45.0369
G01 X23.0317 Y45.0335
G01 X23.0513 Y45.0330
G01 X24.0513 Y45.0330
G01 X24.0709 Y45.0335
G01 X24.1395 Y45.0369
G01 X24.1591 Y45.0383
G01 X24.1786 Y45.0407
G01 X24.2465 Y45.0508
G01 X24.2659 Y45.0541
G01 X24.2850 Y45.0584
G01 X24.3517 Y45.0751
G01 X24.3706 Y45.0804
G01 X24.3892 Y45.0865
G01 X24.4539 Y45.1097
G00 Z2.0000
G00 X24.8051 Y40.2528
G01 F60.00
G01 Z-0.1100
G01 F100.00
G01 X25.3040 Y40.2529
G01 X25.3530 Y40.2552
G01 X25.3726 Y40.2567
G01 X25.3921 Y40.2591
G01 X25.4309 Y40.2648
G01 X25.4503 Y40.2682
G01 X25.4694 Y40.2725
G01 X25.5170 Y40.2845
G01 X25.5451 Y40.2934
G01 X25.5821 Y40.3066
G01 X25.6004 Y40.3137
G01 X25.6183 Y40.3217
G01 X25.6627 Y40.3428
G01 X25.6884 Y40.3570
G01 X25.7221 Y40.3772
G01 X25.7387 Y40.3877
G01 X25.7548 Y40.3990
G01 X25.7941 Y40.4283
G01 X25.8167 Y40.4473
G01 X25.8458 Y40.4736
G01 X25.8600 Y40.4872
G01 X31.1461 Y45.7733
G01 X31.1596 Y45.7875
G01 X31.1860 Y45.8166
G01 X31.2050 Y45.8391
G01 X31.2401 Y45.8865
G01 X31.2561 Y45.9111
G01 X31.2763 Y45.9448
G01 X31.2860 Y45.9619
G01 X31.2948 Y45.9795
G01 X31.3116 Y46.0150
G01 X31.3232 Y46.0420
G01 X31.3399 Y46.0882
G01 X31.3460 Y46.1068
G01 X31.3513 Y46.1258
G01 X31.3608 Y46.1639
G01 X31.3651 Y46.1830
G01 X31.3685 Y46.2024
G01 X31.3742 Y46.2412
G01 X31.3775 Y46.2705
G01 X31.3800 Y46.3195
G01 X31.3805 Y46.3391
G01 X31.3805 Y58.1558
G01 X31.4499 Y58.2186
G01 X31.4642 Y58.2321
G01 X31.4777 Y58.2463
G01 X31.5337 Y58.3081
G01 X31.5465 Y58.3230
G01 X31.5586 Y58.3385
G01 X31.6141 Y58.4134
G01 X31.6301 Y58.4381
G01 X31.6730 Y58.5097
G01 X31.6827 Y58.5268
G01 X31.6915 Y58.5443
G01 X31.7272 Y58.6197
G01 X31.7351 Y58.6376
G01 X31.7422 Y58.6560
G01 X31.7703 Y58.7345
G01 X31.7765 Y58.7531
G01 X31.7817 Y58.7721
G01 X31.8042 Y58.8625
G01 X31.8096 Y58.8915
G01 X31.8219 Y58.9740
G01 X31.8243 Y58.9935
G01 X31.8257 Y59.0131
G01 X31.8302 Y59.1062
G01 X31.8302 Y60.1258
G01 X31.8257 Y60.2189
G01 X31.8243 Y60.2385
G01 X31.8219 Y60.2580
G01 X31.8081 Y60.3502
G01 X31.8020 Y60.3790
G01 X31.7817 Y60.4599
G01 X31.7765 Y60.4789
G01 X31.7703 Y60.4975
G01 X31.7422 Y60.5760
G01 X31.7351 Y60.5944
G01 X31.7272 Y60.6123
G01 X31.6915 Y60.6877
G01 X31.6827 Y60.7052
G01 X31.6730 Y60.7223
G01 X31.6301 Y60.7939
G01 X31.6196 Y60.8105
G01 X31.6083 Y60.8265
G01 X31.5586 Y60.8935
G01 X31.5402 Y60.9165
G01 X31.4777 Y60.9857
G01 X31.4642 Y60.9999
G01 X31.4499 Y61.0134
G01 X31.3881 Y61.0694
G01 X31.3733 Y61.0823
G01 X31.3578 Y61.0943
G01 X31.2908 Y61.1440
G01 X31.2747 Y61.1553
G01 X31.2582 Y61.1658
G01 X31.1866 Y61.2087
G01 X31.1695 Y61.2184
G01 X31.1520 Y61.2272
G01 X31.0766 Y61.2629
G01 X31.0586 Y61.2708
G01 X31.0403 Y61.2779
G01 X30.9618 Y61.3060
G01 X30.9431 Y61.3122
G01 X30.9242 Y61.3174
G01 X30.8433 Y61.3377
G01 X30.8241 Y61.3420
G01 X30.8048 Y61.3453
G01 X30.7223 Y61.3576
G01 X30.7028 Y61.3600
G01 X30.6832 Y61.3614
G01 X30.5999 Y61.3655
G01 X30.5803 Y61.3660
G01 X30.5607 Y61.3655
G01 X30.4773 Y61.3614
G01 X30.4578 Y61.3600
G01 X30.4383 Y61.3576
G01 X30.3461 Y61.3438
G01 X30.3173 Y61.3377
G01 X30.2363 Y61.3174
G01 X30.2174 Y61.3122
G01 X30.1988 Y61.3060
G01 X30.1202 Y61.2779
G01 X30.1019 Y61.2708
G01 X30.0840 Y61.2629
G01 X30.0086 Y61.2272
G01 X29.9910 Y61.2184
G01 X29.9740 Y61.2087
G01 X29.9024 Y61.1658
G01 X29.8858 Y61.1553
G01 X29.8698 Y61.1440
G01 X29.8028 Y61.0943
G01 X29.7873 Y61.0823
G01 X29.7724 Y61.0694
G01 X29.7106 Y61.0134
G01 X29.6964 Y60.9999
G01 X29.6829 Y60.9857
G01 X29.6268 Y60.9239
G01 X29.6140 Y60.9090
G01 X29.6019 Y60.8935
G01 X29.5522 Y60.8265
G01 X29.5356 Y60.8022
G01 X29.4876 Y60.7223
G01 X29.4779 Y60.7052
G01 X29.4691 Y60.6877
G01 X29.4334 Y60.6123
G01 X29.4254 Y60.5944
G01 X29.4184 Y60.5760
G01 X29.3903 Y60.4975
G01 X29.3841 Y60.4789
G01 X29.3789 Y60.4599
G01 X29.3586 Y60.3790
G01 X29.3543 Y60.3599
G01 X29.3509 Y60.3405
G01 X29.3387 Y60.2580
G01 X29.3355 Y60.2287
G01 X29.3308 Y60.1356
G01 X29.3303 Y60.1160
G01 X29.3304 Y59.1062
G01 X29.3349 Y59.0131
G01 X29.3363 Y58.9935
G01 X29.3387 Y58.9740
G01 X29.3509 Y58.8915
G01 X29.3563 Y58.8625
G01 X29.3789 Y58.7721
G01 X29.3841 Y58.7531
G01 X29.3903 Y58.7345
G01 X29.4218 Y58.6468
G01 X29.4334 Y58.6197
G01 X29.4691 Y58.5443
G01 X29.4779 Y58.5268
G01 X29.4876 Y58.5097
G01 X29.5304 Y58.4381
G01 X29.5409 Y58.4215
G01 X29.5522 Y58.4055
G01 X29.6019 Y58.3385
G01 X29.6140 Y58.3230
G01 X29.6268 Y58.3081
G01 X29.6829 Y58.2463
G01 X29.6964 Y58.2321
G01 X29.7106 Y58.2186
G01 X29.7796 Y58.1562
G01 X29.7801 Y46.6706
G01 X24.9627 Y41.8532
G01 X24.8051 Y41.8532
G01 X24.7640 Y41.8905
G01 X24.7491 Y41.9033
G01 X24.7336 Y41.9154
G01 X24.6785 Y41.9563
G01 X24.6624 Y41.9676
G01 X24.6458 Y41.9781
G01 X24.5869 Y42.0134
G01 X24.5698 Y42.0231
G01 X24.5523 Y42.0319
G01 X24.4902 Y42.0613
G01 X24.4722 Y42.0693
G01 X24.4539 Y42.0763
G01 X24.3892 Y42.0995
G01 X24.3612 Y42.1084
G01 X24.2850 Y42.1276
G01 X24.2659 Y42.1319
G01 X24.2465 Y42.1352
G01 X24.1689 Y42.1466
G01 X24.1395 Y42.1491
G01 X24.0709 Y42.1525
G01 X24.0513 Y42.1530
G01 X23.0513 Y42.1530
G01 X23.0317 Y42.1525
G01 X22.9630 Y42.1491
G01 X22.9435 Y42.1477
G01 X22.9240 Y42.1453
G01 X22.8463 Y42.1337
G01 X22.8175 Y42.1276
G01 X22.7509 Y42.1109
G01 X22.7226 Y42.1027
G01 X22.6486 Y42.0763
G01 X22.6303 Y42.0693
G01 X22.6124 Y42.0613
G01 X22.5503 Y42.0319
G01 X22.5327 Y42.0231
G01 X22.5157 Y42.0134
G01 X22.4567 Y41.9781
G01 X22.4402 Y41.9676
G01 X22.4241 Y41.9563
G01 X22.3689 Y41.9154
G01 X22.3534 Y41.9033
G01 X22.3386 Y41.8905
G01 X22.2877 Y41.8444
G01 X22.2735 Y41.8308
G01 X22.2599 Y41.8166
G01 X22.2138 Y41.7657
G01 X22.2010 Y41.7508
G01 X22.1889 Y41.7354
G01 X22.1480 Y41.6802
G01 X22.1367 Y41.6641
G01 X22.1262 Y41.6475
G01 X22.0908 Y41.5886
G01 X22.0812 Y41.5715
G01 X22.0723 Y41.5540
G01 X22.0430 Y41.4919
G01 X22.0350 Y41.4740
G01 X22.0279 Y41.4556
G01 X22.0048 Y41.3910
G01 X21.9986 Y41.3723
G01 X21.9934 Y41.3534
G01 X21.9767 Y41.2868
G01 X21.9724 Y41.2676
G01 X21.9691 Y41.2483
G01 X21.9590 Y41.1803
G01 X21.9566 Y41.1608
G01 X21.9551 Y41.1412
G01 X21.9518 Y41.0726
G01 X21.9513 Y41.0530
G01 X21.9518 Y41.0334
G01 X21.9551 Y40.9648
G01 X21.9566 Y40.9452
G01 X21.9590 Y40.9257
G01 X21.9691 Y40.8577
G01 X21.9724 Y40.8384
G01 X21.9767 Y40.8192
G01 X21.9934 Y40.7526
G01 X21.9986 Y40.7337
G01 X22.0048 Y40.7150
G01 X22.0279 Y40.6504
G01 X22.0350 Y40.6320
G01 X22.0430 Y40.6141
G01 X22.0723 Y40.5520
G01 X22.0859 Y40.5259
G01 X22.1313 Y40.4501
G01 X22.1480 Y40.4258
G01 X22.1889 Y40.3706
G01 X22.2073 Y40.3477
G01 X22.2599 Y40.2894
G01 X22.2735 Y40.2752
G01 X22.2877 Y40.2616
G01 X22.3386 Y40.2155
G01 X22.3611 Y40.1966
G01 X22.4241 Y40.1497
G01 X22.4484 Y40.1330
G01 X22.5157 Y40.0926
G01 X22.5327 Y40.0829
G01 X22.5503 Y40.0741
G01 X22.6124 Y40.0447
G01 X22.6394 Y40.0331
G01 X22.7133 Y40.0065
G01 X22.7320 Y40.0004
G01 X22.7509 Y39.9951
G01 X22.8271 Y39.9762
G01 X22.8560 Y39.9708
G01 X22.9240 Y39.9607
G01 X22.9435 Y39.9583
G01 X22.9630 Y39.9569
G01 X23.0317 Y39.9535
G01 X23.0513 Y39.9530
G01 X24.0513 Y39.9530
G01 X24.0709 Y39.9535
G01 X24.1395 Y39.9569
G01 X24.1591 Y39.9583
G01 X24.1786 Y39.9607
G01 X24.2465 Y39.9708
G01 X24.2659 Y39.9741
G01 X24.2850 Y39.9784
G01 X24.3517 Y39.9951
G01 X24.3706 Y40.0004
G01 X24.3892 Y40.0065
G01 X24.4539 Y40.0297
G01 X24.4813 Y40.0406
G01 X24.5523 Y40.0741
G01 X24.5698 Y40.0829
G01 X24.5869 Y40.0926
G01 X24.6458 Y40.1279
G01 X24.6624 Y40.1384
G01 X24.6785 Y40.1497
G01 X24.7336 Y40.1906
G01 X24.7491 Y40.2027
G01 X24.7640 Y40.2155
G01 X24.8051 Y40.2528
G00 Z2.0000
G00 X24.8051 Y37.7128
G01 F60.00
G01 Z-0.1100
G01 F100.00
G01 X25.2431 Y37.7129
G01 X25.2921 Y37.7152
G01 X25.3117 Y37.7167
G01 X25.3312 Y37.7191
G01 X25.3700 Y37.7248
G01 X25.3990 Y37.7302
G01 X25.4466 Y37.7420
G01 X25.4656 Y37.7473
G01 X25.4842 Y37.7534
G01 X25.5212 Y37.7666
G01 X25.5485 Y37.7776
G01 X25.5930 Y37.7985
G01 X25.6105 Y37.8073
G01 X25.6276 Y37.8170
G01 X25.6696 Y37.8423
G01 X25.6939 Y37.8590
G01 X25.7254 Y37.8824
G01 X25.7409 Y37.8944
G01 X25.7558 Y37.9073
G01 X25.7849 Y37.9336
G01 X25.7991 Y37.9472
G01 X33.6861 Y45.8342
G01 X33.6996 Y45.8484
G01 X33.7260 Y45.8775
G01 X33.7388 Y45.8924
G01 X33.7509 Y45.9078
G01 X33.7743 Y45.9394
G01 X33.7856 Y45.9554
G01 X33.7961 Y45.9720
G01 X33.8163 Y46.0057
G01 X33.8260 Y46.0228
G01 X33.8348 Y46.0403
G01 X33.8516 Y46.0758
G01 X33.8632 Y46.1029
G01 X33.8799 Y46.1491
G01 X33.8860 Y46.1677
G01 X33.8913 Y46.1866
G01 X33.9008 Y46.2247
G01 X33.9051 Y46.2439
G01 X33.9085 Y46.2632
G01 X33.9142 Y46.3021
G01 X33.9166 Y46.3216
G01 X33.9181 Y46.3411
G01 X33.9200 Y46.3804
G01 X33.9205 Y46.4000
G01 X33.9205 Y58.1558
G01 X33.9899 Y58.2186
G01 X34.0042 Y58.2321
G01 X34.0177 Y58.2463
G01 X34.0737 Y58.3081
G01 X34.0927 Y58.3307
G01 X34.1483 Y58.4055
G01 X34.1596 Y58.4215
G01 X34.1701 Y58.4381
G01 X34.2130 Y58.5097
G01 X34.2227 Y58.5268
G01 X34.2315 Y58.5443
G01 X34.2672 Y58.6197
G01 X34.2751 Y58.6376
G01 X34.2822 Y58.6560
G01 X34.3103 Y58.7345
G01 X34.3165 Y58.7531
G01 X34.3217 Y58.7721
G01 X34.3442 Y58.8625
G01 X34.3496 Y58.8915
G01 X34.3619 Y58.9740
G01 X34.3643 Y58.9935
G01 X34.3657 Y59.0131
G01 X34.3702 Y59.1062
G01 X34.3702 Y60.1258
G01 X34.3657 Y60.2189
G01 X34.3643 Y60.2385
G01 X34.3619 Y60.2580
G01 X34.3496 Y60.3405
G01 X34.3463 Y60.3599
G01 X34.3420 Y60.3790
G01 X34.3217 Y60.4599
G01 X34.3165 Y60.4789
G01 X34.3103 Y60.4975
G01 X34.2822 Y60.5760
G01 X34.2751 Y60.5944
G01 X34.2672 Y60.6123
G01 X34.2315 Y60.6877
G01 X34.2227 Y60.7052
G01 X34.2130 Y60.7223
G01 X34.1701 Y60.7939
G01 X34.1596 Y60.8105
G01 X34.1483 Y60.8265
G01 X34.0986 Y60.8935
G01 X34.0865 Y60.9090
G01 X34.0737 Y60.9239
G01 X34.0177 Y60.9857
G01 X34.0042 Y60.9999
G01 X33.9899 Y61.0134
G01 X33.9281 Y61.0694
G01 X33.9133 Y61.0823
G01 X33.8978 Y61.0943
G01 X33.8308 Y61.1440
G01 X33.8147 Y61.1553
G01 X33.7982 Y61.1658
G01 X33.7266 Y61.2087
G01 X33.7095 Y61.2184
G01 X33.6920 Y61.2272
G01 X33.6166 Y61.2629
G01 X33.5895 Y61.2745
G01 X33.4925 Y61.3092
G01 X33.4642 Y61.3174
G01 X33.3833 Y61.3377
G01 X33.3641 Y61.3420
G01 X33.3448 Y61.3453
G01 X33.2623 Y61.3576
G01 X33.2428 Y61.3600
G01 X33.2232 Y61.3614
G01 X33.1399 Y61.3655
G01 X33.1203 Y61.3660
G01 X33.1007 Y61.3655
G01 X33.0173 Y61.3614
G01 X32.9978 Y61.3600
G01 X32.9783 Y61.3576
G01 X32.8958 Y61.3453
G01 X32.8764 Y61.3420
G01 X32.8573 Y61.3377
G01 X32.7763 Y61.3174
G01 X32.7574 Y61.3122
G01 X32.7388 Y61.3060
G01 X32.6510 Y61.2745
G01 X32.6240 Y61.2629
G01 X32.5486 Y61.2272
G01 X32.5310 Y61.2184
G01 X32.5140 Y61.2087
G01 X32.4424 Y61.1658
G01 X32.4258 Y61.1553
G01 X32.4098 Y61.1440
G01 X32.3428 Y61.0943
G01 X32.3273 Y61.0823
G01 X32.3124 Y61.0694
G01 X32.2506 Y61.0134
G01 X32.2364 Y60.9999
G01 X32.2229 Y60.9857
G01 X32.1668 Y60.9239
G01 X32.1540 Y60.9090
G01 X32.1419 Y60.8935
G01 X32.0922 Y60.8265
G01 X32.0809 Y60.8105
G01 X32.0704 Y60.7939
G01 X32.0226 Y60.7138
G01 X32.0091 Y60.6877
G01 X31.9734 Y60.6123
G01 X31.9654 Y60.5944
G01 X31.9584 Y60.5760
G01 X31.9303 Y60.4975
G01 X31.9241 Y60.4789
G01 X31.9189 Y60.4599
G01 X31.8986 Y60.3790
G01 X31.8943 Y60.3599
G01 X31.8909 Y60.3405
G01 X31.8787 Y60.2580
G01 X31.8763 Y60.2385
G01 X31.8749 Y60.2189
G01 X31.8708 Y60.1356
G01 X31.8703 Y60.1160
G01 X31.8704 Y59.1062
G01 X31.8749 Y59.0131
G01 X31.8763 Y58.9935
G01 X31.8787 Y58.9740
G01 X31.8909 Y58.8915
G01 X31.8963 Y58.8625
G01 X31.9189 Y58.7721
G01 X31.9241 Y58.7531
G01 X31.9303 Y58.7345
G01 X31.9618 Y58.6468
G01 X31.9734 Y58.6197
G01 X32.0091 Y58.5443
G01 X32.0179 Y58.5268
G01 X32.0276 Y58.5097
G01 X32.0704 Y58.4381
G01 X32.0809 Y58.4215
G01 X32.0922 Y58.4055
G01 X32.1419 Y58.3385
G01 X32.1540 Y58.3230
G01 X32.1668 Y58.3081
G01 X32.2229 Y58.2463
G01 X32.2364 Y58.2321
G01 X32.2506 Y58.2186
G01 X32.3196 Y58.1562
G01 X32.3201 Y46.7314
G01 X24.9018 Y39.3132
G01 X24.8051 Y39.3132
G01 X24.7640 Y39.3505
G01 X24.7491 Y39.3633
G01 X24.7336 Y39.3754
G01 X24.6705 Y39.4221
G01 X24.6458 Y39.4381
G01 X24.5869 Y39.4734
G01 X24.5611 Y39.4876
G01 X24.4902 Y39.5213
G01 X24.4722 Y39.5293
G01 X24.4539 Y39.5363
G01 X24.3800 Y39.5627
G01 X24.3517 Y39.5709
G01 X24.2850 Y39.5876
G01 X24.2659 Y39.5919
G01 X24.2465 Y39.5952
G01 X24.1786 Y39.6053
G01 X24.1591 Y39.6077
G01 X24.1395 Y39.6091
G01 X24.0709 Y39.6125
G01 X24.0513 Y39.6130
G01 X23.0513 Y39.6130
G01 X23.0317 Y39.6125
G01 X22.9630 Y39.6091
G01 X22.9337 Y39.6066
G01 X22.8560 Y39.5952
G01 X22.8367 Y39.5919
G01 X22.8175 Y39.5876
G01 X22.7509 Y39.5709
G01 X22.7320 Y39.5656
G01 X22.7133 Y39.5595
G01 X22.6486 Y39.5363
G01 X22.6303 Y39.5293
G01 X22.6124 Y39.5213
G01 X22.5503 Y39.4919
G01 X22.5327 Y39.4831
G01 X22.5157 Y39.4734
G01 X22.4567 Y39.4381
G01 X22.4402 Y39.4276
G01 X22.4241 Y39.4163
G01 X22.3689 Y39.3754
G01 X22.3534 Y39.3633
G01 X22.3386 Y39.3505
G01 X22.2877 Y39.3044
G01 X22.2735 Y39.2908
G01 X22.2599 Y39.2766
G01 X22.2138 Y39.2257
G01 X22.1948 Y39.2032
G01 X22.1422 Y39.1322
G01 X22.1262 Y39.1075
G01 X22.0908 Y39.0486
G01 X22.0812 Y39.0315
G01 X22.0723 Y39.0140
G01 X22.0389 Y38.9430
G01 X22.0279 Y38.9156
G01 X22.0048 Y38.8510
G01 X21.9986 Y38.8323
G01 X21.9934 Y38.8134
G01 X21.9767 Y38.7468
G01 X21.9724 Y38.7276
G01 X21.9691 Y38.7083
G01 X21.9590 Y38.6403
G01 X21.9566 Y38.6208
G01 X21.9551 Y38.6012
G01 X21.9518 Y38.5326
G01 X21.9513 Y38.5130
G01 X21.9518 Y38.4934
G01 X21.9551 Y38.4248
G01 X21.9566 Y38.4052
G01 X21.9590 Y38.3857
G01 X21.9691 Y38.3177
G01 X21.9724 Y38.2984
G01 X21.9767 Y38.2792
G01 X21.9934 Y38.2126
G01 X21.9986 Y38.1937
G01 X22.0048 Y38.1750
G01 X22.0279 Y38.1104
G01 X22.0350 Y38.0920
G01 X22.0430 Y38.0741
G01 X22.0723 Y38.0120
G01 X22.0812 Y37.9945
G01 X22.0908 Y37.9774
G01 X22.1262 Y37.9185
G01 X22.1367 Y37.9019
G01 X22.1480 Y37.8858
G01 X22.1889 Y37.8306
G01 X22.2010 Y37.8152
G01 X22.2138 Y37.8003
G01 X22.2599 Y37.7494
G01 X22.2735 Y37.7352
G01 X22.2877 Y37.7216
G01 X22.3386 Y37.6755
G01 X22.3534 Y37.6627
G01 X22.3689 Y37.6506
G01 X22.4241 Y37.6097
G01 X22.4402 Y37.5984
G01 X22.4567 Y37.5879
G01 X22.5157 Y37.5526
G01 X22.5327 Y37.5429
G01 X22.5503 Y37.5341
G01 X22.6213 Y37.5006
G01 X22.6486 Y37.4897
G01 X22.7226 Y37.4633
G01 X22.7509 Y37.4551
G01 X22.8175 Y37.4384
G01 X22.8367 Y37.4341
G01 X22.8560 Y37.4308
G01 X22.9337 Y37.4194
G01 X22.9630 Y37.4169
G01 X23.0317 Y37.4135
G01 X23.0513 Y37.4130
G01 X24.0513 Y37.4130
G01 X24.0709 Y37.4135
G01 X24.1395 Y37.4169
G01 X24.1591 Y37.4183
G01 X24.1786 Y37.4207
G01 X24.2465 Y37.4308
G01 X24.2659 Y37.4341
G01 X24.2850 Y37.4384
G01 X24.3517 Y37.4551
G01 X24.3706 Y37.4604
G01 X24.3892 Y37.4665
G01 X24.4539 Y37.4897
G01 X24.4813 Y37.5006
G01 X24.5523 Y37.5341
G01 X24.5698 Y37.5429
G01 X24.5869 Y37.5526
G01 X24.6458 Y37.5879
G01 X24.6624 Y37.5984
G01 X24.6785 Y37.6097
G01 X24.7336 Y37.6506
G01 X24.7491 Y37.6627
G01 X24.7640 Y37.6755
G01 X24.8051 Y37.7128
G00 Z2.0000
G00 X24.7842 Y36.7921
G01 F60.00
G01 Z-0.1100
G01 F100.00
G01 X24.7566 Y36.8170
G01 X24.7414 Y36.8294
G01 X24.6785 Y36.8763
G01 X24.6542 Y36.8930
G01 X24.5869 Y36.9334
G01 X24.5698 Y36.9431
G01 X24.5523 Y36.9519
G01 X24.4813 Y36.9854
G01 X24.4539 Y36.9963
G01 X24.3892 Y37.0195
G01 X24.3706 Y37.0256
G01 X24.3517 Y37.0309
G01 X24.2850 Y37.0476
G01 X24.2659 Y37.0519
G01 X24.2465 Y37.0552
G01 X24.1786 Y37.0653
G01 X24.1591 Y37.0677
G01 X24.1395 Y37.0691
G01 X24.0709 Y37.0725
G01 X24.0513 Y37.0730
G01 X23.0513 Y37.0730
G01 X23.0317 Y37.0725
G01 X22.9630 Y37.0691
G01 X22.9337 Y37.0666
G01 X22.8560 Y37.0552
G01 X22.8367 Y37.0519
G01 X22.8175 Y37.0476
G01 X22.7509 Y37.0309
G01 X22.7226 Y37.0227
G01 X22.6486 Y36.9963
G01 X22.6213 Y36.9854
G01 X22.5503 Y36.9519
G01 X22.5327 Y36.9431
G01 X22.5157 Y36.9334
G01 X22.4567 Y36.8981
G01 X22.4402 Y36.8876
G01 X22.4241 Y36.8763
G01 X22.3689 Y36.8354
G01 X22.3534 Y36.8233
G01 X22.3386 Y36.8105
G01 X22.2877 Y36.7644
G01 X22.2735 Y36.7508
G01 X22.2599 Y36.7366
G01 X22.2138 Y36.6857
G01 X22.2010 Y36.6708
G01 X22.1889 Y36.6554
G01 X22.1480 Y36.6002
G01 X22.1367 Y36.5841
G01 X22.1262 Y36.5675
G01 X22.0908 Y36.5086
G01 X22.0812 Y36.4915
G01 X22.0723 Y36.4740
G01 X22.0430 Y36.4119
G01 X22.0350 Y36.3940
G01 X22.0279 Y36.3756
G01 X22.0048 Y36.3110
G01 X21.9986 Y36.2923
G01 X21.9934 Y36.2734
G01 X21.9767 Y36.2068
G01 X21.9724 Y36.1876
G01 X21.9691 Y36.1683
G01 X21.9590 Y36.1003
G01 X21.9566 Y36.0808
G01 X21.9551 Y36.0612
G01 X21.9518 Y35.9926
G01 X21.9513 Y35.9730
G01 X21.9518 Y35.9534
G01 X21.9551 Y35.8848
G01 X21.9566 Y35.8652
G01 X21.9590 Y35.8457
G01 X21.9691 Y35.7777
G01 X21.9724 Y35.7584
G01 X21.9767 Y35.7392
G01 X21.9934 Y35.6726
G01 X21.9986 Y35.6537
G01 X22.0048 Y35.6350
G01 X22.0279 Y35.5704
G01 X22.0389 Y35.5430
G01 X22.0723 Y35.4720
G01 X22.0812 Y35.4545
G01 X22.0908 Y35.4374
G01 X22.1262 Y35.3785
G01 X22.1367 Y35.3619
G01 X22.1480 Y35.3458
G01 X22.1889 Y35.2906
G01 X22.2010 Y35.2752
G01 X22.2138 Y35.2603
G01 X22.2599 Y35.2094
G01 X22.2735 Y35.1952
G01 X22.2877 Y35.1816
G01 X22.3386 Y35.1355
G01 X22.3534 Y35.1227
G01 X22.3689 Y35.1106
G01 X22.4321 Y35.0639
G01 X22.4567 Y35.0479
G01 X22.5157 Y35.0126
G01 X22.5415 Y34.9984
G01 X22.6124 Y34.9647
G01 X22.6303 Y34.9567
G01 X22.6486 Y34.9497
G01 X22.7133 Y34.9265
G01 X22.7320 Y34.9204
G01 X22.7509 Y34.9151
G01 X22.8175 Y34.8984
G01 X22.8367 Y34.8941
G01 X22.8560 Y34.8908
G01 X22.9240 Y34.8807
G01 X22.9435 Y34.8783
G01 X22.9630 Y34.8769
G01 X23.0317 Y34.8735
G01 X23.0513 Y34.8730
G01 X24.0513 Y34.8730
G01 X24.0709 Y34.8735
G01 X24.1395 Y34.8769
G01 X24.1591 Y34.8783
G01 X24.1786 Y34.8807
G01 X24.2562 Y34.8923
G01 X24.2850 Y34.8984
G01 X24.3517 Y34.9151
G01 X24.3706 Y34.9204
G01 X24.3892 Y34.9265
G01 X24.4539 Y34.9497
G01 X24.4722 Y34.9567
G01 X24.4902 Y34.9647
G01 X24.5611 Y34.9984
G01 X24.5869 Y35.0126
G01 X24.6458 Y35.0479
G01 X24.6705 Y35.0639
G01 X24.7336 Y35.1106
G01 X24.7491 Y35.1227
G01 X24.7640 Y35.1355
G01 X24.8051 Y35.1728
G01 X25.0968 Y35.1728
G01 X25.1164 Y35.1733
G01 X25.1654 Y35.1758
G01 X25.1850 Y35.1777
G01 X25.2335 Y35.1848
G01 X25.2625 Y35.1902
G01 X25.3101 Y35.2020
G01 X25.3384 Y35.2102
G01 X25.3939 Y35.2301
G01 X25.4209 Y35.2417
G01 X25.4564 Y35.2585
G01 X25.4740 Y35.2673
G01 X25.4911 Y35.2770
G01 X25.5247 Y35.2972
G01 X25.5494 Y35.3132
G01 X25.5889 Y35.3424
G01 X25.6119 Y35.3608
G01 X25.6484 Y35.3936
G01 X25.6626 Y35.4072
G01 X36.2261 Y45.9707
G01 X36.2396 Y45.9849
G01 X36.2660 Y46.0140
G01 X36.2788 Y46.0289
G01 X36.2909 Y46.0444
G01 X36.3143 Y46.0759
G01 X36.3256 Y46.0919
G01 X36.3361 Y46.1085
G01 X36.3563 Y46.1422
G01 X36.3660 Y46.1593
G01 X36.3748 Y46.1768
G01 X36.3916 Y46.2123
G01 X36.4032 Y46.2394
G01 X36.4231 Y46.2949
G01 X36.4313 Y46.3232
G01 X36.4431 Y46.3708
G01 X36.4485 Y46.3997
G01 X36.4542 Y46.4386
G01 X36.4566 Y46.4581
G01 X36.4581 Y46.4777
G01 X36.4600 Y46.5169
G01 X36.4605 Y46.5365
G01 X36.4605 Y58.1558
G01 X36.5299 Y58.2186
G01 X36.5442 Y58.2321
G01 X36.5577 Y58.2463
G01 X36.6137 Y58.3081
G01 X36.6265 Y58.3230
G01 X36.6386 Y58.3385
G01 X36.6941 Y58.4134
G01 X36.7101 Y58.4381
G01 X36.7530 Y58.5097
G01 X36.7627 Y58.5268
G01 X36.7715 Y58.5443
G01 X36.8072 Y58.6197
G01 X36.8151 Y58.6376
G01 X36.8222 Y58.6560
G01 X36.8503 Y58.7345
G01 X36.8565 Y58.7531
G01 X36.8617 Y58.7721
G01 X36.8842 Y58.8625
G01 X36.8896 Y58.8915
G01 X36.9019 Y58.9740
G01 X36.9043 Y58.9935
G01 X36.9057 Y59.0131
G01 X36.9102 Y59.1062
G01 X36.9102 Y60.1258
G01 X36.9057 Y60.2189
G01 X36.9043 Y60.2385
G01 X36.9019 Y60.2580
G01 X36.8896 Y60.3405
G01 X36.8863 Y60.3599
G01 X36.8820 Y60.3790
G01 X36.8617 Y60.4599
G01 X36.8565 Y60.4789
G01 X36.8503 Y60.4975
G01 X36.8222 Y60.5760
G01 X36.8151 Y60.5944
G01 X36.8072 Y60.6123
G01 X36.7715 Y60.6877
G01 X36.7627 Y60.7052
G01 X36.7530 Y60.7223
G01 X36.7101 Y60.7939
G01 X36.6996 Y60.8105
G01 X36.6883 Y60.8265
G01 X36.6386 Y60.8935
G01 X36.6265 Y60.9090
G01 X36.6137 Y60.9239
G01 X36.5577 Y60.9857
G01 X36.5442 Y60.9999
G01 X36.5299 Y61.0134
G01 X36.4681 Y61.0694
G01 X36.4533 Y61.0823
G01 X36.4378 Y61.0943
G01 X36.3708 Y61.1440
G01 X36.3547 Y61.1553
G01 X36.3382 Y61.1658
G01 X36.2666 Y61.2087
G01 X36.2495 Y61.2184
G01 X36.2320 Y61.2272
G01 X36.1566 Y61.2629
G01 X36.1386 Y61.2708
G01 X36.1203 Y61.2779
G01 X36.0418 Y61.3060
G01 X36.0231 Y61.3122
G01 X36.0042 Y61.3174
G01 X35.9233 Y61.3377
G01 X35.8945 Y61.3438
G01 X35.7926 Y61.3589
G01 X35.7632 Y61.3614
G01 X35.6799 Y61.3655
G01 X35.6603 Y61.3660
G01 X35.6407 Y61.3655
G01 X35.5573 Y61.3614
G01 X35.5378 Y61.3600
G01 X35.5183 Y61.3576
G01 X35.4358 Y61.3453
G01 X35.4164 Y61.3420
G01 X35.3973 Y61.3377
G01 X35.3163 Y61.3174
G01 X35.2974 Y61.3122
G01 X35.2788 Y61.3060
G01 X35.2002 Y61.2779
G01 X35.1819 Y61.2708
G01 X35.1640 Y61.2629
G01 X35.0886 Y61.2272
G01 X35.0710 Y61.2184
G01 X35.0540 Y61.2087
G01 X34.9740 Y61.1607
G01 X34.9498 Y61.1440
G01 X34.8828 Y61.0943
G01 X34.8673 Y61.0823
G01 X34.8524 Y61.0694
G01 X34.7906 Y61.0134
G01 X34.7764 Y60.9999
G01 X34.7629 Y60.9857
G01 X34.7068 Y60.9239
G01 X34.6940 Y60.9090
G01 X34.6819 Y60.8935
G01 X34.6322 Y60.8265
G01 X34.6209 Y60.8105
G01 X34.6104 Y60.7939
G01 X34.5676 Y60.7223
G01 X34.5579 Y60.7052
G01 X34.5491 Y60.6877
G01 X34.5134 Y60.6123
G01 X34.5054 Y60.5944
G01 X34.4984 Y60.5760
G01 X34.4703 Y60.4975
G01 X34.4641 Y60.4789
G01 X34.4589 Y60.4599
G01 X34.4386 Y60.3790
G01 X34.4343 Y60.3599
G01 X34.4309 Y60.3405
G01 X34.4187 Y60.2580
G01 X34.4163 Y60.2385
G01 X34.4149 Y60.2189
G01 X34.4108 Y60.1356
G01 X34.4103 Y60.1160
G01 X34.4104 Y59.1062
G01 X34.4149 Y59.0131
G01 X34.4163 Y58.9935
G01 X34.4187 Y58.9740
G01 X34.4309 Y58.8915
G01 X34.4363 Y58.8625
G01 X34.4589 Y58.7721
G01 X34.4641 Y58.7531
G01 X34.4703 Y58.7345
G01 X34.5018 Y58.6468
G01 X34.5134 Y58.6197
G01 X34.5491 Y58.5443
G01 X34.5579 Y58.5268
G01 X34.5676 Y58.5097
G01 X34.6104 Y58.4381
G01 X34.6209 Y58.4215
G01 X34.6322 Y58.4055
G01 X34.6819 Y58.3385
G01 X34.6940 Y58.3230
G01 X34.7068 Y58.3081
G01 X34.7629 Y58.2463
G01 X34.7764 Y58.2321
G01 X34.7906 Y58.2186
G01 X34.8596 Y58.1562
G01 X34.8601 Y46.8680
G01 X24.7842 Y36.7921
G00 Z2.0000
G00 X24.2825 Y29.8178
G01 F60.00
G01 Z-0.1100
G01 F100.00
G01 X25.2506 Y28.8498
G01 X25.2506 Y23.9140
G01 X23.1368 Y21.8002
G01 X16.3465 Y21.8001
G01 X16.2974 Y21.7978
G01 X16.2778 Y21.7963
G01 X16.2584 Y21.7939
G01 X16.2195 Y21.7882
G01 X16.2002 Y21.7848
G01 X16.1810 Y21.7805
G01 X16.1429 Y21.7710
G01 X16.1240 Y21.7657
G01 X16.1054 Y21.7596
G01 X16.0684 Y21.7464
G01 X16.0501 Y21.7393
G01 X16.0321 Y21.7313
G01 X15.9878 Y21.7102
G01 X15.9620 Y21.6960
G01 X15.9199 Y21.6707
G01 X15.9036 Y21.6598
G01 X15.8641 Y21.6306
G01 X15.8411 Y21.6122
G01 X15.8047 Y21.5794
G01 X15.7905 Y21.5658
G01 X7.2745 Y13.0498
G01 X7.2609 Y13.0356
G01 X7.2280 Y12.9992
G01 X7.2156 Y12.9840
G01 X7.1862 Y12.9446
G01 X7.1749 Y12.9286
G01 X7.1644 Y12.9120
G01 X7.1442 Y12.8783
G01 X7.1346 Y12.8612
G01 X7.1257 Y12.8437
G01 X7.1089 Y12.8082
G01 X7.1010 Y12.7902
G01 X7.0939 Y12.7719
G01 X7.0775 Y12.7256
G01 X7.0693 Y12.6974
G01 X7.0598 Y12.6593
G01 X7.0555 Y12.6401
G01 X7.0521 Y12.6208
G01 X7.0450 Y12.5722
G01 X7.0425 Y12.5429
G01 X7.0406 Y12.5036
G01 X7.0401 Y12.4840
G01 X7.0401 Y11.5160
G01 X6.4903 Y11.5160
G01 X6.4707 Y11.5155
G01 X6.4265 Y11.5134
G01 X6.4070 Y11.5119
G01 X6.3875 Y11.5095
G01 X6.3438 Y11.5030
G01 X6.3148 Y11.4976
G01 X6.2625 Y11.4846
G01 X6.2435 Y11.4794
G01 X6.2249 Y11.4732
G01 X6.1833 Y11.4584
G01 X6.1650 Y11.4513
G01 X6.1471 Y11.4433
G01 X6.0983 Y11.4202
G01 X6.0810 Y11.4109
G01 X6.0346 Y11.3833
G01 X6.0180 Y11.3727
