(G-CODE GENERATED BY FLATCAM v8.994 - www.flatcam.org - Version Date: 2020/11/7)

(Name: MatrixDisplay-B_Cu.gbr_iso_combined_cnc)
(Type: G-code from Geometry)
(Units: MM)

(Created on Saturday, 23 April 2022 at 19:51)

(This preprocessor is the default preprocessor used by FlatCAM.)
(It is made to work with MACH3 compatible motion controllers.)

(TOOL DIAMETER: 0.5 mm)
(Feedrate_XY: 80.0 mm/min)
(Feedrate_Z: 60.0 mm/min)
(Feedrate rapids 1500.0 mm/min)

(Z_Cut: -0.1 mm)
(Z_Move: 2.0 mm)
(Z Start: None mm)
(Z End: 5.0 mm)
(X,Y End: None mm)
(Steps per circle: 64)
(Preprocessor Geometry: Default_no_M6)

(X range:    5.3500 ...   55.3161  mm)
(Y range:    5.3500 ...   66.9387  mm)

(Spindle Speed: 1000.0 RPM)
G21
G90
G94

G01 F80.00

M5
G00 Z15.0000
G00 X0.0000 Y0.0000
T2
(MSG, Change to Tool Dia = 0.5000)
M0
G00 Z15.0000
        
M03 S1000.0
G4 P1.0
G01 F80.00
G00 X16.3505 Y9.5578
G01 F60.00
G01 Z-0.1000
G01 F80.00
G01 X16.2770 Y9.6019
G01 X16.2609 Y9.6108
G01 X16.0901 Y9.6915
G01 X16.0731 Y9.6984
G01 X15.9009 Y9.7599
G01 X15.8833 Y9.7650
G01 X15.7119 Y9.8079
G01 X15.6999 Y9.8106
G01 X15.6878 Y9.8127
G01 X15.5070 Y9.8395
G01 X15.4887 Y9.8410
G01 X15.3123 Y9.8497
G01 X15.3000 Y9.8500
G01 X15.2877 Y9.8497
G01 X15.1113 Y9.8410
G01 X15.0991 Y9.8401
G01 X15.0869 Y9.8386
G01 X14.9122 Y9.8127
G01 X14.9001 Y9.8106
G01 X14.8881 Y9.8079
G01 X14.7108 Y9.7634
G01 X14.6933 Y9.7579
G01 X14.5269 Y9.6984
G01 X14.5155 Y9.6940
G01 X14.5043 Y9.6890
G01 X14.3446 Y9.6135
G01 X14.3336 Y9.6079
G01 X14.3230 Y9.6019
G01 X14.1714 Y9.5111
G01 X14.1611 Y9.5045
G01 X14.1510 Y9.4974
G01 X14.0092 Y9.3922
G01 X13.9995 Y9.3847
G01 X13.9902 Y9.3767
G01 X13.8593 Y9.2580
G01 X13.8504 Y9.2496
G01 X13.8420 Y9.2407
G01 X13.7233 Y9.1098
G01 X13.7153 Y9.1005
G01 X13.7078 Y9.0908
G01 X13.6026 Y8.9490
G01 X13.5955 Y8.9389
G01 X13.5889 Y8.9286
G01 X13.4950 Y8.7717
G01 X13.4865 Y8.7554
G01 X13.4110 Y8.5957
G01 X13.4060 Y8.5845
G01 X13.4016 Y8.5731
G01 X13.3421 Y8.4067
G01 X13.3383 Y8.3951
G01 X13.3350 Y8.3833
G01 X13.2921 Y8.2119
G01 X13.2894 Y8.1999
G01 X13.2873 Y8.1878
G01 X13.2614 Y8.0131
G01 X13.2599 Y8.0009
G01 X13.2590 Y7.9887
G01 X13.2503 Y7.8123
G01 X13.2500 Y7.8000
G01 X13.2503 Y7.7877
G01 X13.2590 Y7.6113
G01 X13.2599 Y7.5991
G01 X13.2614 Y7.5869
G01 X13.2873 Y7.4122
G01 X13.2894 Y7.4001
G01 X13.2921 Y7.3881
G01 X13.3350 Y7.2167
G01 X13.3383 Y7.2049
G01 X13.3421 Y7.1933
G01 X13.4016 Y7.0269
G01 X13.4060 Y7.0155
G01 X13.4110 Y7.0043
G01 X13.4865 Y6.8446
G01 X13.4921 Y6.8336
G01 X13.4981 Y6.8230
G01 X13.5889 Y6.6714
G01 X13.5955 Y6.6611
G01 X13.6026 Y6.6510
G01 X13.7078 Y6.5092
G01 X13.7153 Y6.4995
G01 X13.7233 Y6.4902
G01 X13.8420 Y6.3593
G01 X13.8504 Y6.3504
G01 X13.8593 Y6.3420
G01 X13.9902 Y6.2233
G01 X13.9995 Y6.2153
G01 X14.0092 Y6.2078
G01 X14.1510 Y6.1026
G01 X14.1611 Y6.0955
G01 X14.1714 Y6.0889
G01 X14.3283 Y5.9950
G01 X14.3446 Y5.9865
G01 X14.5043 Y5.9110
G01 X14.5155 Y5.9060
G01 X14.5269 Y5.9016
G01 X14.6933 Y5.8421
G01 X14.7049 Y5.8383
G01 X14.7167 Y5.8350
G01 X14.8881 Y5.7921
G01 X14.9001 Y5.7894
G01 X14.9122 Y5.7873
G01 X15.0869 Y5.7614
G01 X15.0991 Y5.7599
G01 X15.1113 Y5.7590
G01 X15.2877 Y5.7503
G01 X15.3000 Y5.7500
G01 X15.3123 Y5.7503
G01 X15.4887 Y5.7590
G01 X15.5009 Y5.7599
G01 X15.5131 Y5.7614
G01 X15.6878 Y5.7873
G01 X15.6999 Y5.7894
G01 X15.7119 Y5.7921
G01 X15.8833 Y5.8350
G01 X15.8951 Y5.8383
G01 X15.9067 Y5.8421
G01 X16.0731 Y5.9016
G01 X16.0845 Y5.9060
G01 X16.0957 Y5.9110
G01 X16.2554 Y5.9865
G01 X16.2664 Y5.9921
G01 X16.2770 Y5.9981
G01 X16.4286 Y6.0889
G01 X16.4389 Y6.0955
G01 X16.4490 Y6.1026
G01 X16.5908 Y6.2078
G01 X16.6005 Y6.2153
G01 X16.6098 Y6.2233
G01 X16.7407 Y6.3420
G01 X16.7496 Y6.3504
G01 X16.7580 Y6.3593
G01 X16.8767 Y6.4902
G01 X16.8847 Y6.4995
G01 X16.8922 Y6.5092
G01 X16.9974 Y6.6510
G01 X17.0045 Y6.6611
G01 X17.0111 Y6.6714
G01 X17.1019 Y6.8230
G01 X17.1079 Y6.8336
G01 X17.1135 Y6.8446
G01 X17.1890 Y7.0043
G01 X17.1940 Y7.0155
G01 X17.1984 Y7.0269
G01 X17.2579 Y7.1933
G01 X17.2617 Y7.2049
G01 X17.2650 Y7.2167
G01 X17.3079 Y7.3881
G01 X17.3106 Y7.4001
G01 X17.3127 Y7.4122
G01 X17.3395 Y7.5930
G01 X17.3410 Y7.6113
G01 X17.3497 Y7.7877
G01 X17.3500 Y7.8000
G01 X17.3497 Y7.8123
G01 X17.3410 Y7.9887
G01 X17.3401 Y8.0009
G01 X17.3386 Y8.0131
G01 X17.3127 Y8.1878
G01 X17.3093 Y8.2059
G01 X17.2650 Y8.3833
G01 X17.2617 Y8.3951
G01 X17.2579 Y8.4067
G01 X17.1962 Y8.5788
G01 X17.1890 Y8.5957
G01 X17.1108 Y8.7609
G01 X17.1019 Y8.7770
G01 X17.0578 Y8.8505
G01 X28.8616 Y20.6544
G01 X28.8866 Y20.6814
G01 X28.8946 Y20.6907
G01 X28.9204 Y20.7251
G01 X28.9272 Y20.7353
G01 X28.9430 Y20.7616
G01 X28.9491 Y20.7722
G01 X28.9546 Y20.7832
G01 X28.9676 Y20.8110
G01 X28.9745 Y20.8281
G01 X28.9866 Y20.8628
G01 X28.9958 Y20.8985
G01 X28.9996 Y20.9165
G01 X29.0050 Y20.9529
G01 X29.0066 Y20.9712
G01 X29.0081 Y21.0080
G01 X29.0081 Y30.6600
G01 X29.0066 Y30.6968
G01 X29.0050 Y30.7151
G01 X28.9985 Y30.7576
G01 X28.9883 Y30.7993
G01 X28.9847 Y30.8110
G01 X28.9745 Y30.8399
G01 X28.9701 Y30.8514
G01 X28.9651 Y30.8626
G01 X28.9491 Y30.8958
G01 X28.9430 Y30.9064
G01 X28.9238 Y30.9379
G01 X28.9022 Y30.9676
G01 X28.8946 Y30.9773
G01 X28.8701 Y31.0048
G01 X28.8616 Y31.0136
G01 X27.6003 Y32.2749
G01 X27.5683 Y32.3036
G01 X27.5339 Y32.3294
G01 X27.5237 Y32.3362
G01 X27.4974 Y32.3520
G01 X27.4868 Y32.3581
G01 X27.4758 Y32.3636
G01 X27.4480 Y32.3766
G01 X27.4309 Y32.3835
G01 X27.3962 Y32.3956
G01 X27.3605 Y32.4048
G01 X27.3425 Y32.4086
G01 X27.3061 Y32.4140
G01 X27.2878 Y32.4156
G01 X27.2571 Y32.4170
G01 X24.8178 Y32.4171
G01 X24.8042 Y32.4396
G01 X24.7974 Y32.4499
G01 X24.7492 Y32.5149
G01 X24.7373 Y32.5290
G01 X24.6870 Y32.5844
G01 X24.6739 Y32.5972
G01 X24.6230 Y32.6433
G01 X24.6137 Y32.6514
G01 X24.6040 Y32.6589
G01 X24.5439 Y32.7034
G01 X24.5284 Y32.7135
G01 X24.4695 Y32.7488
G01 X24.4588 Y32.7548
G01 X24.4479 Y32.7603
G01 X24.3858 Y32.7897
G01 X24.3745 Y32.7947
G01 X24.3631 Y32.7991
G01 X24.2984 Y32.8222
G01 X24.2868 Y32.8261
G01 X24.2749 Y32.8294
G01 X24.2023 Y32.8475
G01 X24.1842 Y32.8508
G01 X24.1163 Y32.8609
G01 X24.1041 Y32.8624
G01 X24.0919 Y32.8633
G01 X24.0233 Y32.8667
G01 X24.0110 Y32.8670
G01 X23.0110 Y32.8670
G01 X22.9987 Y32.8667
G01 X22.9240 Y32.8630
G01 X22.9057 Y32.8609
G01 X22.8378 Y32.8508
G01 X22.8257 Y32.8487
G01 X22.8137 Y32.8461
G01 X22.7471 Y32.8294
G01 X22.7352 Y32.8261
G01 X22.7236 Y32.8222
G01 X22.6589 Y32.7991
G01 X22.6475 Y32.7947
G01 X22.6362 Y32.7897
G01 X22.5741 Y32.7603
G01 X22.5632 Y32.7548
G01 X22.5525 Y32.7488
G01 X22.4936 Y32.7135
G01 X22.4832 Y32.7069
G01 X22.4732 Y32.6998
G01 X22.4180 Y32.6589
G01 X22.4083 Y32.6514
G01 X22.3990 Y32.6433
G01 X22.3481 Y32.5972
G01 X22.3392 Y32.5888
G01 X22.3308 Y32.5799
G01 X22.2847 Y32.5290
G01 X22.2766 Y32.5197
G01 X22.2691 Y32.5100
G01 X22.2282 Y32.4548
G01 X22.2211 Y32.4448
G01 X22.2145 Y32.4344
G01 X22.1761 Y32.3702
G01 X22.1677 Y32.3539
G01 X22.1383 Y32.2918
G01 X22.1333 Y32.2805
G01 X22.1289 Y32.2691
G01 X22.1058 Y32.2044
G01 X22.1002 Y32.1869
G01 X22.0819 Y32.1143
G01 X22.0793 Y32.1023
G01 X22.0772 Y32.0902
G01 X22.0671 Y32.0223
G01 X22.0650 Y32.0040
G01 X22.0613 Y31.9293
G01 X22.0610 Y31.9170
G01 X22.0613 Y31.9047
G01 X22.0647 Y31.8361
G01 X22.0656 Y31.8239
G01 X22.0671 Y31.8117
G01 X22.0772 Y31.7438
G01 X22.0793 Y31.7317
G01 X22.0819 Y31.7197
G01 X22.0986 Y31.6531
G01 X22.1019 Y31.6412
G01 X22.1058 Y31.6296
G01 X22.1289 Y31.5649
G01 X22.1357 Y31.5478
G01 X22.1677 Y31.4801
G01 X22.1732 Y31.4692
G01 X22.1792 Y31.4585
G01 X22.2145 Y31.3996
G01 X22.2211 Y31.3892
G01 X22.2282 Y31.3792
G01 X22.2691 Y31.3240
G01 X22.2766 Y31.3143
G01 X22.2847 Y31.3050
G01 X22.3308 Y31.2541
G01 X22.3392 Y31.2452
G01 X22.3481 Y31.2368
G01 X22.3990 Y31.1907
G01 X22.4131 Y31.1788
G01 X22.4732 Y31.1342
G01 X22.4832 Y31.1271
G01 X22.4936 Y31.1205
G01 X22.5525 Y31.0852
G01 X22.5632 Y31.0792
G01 X22.5741 Y31.0737
G01 X22.6362 Y31.0443
G01 X22.6475 Y31.0393
G01 X22.6589 Y31.0349
G01 X22.7236 Y31.0118
G01 X22.7352 Y31.0079
G01 X22.7471 Y31.0046
G01 X22.8137 Y30.9879
G01 X22.8257 Y30.9853
G01 X22.8378 Y30.9832
G01 X22.9057 Y30.9731
G01 X22.9179 Y30.9716
G01 X22.9301 Y30.9707
G01 X22.9987 Y30.9673
G01 X23.0110 Y30.9670
G01 X24.0171 Y30.9671
G01 X24.0919 Y30.9707
G01 X24.1041 Y30.9716
G01 X24.1163 Y30.9731
G01 X24.1842 Y30.9832
G01 X24.2023 Y30.9865
G01 X24.2749 Y31.0046
G01 X24.2868 Y31.0079
G01 X24.2984 Y31.0118
G01 X24.3631 Y31.0349
G01 X24.3745 Y31.0393
G01 X24.3858 Y31.0443
G01 X24.4479 Y31.0737
G01 X24.4588 Y31.0792
G01 X24.4695 Y31.0852
G01 X24.5284 Y31.1205
G01 X24.5439 Y31.1306
G01 X24.6040 Y31.1751
G01 X24.6137 Y31.1826
G01 X24.6230 Y31.1907
G01 X24.6739 Y31.2368
G01 X24.6870 Y31.2496
G01 X24.7373 Y31.3050
G01 X24.7492 Y31.3191
G01 X24.7974 Y31.3841
G01 X24.8042 Y31.3944
G01 X24.8178 Y31.4169
G01 X27.0438 Y31.4169
G01 X28.0079 Y30.4528
G01 X28.0079 Y21.2152
G01 X16.3505 Y9.5578
G00 Z2.0000
G00 X20.8231 Y23.4149
G01 F60.00
G01 Z-0.1000
G01 F80.00
G01 X20.8345 Y23.4193
G01 X20.8458 Y23.4243
G01 X20.9079 Y23.4537
G01 X20.9242 Y23.4621
G01 X20.9884 Y23.5005
G01 X20.9988 Y23.5071
G01 X21.0088 Y23.5142
G01 X21.0640 Y23.5551
G01 X21.0737 Y23.5626
G01 X21.0830 Y23.5707
G01 X21.1339 Y23.6168
G01 X21.1428 Y23.6252
G01 X21.1512 Y23.6341
G01 X21.1973 Y23.6850
G01 X21.2054 Y23.6943
G01 X21.2129 Y23.7040
G01 X21.2538 Y23.7592
G01 X21.2609 Y23.7692
G01 X21.2675 Y23.7796
G01 X21.3028 Y23.8385
G01 X21.3088 Y23.8492
G01 X21.3143 Y23.8601
G01 X21.3437 Y23.9222
G01 X21.3487 Y23.9335
G01 X21.3531 Y23.9449
G01 X21.3762 Y24.0096
G01 X21.3801 Y24.0212
G01 X21.3834 Y24.0331
G01 X21.4001 Y24.0997
G01 X21.4027 Y24.1117
G01 X21.4048 Y24.1238
G01 X21.4149 Y24.1917
G01 X21.4164 Y24.2039
G01 X21.4173 Y24.2161
G01 X21.4207 Y24.2847
G01 X21.4210 Y24.2970
G01 X21.4207 Y24.3093
G01 X21.4173 Y24.3779
G01 X21.4164 Y24.3901
G01 X21.4149 Y24.4023
G01 X21.4048 Y24.4702
G01 X21.4027 Y24.4823
G01 X21.4001 Y24.4943
G01 X21.3834 Y24.5609
G01 X21.3801 Y24.5728
G01 X21.3762 Y24.5844
G01 X21.3531 Y24.6491
G01 X21.3487 Y24.6605
G01 X21.3437 Y24.6718
G01 X21.3143 Y24.7339
G01 X21.3088 Y24.7448
G01 X21.3028 Y24.7555
G01 X21.2675 Y24.8144
G01 X21.2609 Y24.8248
G01 X21.2538 Y24.8348
G01 X21.2129 Y24.8900
G01 X21.2054 Y24.8997
G01 X21.1973 Y24.9090
G01 X21.1512 Y24.9599
G01 X21.1428 Y24.9688
G01 X21.1339 Y24.9772
G01 X21.0830 Y25.0233
G01 X21.0737 Y25.0314
G01 X21.0640 Y25.0389
G01 X21.0088 Y25.0798
G01 X20.9988 Y25.0869
G01 X20.9884 Y25.0935
G01 X20.9295 Y25.1288
G01 X20.9188 Y25.1348
G01 X20.9079 Y25.1403
G01 X20.8458 Y25.1697
G01 X20.8345 Y25.1747
G01 X20.8231 Y25.1791
G01 X20.7584 Y25.2022
G01 X20.7468 Y25.2061
G01 X20.7349 Y25.2094
G01 X20.6683 Y25.2261
G01 X20.6563 Y25.2287
G01 X20.6442 Y25.2308
G01 X20.5763 Y25.2409
G01 X20.5641 Y25.2424
G01 X20.5519 Y25.2433
G01 X20.4833 Y25.2467
G01 X20.4710 Y25.2470
G01 X19.4710 Y25.2470
G01 X19.4587 Y25.2467
G01 X19.3901 Y25.2433
G01 X19.3718 Y25.2417
G01 X19.2978 Y25.2308
G01 X19.2857 Y25.2287
G01 X19.2737 Y25.2261
G01 X19.2071 Y25.2094
G01 X19.1952 Y25.2061
G01 X19.1836 Y25.2022
G01 X19.1131 Y25.1770
G01 X19.0962 Y25.1697
G01 X19.0341 Y25.1403
G01 X19.0232 Y25.1348
G01 X19.0125 Y25.1288
G01 X18.9536 Y25.0935
G01 X18.9432 Y25.0869
G01 X18.9332 Y25.0798
G01 X18.8780 Y25.0389
G01 X18.8683 Y25.0314
G01 X18.8590 Y25.0233
G01 X18.8081 Y24.9772
G01 X18.7992 Y24.9688
G01 X18.7908 Y24.9599
G01 X18.7447 Y24.9090
G01 X18.7366 Y24.8997
G01 X18.7291 Y24.8900
G01 X18.6882 Y24.8348
G01 X18.6811 Y24.8248
G01 X18.6745 Y24.8144
G01 X18.6392 Y24.7555
G01 X18.6332 Y24.7448
G01 X18.6277 Y24.7339
G01 X18.5983 Y24.6718
G01 X18.5933 Y24.6605
G01 X18.5889 Y24.6491
G01 X18.5658 Y24.5844
G01 X18.5619 Y24.5728
G01 X18.5586 Y24.5609
G01 X18.5419 Y24.4943
G01 X18.5393 Y24.4823
G01 X18.5372 Y24.4702
G01 X18.5271 Y24.4023
G01 X18.5256 Y24.3901
G01 X18.5247 Y24.3779
G01 X18.5213 Y24.3093
G01 X18.5210 Y24.2970
G01 X18.5213 Y24.2847
G01 X18.5247 Y24.2161
G01 X18.5256 Y24.2039
G01 X18.5271 Y24.1917
G01 X18.5372 Y24.1238
G01 X18.5393 Y24.1117
G01 X18.5419 Y24.0997
G01 X18.5586 Y24.0331
G01 X18.5619 Y24.0212
G01 X18.5658 Y24.0096
G01 X18.5889 Y23.9449
G01 X18.5933 Y23.9335
G01 X18.5983 Y23.9222
G01 X18.6277 Y23.8601
G01 X18.6332 Y23.8492
G01 X18.6392 Y23.8385
G01 X18.6745 Y23.7796
G01 X18.6811 Y23.7692
G01 X18.6882 Y23.7592
G01 X18.7291 Y23.7040
G01 X18.7366 Y23.6943
G01 X18.7447 Y23.6850
G01 X18.7908 Y23.6341
G01 X18.7992 Y23.6252
G01 X18.8081 Y23.6168
G01 X18.8590 Y23.5707
G01 X18.8683 Y23.5626
G01 X18.8780 Y23.5551
G01 X18.9332 Y23.5142
G01 X18.9432 Y23.5071
G01 X18.9536 Y23.5005
G01 X19.0125 Y23.4652
G01 X19.0232 Y23.4592
G01 X19.0341 Y23.4537
G01 X19.0962 Y23.4243
G01 X19.1075 Y23.4193
G01 X19.1189 Y23.4149
G01 X19.1836 Y23.3918
G01 X19.1952 Y23.3879
G01 X19.2071 Y23.3846
G01 X19.2737 Y23.3679
G01 X19.2857 Y23.3653
G01 X19.2978 Y23.3632
G01 X19.3657 Y23.3531
G01 X19.3779 Y23.3516
G01 X19.3901 Y23.3507
G01 X19.4587 Y23.3473
G01 X19.4710 Y23.3470
G01 X20.4710 Y23.3470
G01 X20.4833 Y23.3473
G01 X20.5519 Y23.3507
G01 X20.5641 Y23.3516
G01 X20.5763 Y23.3531
G01 X20.6442 Y23.3632
G01 X20.6623 Y23.3665
G01 X20.7349 Y23.3846
G01 X20.7468 Y23.3879
G01 X20.7584 Y23.3918
G01 X20.8231 Y23.4149
G00 Z2.0000
G00 X20.9263 Y25.5670
G01 F60.00
G01 Z-0.1000
G01 F80.00
G01 X20.9728 Y25.5502
G01 X21.0023 Y25.5380
G01 X21.0932 Y25.4949
G01 X21.1074 Y25.4876
G01 X21.1351 Y25.4719
G01 X21.2076 Y25.4282
G01 X21.2342 Y25.4105
G01 X21.2471 Y25.4011
G01 X21.3023 Y25.3602
G01 X21.3274 Y25.3406
G01 X21.3516 Y25.3197
G01 X21.4025 Y25.2736
G01 X21.4256 Y25.2516
G01 X21.4476 Y25.2285
G01 X21.4937 Y25.1776
G01 X21.5146 Y25.1534
G01 X21.5342 Y25.1283
G01 X21.5751 Y25.0731
G01 X21.5935 Y25.0470
G01 X21.6022 Y25.0336
G01 X21.6459 Y24.9611
G01 X21.6539 Y24.9474
G01 X21.6689 Y24.9192
G01 X21.7120 Y24.8283
G01 X21.7242 Y24.7988
G01 X21.7410 Y24.7523
G01 X21.7578 Y24.7988
G01 X21.7700 Y24.8283
G01 X21.8131 Y24.9192
G01 X21.8281 Y24.9474
G01 X21.8361 Y24.9611
G01 X21.8798 Y25.0336
G01 X21.8885 Y25.0470
G01 X21.9069 Y25.0731
G01 X21.9478 Y25.1283
G01 X21.9674 Y25.1534
G01 X21.9883 Y25.1776
G01 X22.0344 Y25.2285
G01 X22.0564 Y25.2516
G01 X22.0795 Y25.2736
G01 X22.1304 Y25.3197
G01 X22.1546 Y25.3406
G01 X22.1797 Y25.3602
G01 X22.2349 Y25.4011
G01 X22.2610 Y25.4195
G01 X22.2744 Y25.4282
G01 X22.3469 Y25.4719
G01 X22.3746 Y25.4876
G01 X22.3888 Y25.4949
G01 X22.4797 Y25.5380
G01 X22.5092 Y25.5502
G01 X22.5557 Y25.5670
G01 X22.5092 Y25.5838
G01 X22.4797 Y25.5960
G01 X22.3888 Y25.6391
G01 X22.3746 Y25.6464
G01 X22.3469 Y25.6621
G01 X22.2744 Y25.7058
G01 X22.2478 Y25.7235
G01 X22.2349 Y25.7329
G01 X22.1797 Y25.7738
G01 X22.1546 Y25.7934
G01 X22.1304 Y25.8143
G01 X22.0795 Y25.8604
G01 X22.0564 Y25.8824
G01 X22.0344 Y25.9055
G01 X21.9883 Y25.9564
G01 X21.9674 Y25.9806
G01 X21.9478 Y26.0057
G01 X21.9069 Y26.0609
G01 X21.8885 Y26.0870
G01 X21.8798 Y26.1004
G01 X21.8361 Y26.1729
G01 X21.8281 Y26.1866
G01 X21.8131 Y26.2148
G01 X21.7700 Y26.3057
G01 X21.7578 Y26.3352
G01 X21.7410 Y26.3817
G01 X21.7242 Y26.3352
G01 X21.7120 Y26.3057
G01 X21.6689 Y26.2148
G01 X21.6539 Y26.1866
G01 X21.6459 Y26.1729
G01 X21.6022 Y26.1004
G01 X21.5935 Y26.0870
G01 X21.5751 Y26.0609
G01 X21.5342 Y26.0057
G01 X21.5146 Y25.9806
G01 X21.4937 Y25.9564
G01 X21.4476 Y25.9055
G01 X21.4256 Y25.8824
G01 X21.4025 Y25.8604
G01 X21.3516 Y25.8143
G01 X21.3274 Y25.7934
G01 X21.3023 Y25.7738
G01 X21.2471 Y25.7329
G01 X21.2342 Y25.7235
G01 X21.2076 Y25.7058
G01 X21.1351 Y25.6621
G01 X21.1214 Y25.6541
G01 X21.0932 Y25.6391
G01 X21.0023 Y25.5960
G01 X20.9728 Y25.5838
G01 X20.9263 Y25.5670
G00 Z2.0000
G00 X20.8231 Y25.9549
G01 F60.00
G01 Z-0.1000
G01 F80.00
G01 X20.8345 Y25.9593
G01 X20.8458 Y25.9643
G01 X20.9079 Y25.9937
G01 X20.9242 Y26.0021
G01 X20.9884 Y26.0405
G01 X20.9988 Y26.0471
G01 X21.0088 Y26.0542
G01 X21.0640 Y26.0951
G01 X21.0737 Y26.1026
G01 X21.0830 Y26.1107
G01 X21.1339 Y26.1568
G01 X21.1428 Y26.1652
G01 X21.1512 Y26.1741
G01 X21.1973 Y26.2250
G01 X21.2054 Y26.2343
G01 X21.2129 Y26.2440
G01 X21.2538 Y26.2992
G01 X21.2609 Y26.3092
G01 X21.2675 Y26.3196
G01 X21.3028 Y26.3785
G01 X21.3088 Y26.3892
G01 X21.3143 Y26.4001
G01 X21.3437 Y26.4622
G01 X21.3487 Y26.4735
G01 X21.3531 Y26.4849
G01 X21.3762 Y26.5496
G01 X21.3801 Y26.5612
G01 X21.3834 Y26.5731
G01 X21.4001 Y26.6397
G01 X21.4027 Y26.6517
G01 X21.4048 Y26.6638
G01 X21.4149 Y26.7317
G01 X21.4164 Y26.7439
G01 X21.4173 Y26.7561
G01 X21.4207 Y26.8247
G01 X21.4210 Y26.8370
G01 X21.4207 Y26.8493
G01 X21.4173 Y26.9179
G01 X21.4164 Y26.9301
G01 X21.4149 Y26.9423
G01 X21.4048 Y27.0102
G01 X21.4027 Y27.0223
G01 X21.4001 Y27.0343
G01 X21.3834 Y27.1009
G01 X21.3801 Y27.1128
G01 X21.3762 Y27.1244
G01 X21.3531 Y27.1891
G01 X21.3487 Y27.2005
G01 X21.3437 Y27.2118
G01 X21.3143 Y27.2739
G01 X21.3088 Y27.2848
G01 X21.3028 Y27.2955
G01 X21.2675 Y27.3544
G01 X21.2609 Y27.3648
G01 X21.2538 Y27.3748
G01 X21.2129 Y27.4300
G01 X21.2054 Y27.4397
G01 X21.1973 Y27.4490
G01 X21.1512 Y27.4999
G01 X21.1428 Y27.5088
G01 X21.1339 Y27.5172
G01 X21.0830 Y27.5633
G01 X21.0737 Y27.5714
G01 X21.0640 Y27.5789
G01 X21.0088 Y27.6198
G01 X20.9988 Y27.6269
G01 X20.9884 Y27.6335
G01 X20.9295 Y27.6688
G01 X20.9188 Y27.6748
G01 X20.9079 Y27.6803
G01 X20.8458 Y27.7097
G01 X20.8345 Y27.7147
G01 X20.8231 Y27.7191
G01 X20.7584 Y27.7422
G01 X20.7468 Y27.7461
G01 X20.7349 Y27.7494
G01 X20.6683 Y27.7661
G01 X20.6563 Y27.7687
G01 X20.6442 Y27.7708
G01 X20.5763 Y27.7809
G01 X20.5641 Y27.7824
G01 X20.5519 Y27.7833
G01 X20.4833 Y27.7867
G01 X20.4710 Y27.7870
G01 X19.4710 Y27.7870
G01 X19.4587 Y27.7867
G01 X19.3901 Y27.7833
G01 X19.3718 Y27.7817
G01 X19.2978 Y27.7708
G01 X19.2857 Y27.7687
G01 X19.2737 Y27.7661
G01 X19.2071 Y27.7494
G01 X19.1952 Y27.7461
G01 X19.1836 Y27.7422
G01 X19.1131 Y27.7170
G01 X19.0962 Y27.7097
G01 X19.0341 Y27.6803
G01 X19.0232 Y27.6748
G01 X19.0125 Y27.6688
G01 X18.9536 Y27.6335
G01 X18.9432 Y27.6269
G01 X18.9332 Y27.6198
G01 X18.8780 Y27.5789
G01 X18.8683 Y27.5714
G01 X18.8590 Y27.5633
G01 X18.8081 Y27.5172
G01 X18.7992 Y27.5088
G01 X18.7908 Y27.4999
G01 X18.7447 Y27.4490
G01 X18.7366 Y27.4397
G01 X18.7291 Y27.4300
G01 X18.6882 Y27.3748
G01 X18.6811 Y27.3648
G01 X18.6745 Y27.3544
G01 X18.6392 Y27.2955
G01 X18.6332 Y27.2848
G01 X18.6277 Y27.2739
G01 X18.5983 Y27.2118
G01 X18.5933 Y27.2005
G01 X18.5889 Y27.1891
G01 X18.5658 Y27.1244
G01 X18.5619 Y27.1128
G01 X18.5586 Y27.1009
G01 X18.5419 Y27.0343
G01 X18.5393 Y27.0223
G01 X18.5372 Y27.0102
G01 X18.5271 Y26.9423
G01 X18.5256 Y26.9301
G01 X18.5247 Y26.9179
G01 X18.5213 Y26.8493
G01 X18.5210 Y26.8370
G01 X18.5213 Y26.8247
G01 X18.5247 Y26.7561
G01 X18.5256 Y26.7439
G01 X18.5271 Y26.7317
G01 X18.5372 Y26.6638
G01 X18.5393 Y26.6517
G01 X18.5419 Y26.6397
G01 X18.5586 Y26.5731
G01 X18.5619 Y26.5612
G01 X18.5658 Y26.5496
G01 X18.5889 Y26.4849
G01 X18.5933 Y26.4735
G01 X18.5983 Y26.4622
G01 X18.6277 Y26.4001
G01 X18.6332 Y26.3892
G01 X18.6392 Y26.3785
G01 X18.6745 Y26.3196
G01 X18.6811 Y26.3092
G01 X18.6882 Y26.2992
G01 X18.7291 Y26.2440
G01 X18.7366 Y26.2343
G01 X18.7447 Y26.2250
G01 X18.7908 Y26.1741
G01 X18.7992 Y26.1652
G01 X18.8081 Y26.1568
G01 X18.8590 Y26.1107
G01 X18.8683 Y26.1026
G01 X18.8780 Y26.0951
G01 X18.9332 Y26.0542
G01 X18.9432 Y26.0471
G01 X18.9536 Y26.0405
G01 X19.0125 Y26.0052
G01 X19.0232 Y25.9992
G01 X19.0341 Y25.9937
G01 X19.0962 Y25.9643
G01 X19.1075 Y25.9593
G01 X19.1189 Y25.9549
G01 X19.1836 Y25.9318
G01 X19.1952 Y25.9279
G01 X19.2071 Y25.9246
G01 X19.2737 Y25.9079
G01 X19.2857 Y25.9053
G01 X19.2978 Y25.9032
G01 X19.3657 Y25.8931
G01 X19.3779 Y25.8916
G01 X19.3901 Y25.8907
G01 X19.4587 Y25.8873
G01 X19.4710 Y25.8870
G01 X20.4710 Y25.8870
G01 X20.4833 Y25.8873
G01 X20.5519 Y25.8907
G01 X20.5641 Y25.8916
G01 X20.5763 Y25.8931
G01 X20.6442 Y25.9032
G01 X20.6623 Y25.9065
G01 X20.7349 Y25.9246
G01 X20.7468 Y25.9279
G01 X20.7584 Y25.9318
G01 X20.8231 Y25.9549
G00 Z2.0000
G00 X20.9263 Y28.1070
G01 F60.00
G01 Z-0.1000
G01 F80.00
G01 X20.9728 Y28.0902
G01 X21.0023 Y28.0780
G01 X21.0932 Y28.0349
G01 X21.1074 Y28.0276
G01 X21.1351 Y28.0119
G01 X21.2076 Y27.9682
G01 X21.2342 Y27.9505
G01 X21.2471 Y27.9411
G01 X21.3023 Y27.9002
G01 X21.3274 Y27.8806
G01 X21.3516 Y27.8597
G01 X21.4025 Y27.8136
G01 X21.4256 Y27.7916
G01 X21.4476 Y27.7685
G01 X21.4937 Y27.7176
G01 X21.5146 Y27.6934
G01 X21.5342 Y27.6683
G01 X21.5751 Y27.6131
G01 X21.5935 Y27.5870
G01 X21.6022 Y27.5736
G01 X21.6459 Y27.5011
G01 X21.6539 Y27.4874
G01 X21.6689 Y27.4592
G01 X21.7120 Y27.3683
G01 X21.7242 Y27.3388
G01 X21.7410 Y27.2923
G01 X21.7578 Y27.3388
G01 X21.7700 Y27.3683
G01 X21.8131 Y27.4592
G01 X21.8281 Y27.4874
G01 X21.8361 Y27.5011
G01 X21.8798 Y27.5736
G01 X21.8885 Y27.5870
G01 X21.9069 Y27.6131
G01 X21.9478 Y27.6683
G01 X21.9674 Y27.6934
G01 X21.9883 Y27.7176
G01 X22.0344 Y27.7685
G01 X22.0564 Y27.7916
G01 X22.0795 Y27.8136
G01 X22.1304 Y27.8597
G01 X22.1546 Y27.8806
G01 X22.1797 Y27.9002
G01 X22.2349 Y27.9411
G01 X22.2610 Y27.9595
G01 X22.2744 Y27.9682
G01 X22.3469 Y28.0119
G01 X22.3746 Y28.0276
G01 X22.3888 Y28.0349
G01 X22.4797 Y28.0780
G01 X22.5092 Y28.0902
G01 X22.5557 Y28.1070
G01 X22.5092 Y28.1238
G01 X22.4797 Y28.1360
G01 X22.3888 Y28.1791
G01 X22.3746 Y28.1864
G01 X22.3469 Y28.2021
G01 X22.2744 Y28.2458
G01 X22.2478 Y28.2635
G01 X22.2349 Y28.2729
G01 X22.1797 Y28.3138
G01 X22.1546 Y28.3334
G01 X22.1304 Y28.3543
G01 X22.0795 Y28.4004
G01 X22.0564 Y28.4224
G01 X22.0344 Y28.4455
G01 X21.9883 Y28.4964
G01 X21.9674 Y28.5206
G01 X21.9478 Y28.5457
G01 X21.9069 Y28.6009
G01 X21.8885 Y28.6270
G01 X21.8798 Y28.6404
G01 X21.8361 Y28.7129
G01 X21.8281 Y28.7266
G01 X21.8131 Y28.7548
G01 X21.7700 Y28.8457
G01 X21.7578 Y28.8752
G01 X21.7410 Y28.9217
G01 X21.7242 Y28.8752
G01 X21.7120 Y28.8457
G01 X21.6689 Y28.7548
G01 X21.6539 Y28.7266
G01 X21.6459 Y28.7129
G01 X21.6022 Y28.6404
G01 X21.5935 Y28.6270
G01 X21.5751 Y28.6009
G01 X21.5342 Y28.5457
G01 X21.5146 Y28.5206
G01 X21.4937 Y28.4964
G01 X21.4476 Y28.4455
G01 X21.4256 Y28.4224
G01 X21.4025 Y28.4004
G01 X21.3516 Y28.3543
G01 X21.3274 Y28.3334
G01 X21.3023 Y28.3138
G01 X21.2471 Y28.2729
G01 X21.2342 Y28.2635
G01 X21.2076 Y28.2458
G01 X21.1351 Y28.2021
G01 X21.1214 Y28.1941
G01 X21.0932 Y28.1791
G01 X21.0023 Y28.1360
G01 X20.9728 Y28.1238
G01 X20.9263 Y28.1070
G00 Z2.0000
G00 X20.8231 Y28.4949
G01 F60.00
G01 Z-0.1000
G01 F80.00
G01 X20.8345 Y28.4993
G01 X20.8458 Y28.5043
G01 X20.9079 Y28.5337
G01 X20.9242 Y28.5421
G01 X20.9884 Y28.5805
G01 X20.9988 Y28.5871
G01 X21.0088 Y28.5942
G01 X21.0640 Y28.6351
G01 X21.0737 Y28.6426
G01 X21.0830 Y28.6507
G01 X21.1339 Y28.6968
G01 X21.1428 Y28.7052
G01 X21.1512 Y28.7141
G01 X21.1973 Y28.7650
G01 X21.2054 Y28.7743
G01 X21.2129 Y28.7840
G01 X21.2538 Y28.8392
G01 X21.2609 Y28.8492
G01 X21.2675 Y28.8596
G01 X21.3028 Y28.9185
G01 X21.3088 Y28.9292
G01 X21.3143 Y28.9401
G01 X21.3437 Y29.0022
G01 X21.3487 Y29.0135
G01 X21.3531 Y29.0249
G01 X21.3762 Y29.0896
G01 X21.3801 Y29.1012
G01 X21.3834 Y29.1131
G01 X21.4001 Y29.1797
G01 X21.4027 Y29.1917
G01 X21.4048 Y29.2038
G01 X21.4149 Y29.2717
G01 X21.4164 Y29.2839
G01 X21.4173 Y29.2961
G01 X21.4207 Y29.3647
G01 X21.4210 Y29.3770
G01 X21.4207 Y29.3893
G01 X21.4173 Y29.4579
G01 X21.4164 Y29.4701
G01 X21.4149 Y29.4823
G01 X21.4048 Y29.5502
G01 X21.4027 Y29.5623
G01 X21.4001 Y29.5743
G01 X21.3834 Y29.6409
G01 X21.3801 Y29.6528
G01 X21.3762 Y29.6644
G01 X21.3531 Y29.7291
G01 X21.3487 Y29.7405
G01 X21.3437 Y29.7518
G01 X21.3143 Y29.8139
G01 X21.3088 Y29.8248
G01 X21.3028 Y29.8355
G01 X21.2675 Y29.8944
G01 X21.2609 Y29.9048
G01 X21.2538 Y29.9148
G01 X21.2129 Y29.9700
G01 X21.2054 Y29.9797
G01 X21.1973 Y29.9890
G01 X21.1512 Y30.0399
G01 X21.1428 Y30.0488
G01 X21.1339 Y30.0572
G01 X21.0830 Y30.1033
G01 X21.0737 Y30.1114
G01 X21.0640 Y30.1189
G01 X21.0088 Y30.1598
G01 X20.9988 Y30.1669
G01 X20.9884 Y30.1735
G01 X20.9295 Y30.2088
G01 X20.9188 Y30.2148
G01 X20.9079 Y30.2203
G01 X20.8458 Y30.2497
G01 X20.8345 Y30.2547
G01 X20.8231 Y30.2591
G01 X20.7584 Y30.2822
G01 X20.7468 Y30.2861
G01 X20.7349 Y30.2894
G01 X20.6683 Y30.3061
G01 X20.6563 Y30.3087
G01 X20.6442 Y30.3108
G01 X20.5763 Y30.3209
G01 X20.5641 Y30.3224
G01 X20.5519 Y30.3233
G01 X20.4833 Y30.3267
G01 X20.4710 Y30.3270
G01 X19.4710 Y30.3270
G01 X19.4587 Y30.3267
G01 X19.3901 Y30.3233
G01 X19.3718 Y30.3217
G01 X19.2978 Y30.3108
G01 X19.2857 Y30.3087
G01 X19.2737 Y30.3061
G01 X19.2071 Y30.2894
G01 X19.1952 Y30.2861
G01 X19.1836 Y30.2822
G01 X19.1131 Y30.2570
G01 X19.0962 Y30.2497
G01 X19.0341 Y30.2203
G01 X19.0232 Y30.2148
G01 X19.0125 Y30.2088
G01 X18.9536 Y30.1735
G01 X18.9432 Y30.1669
G01 X18.9332 Y30.1598
G01 X18.8780 Y30.1189
G01 X18.8683 Y30.1114
G01 X18.8590 Y30.1033
G01 X18.8081 Y30.0572
G01 X18.7992 Y30.0488
G01 X18.7908 Y30.0399
G01 X18.7447 Y29.9890
G01 X18.7366 Y29.9797
G01 X18.7291 Y29.9700
G01 X18.6882 Y29.9148
G01 X18.6811 Y29.9048
G01 X18.6745 Y29.8944
G01 X18.6392 Y29.8355
G01 X18.6332 Y29.8248
G01 X18.6277 Y29.8139
G01 X18.5983 Y29.7518
G01 X18.5933 Y29.7405
G01 X18.5889 Y29.7291
G01 X18.5658 Y29.6644
G01 X18.5619 Y29.6528
G01 X18.5586 Y29.6409
G01 X18.5419 Y29.5743
G01 X18.5393 Y29.5623
G01 X18.5372 Y29.5502
G01 X18.5271 Y29.4823
G01 X18.5256 Y29.4701
G01 X18.5247 Y29.4579
G01 X18.5213 Y29.3893
G01 X18.5210 Y29.3770
G01 X18.5213 Y29.3647
G01 X18.5247 Y29.2961
G01 X18.5256 Y29.2839
G01 X18.5271 Y29.2717
G01 X18.5372 Y29.2038
G01 X18.5393 Y29.1917
G01 X18.5419 Y29.1797
G01 X18.5586 Y29.1131
G01 X18.5619 Y29.1012
G01 X18.5658 Y29.0896
G01 X18.5889 Y29.0249
G01 X18.5933 Y29.0135
G01 X18.5983 Y29.0022
G01 X18.6277 Y28.9401
G01 X18.6332 Y28.9292
G01 X18.6392 Y28.9185
G01 X18.6745 Y28.8596
G01 X18.6811 Y28.8492
G01 X18.6882 Y28.8392
G01 X18.7291 Y28.7840
G01 X18.7366 Y28.7743
G01 X18.7447 Y28.7650
G01 X18.7908 Y28.7141
G01 X18.7992 Y28.7052
G01 X18.8081 Y28.6968
G01 X18.8590 Y28.6507
G01 X18.8683 Y28.6426
G01 X18.8780 Y28.6351
G01 X18.9332 Y28.5942
G01 X18.9432 Y28.5871
G01 X18.9536 Y28.5805
G01 X19.0125 Y28.5452
G01 X19.0232 Y28.5392
G01 X19.0341 Y28.5337
G01 X19.0962 Y28.5043
G01 X19.1075 Y28.4993
G01 X19.1189 Y28.4949
G01 X19.1836 Y28.4718
G01 X19.1952 Y28.4679
G01 X19.2071 Y28.4646
G01 X19.2737 Y28.4479
G01 X19.2857 Y28.4453
G01 X19.2978 Y28.4432
G01 X19.3657 Y28.4331
G01 X19.3779 Y28.4316
G01 X19.3901 Y28.4307
G01 X19.4587 Y28.4273
G01 X19.4710 Y28.4270
G01 X20.4710 Y28.4270
G01 X20.4833 Y28.4273
G01 X20.5519 Y28.4307
G01 X20.5641 Y28.4316
G01 X20.5763 Y28.4331
G01 X20.6442 Y28.4432
G01 X20.6623 Y28.4465
G01 X20.7349 Y28.4646
G01 X20.7468 Y28.4679
G01 X20.7584 Y28.4718
G01 X20.8231 Y28.4949
G00 Z2.0000
G00 X21.7410 Y29.8323
G01 F60.00
G01 Z-0.1000
G01 F80.00
G01 X21.7578 Y29.8788
G01 X21.7700 Y29.9083
G01 X21.8131 Y29.9992
G01 X21.8281 Y30.0274
G01 X21.8361 Y30.0411
G01 X21.8798 Y30.1136
G01 X21.8885 Y30.1270
G01 X21.9069 Y30.1531
G01 X21.9478 Y30.2083
G01 X21.9674 Y30.2334
G01 X21.9883 Y30.2576
G01 X22.0344 Y30.3085
G01 X22.0564 Y30.3316
G01 X22.0795 Y30.3536
G01 X22.1304 Y30.3997
G01 X22.1546 Y30.4206
G01 X22.1797 Y30.4402
G01 X22.2349 Y30.4811
G01 X22.2610 Y30.4995
G01 X22.2744 Y30.5082
G01 X22.3469 Y30.5519
G01 X22.3746 Y30.5676
G01 X22.3888 Y30.5749
G01 X22.4797 Y30.6180
G01 X22.5092 Y30.6302
G01 X22.5557 Y30.6470
G01 X22.5092 Y30.6638
G01 X22.4797 Y30.6760
G01 X22.3888 Y30.7191
G01 X22.3746 Y30.7264
G01 X22.3469 Y30.7421
G01 X22.2744 Y30.7858
G01 X22.2478 Y30.8035
G01 X22.2349 Y30.8129
G01 X22.1797 Y30.8538
G01 X22.1546 Y30.8734
G01 X22.1304 Y30.8943
G01 X22.0795 Y30.9404
G01 X22.0564 Y30.9624
G01 X22.0344 Y30.9855
G01 X21.9883 Y31.0364
G01 X21.9674 Y31.0606
G01 X21.9478 Y31.0857
G01 X21.9069 Y31.1409
G01 X21.8885 Y31.1670
G01 X21.8798 Y31.1804
G01 X21.8361 Y31.2529
G01 X21.8281 Y31.2666
G01 X21.8131 Y31.2948
G01 X21.7700 Y31.3857
G01 X21.7578 Y31.4152
G01 X21.7410 Y31.4617
G01 X21.7242 Y31.4152
G01 X21.7120 Y31.3857
G01 X21.6689 Y31.2948
G01 X21.6539 Y31.2666
G01 X21.6459 Y31.2529
G01 X21.6022 Y31.1804
G01 X21.5935 Y31.1670
G01 X21.5751 Y31.1409
G01 X21.5342 Y31.0857
G01 X21.5146 Y31.0606
G01 X21.4937 Y31.0364
G01 X21.4476 Y30.9855
G01 X21.4256 Y30.9624
G01 X21.4025 Y30.9404
G01 X21.3516 Y30.8943
G01 X21.3274 Y30.8734
G01 X21.3023 Y30.8538
G01 X21.2471 Y30.8129
G01 X21.2342 Y30.8035
G01 X21.2076 Y30.7858
G01 X21.1351 Y30.7421
G01 X21.1214 Y30.7341
G01 X21.0932 Y30.7191
G01 X21.0023 Y30.6760
G01 X20.9728 Y30.6638
G01 X20.9263 Y30.6470
G01 X20.9728 Y30.6302
G01 X21.0023 Y30.6180
G01 X21.0932 Y30.5749
G01 X21.1074 Y30.5676
G01 X21.1351 Y30.5519
G01 X21.2076 Y30.5082
G01 X21.2342 Y30.4905
G01 X21.2471 Y30.4811
G01 X21.3023 Y30.4402
G01 X21.3274 Y30.4206
G01 X21.3516 Y30.3997
G01 X21.4025 Y30.3536
G01 X21.4256 Y30.3316
G01 X21.4476 Y30.3085
G01 X21.4937 Y30.2576
G01 X21.5146 Y30.2334
G01 X21.5342 Y30.2083
G01 X21.5751 Y30.1531
G01 X21.5935 Y30.1270
G01 X21.6022 Y30.1136
G01 X21.6459 Y30.0411
G01 X21.6539 Y30.0274
G01 X21.6689 Y29.9992
G01 X21.7120 Y29.9083
G01 X21.7242 Y29.8788
G01 X21.7410 Y29.8323
G00 Z2.0000
G00 X20.8231 Y31.0349
G01 F60.00
G01 Z-0.1000
G01 F80.00
G01 X20.8345 Y31.0393
G01 X20.8458 Y31.0443
G01 X20.9079 Y31.0737
G01 X20.9242 Y31.0821
G01 X20.9884 Y31.1205
G01 X20.9988 Y31.1271
G01 X21.0088 Y31.1342
G01 X21.0640 Y31.1751
G01 X21.0737 Y31.1826
G01 X21.0830 Y31.1907
G01 X21.1339 Y31.2368
G01 X21.1428 Y31.2452
G01 X21.1512 Y31.2541
G01 X21.1973 Y31.3050
G01 X21.2054 Y31.3143
G01 X21.2129 Y31.3240
G01 X21.2538 Y31.3792
G01 X21.2609 Y31.3892
G01 X21.2675 Y31.3996
G01 X21.3028 Y31.4585
G01 X21.3088 Y31.4692
G01 X21.3143 Y31.4801
G01 X21.3437 Y31.5422
G01 X21.3487 Y31.5535
G01 X21.3531 Y31.5649
G01 X21.3762 Y31.6296
G01 X21.3801 Y31.6412
G01 X21.3834 Y31.6531
G01 X21.4001 Y31.7197
G01 X21.4027 Y31.7317
G01 X21.4048 Y31.7438
G01 X21.4149 Y31.8117
G01 X21.4164 Y31.8239
G01 X21.4173 Y31.8361
G01 X21.4207 Y31.9047
G01 X21.4210 Y31.9170
G01 X21.4207 Y31.9293
G01 X21.4173 Y31.9979
G01 X21.4164 Y32.0101
G01 X21.4149 Y32.0223
G01 X21.4048 Y32.0902
G01 X21.4027 Y32.1023
G01 X21.4001 Y32.1143
G01 X21.3834 Y32.1809
G01 X21.3801 Y32.1928
G01 X21.3762 Y32.2044
G01 X21.3531 Y32.2691
G01 X21.3487 Y32.2805
G01 X21.3437 Y32.2918
G01 X21.3143 Y32.3539
G01 X21.3088 Y32.3648
G01 X21.3028 Y32.3755
G01 X21.2675 Y32.4344
G01 X21.2609 Y32.4448
G01 X21.2538 Y32.4548
G01 X21.2129 Y32.5100
G01 X21.2054 Y32.5197
G01 X21.1973 Y32.5290
G01 X21.1512 Y32.5799
G01 X21.1428 Y32.5888
G01 X21.1339 Y32.5972
G01 X21.0830 Y32.6433
G01 X21.0737 Y32.6514
G01 X21.0640 Y32.6589
G01 X21.0088 Y32.6998
G01 X20.9988 Y32.7069
G01 X20.9884 Y32.7135
G01 X20.9295 Y32.7488
G01 X20.9188 Y32.7548
G01 X20.9079 Y32.7603
G01 X20.8458 Y32.7897
G01 X20.8345 Y32.7947
G01 X20.8231 Y32.7991
G01 X20.7584 Y32.8222
G01 X20.7468 Y32.8261
G01 X20.7349 Y32.8294
G01 X20.6683 Y32.8461
G01 X20.6563 Y32.8487
G01 X20.6442 Y32.8508
G01 X20.5763 Y32.8609
G01 X20.5641 Y32.8624
G01 X20.5519 Y32.8633
G01 X20.4833 Y32.8667
G01 X20.4710 Y32.8670
G01 X19.4710 Y32.8670
G01 X19.4587 Y32.8667
G01 X19.3901 Y32.8633
G01 X19.3718 Y32.8617
G01 X19.2978 Y32.8508
G01 X19.2857 Y32.8487
G01 X19.2737 Y32.8461
G01 X19.2071 Y32.8294
G01 X19.1952 Y32.8261
G01 X19.1836 Y32.8222
G01 X19.1131 Y32.7970
G01 X19.0962 Y32.7897
G01 X19.0341 Y32.7603
G01 X19.0232 Y32.7548
G01 X19.0125 Y32.7488
G01 X18.9536 Y32.7135
G01 X18.9432 Y32.7069
G01 X18.9332 Y32.6998
G01 X18.8780 Y32.6589
G01 X18.8683 Y32.6514
G01 X18.8590 Y32.6433
G01 X18.8081 Y32.5972
G01 X18.7992 Y32.5888
G01 X18.7908 Y32.5799
G01 X18.7447 Y32.5290
G01 X18.7366 Y32.5197
G01 X18.7291 Y32.5100
G01 X18.6882 Y32.4548
G01 X18.6811 Y32.4448
G01 X18.6745 Y32.4344
G01 X18.6392 Y32.3755
G01 X18.6332 Y32.3648
G01 X18.6277 Y32.3539
G01 X18.5983 Y32.2918
G01 X18.5933 Y32.2805
G01 X18.5889 Y32.2691
G01 X18.5658 Y32.2044
G01 X18.5619 Y32.1928
G01 X18.5586 Y32.1809
G01 X18.5419 Y32.1143
G01 X18.5393 Y32.1023
G01 X18.5372 Y32.0902
G01 X18.5271 Y32.0223
G01 X18.5256 Y32.0101
G01 X18.5247 Y31.9979
G01 X18.5213 Y31.9293
G01 X18.5210 Y31.9170
G01 X18.5213 Y31.9047
G01 X18.5247 Y31.8361
G01 X18.5256 Y31.8239
G01 X18.5271 Y31.8117
G01 X18.5372 Y31.7438
G01 X18.5393 Y31.7317
G01 X18.5419 Y31.7197
G01 X18.5586 Y31.6531
G01 X18.5619 Y31.6412
G01 X18.5658 Y31.6296
G01 X18.5889 Y31.5649
G01 X18.5933 Y31.5535
G01 X18.5983 Y31.5422
G01 X18.6277 Y31.4801
G01 X18.6332 Y31.4692
G01 X18.6392 Y31.4585
G01 X18.6745 Y31.3996
G01 X18.6811 Y31.3892
G01 X18.6882 Y31.3792
G01 X18.7291 Y31.3240
G01 X18.7366 Y31.3143
G01 X18.7447 Y31.3050
G01 X18.7908 Y31.2541
G01 X18.7992 Y31.2452
G01 X18.8081 Y31.2368
G01 X18.8590 Y31.1907
G01 X18.8683 Y31.1826
G01 X18.8780 Y31.1751
G01 X18.9332 Y31.1342
G01 X18.9432 Y31.1271
G01 X18.9536 Y31.1205
G01 X19.0125 Y31.0852
G01 X19.0232 Y31.0792
G01 X19.0341 Y31.0737
G01 X19.0962 Y31.0443
G01 X19.1075 Y31.0393
G01 X19.1189 Y31.0349
G01 X19.1836 Y31.0118
G01 X19.1952 Y31.0079
G01 X19.2071 Y31.0046
G01 X19.2737 Y30.9879
G01 X19.2857 Y30.9853
G01 X19.2978 Y30.9832
G01 X19.3657 Y30.9731
G01 X19.3779 Y30.9716
G01 X19.3901 Y30.9707
G01 X19.4587 Y30.9673
G01 X19.4710 Y30.9670
G01 X20.4710 Y30.9670
G01 X20.4833 Y30.9673
G01 X20.5519 Y30.9707
G01 X20.5641 Y30.9716
G01 X20.5763 Y30.9731
G01 X20.6442 Y30.9832
G01 X20.6623 Y30.9865
G01 X20.7349 Y31.0046
G01 X20.7468 Y31.0079
G01 X20.7584 Y31.0118
G01 X20.8231 Y31.0349
G00 Z2.0000
G00 X20.8231 Y33.5749
G01 F60.00
G01 Z-0.1000
G01 F80.00
G01 X20.8345 Y33.5793
G01 X20.8458 Y33.5843
G01 X20.9079 Y33.6137
G01 X20.9242 Y33.6221
G01 X20.9884 Y33.6605
G01 X20.9988 Y33.6671
G01 X21.0088 Y33.6742
G01 X21.0640 Y33.7151
G01 X21.0737 Y33.7226
G01 X21.0830 Y33.7307
G01 X21.1339 Y33.7768
G01 X21.1428 Y33.7852
G01 X21.1512 Y33.7941
G01 X21.1973 Y33.8450
G01 X21.2054 Y33.8543
G01 X21.2129 Y33.8640
G01 X21.2538 Y33.9192
G01 X21.2609 Y33.9292
G01 X21.2675 Y33.9396
G01 X21.3028 Y33.9985
G01 X21.3088 Y34.0092
G01 X21.3143 Y34.0201
G01 X21.3437 Y34.0822
G01 X21.3487 Y34.0935
G01 X21.3531 Y34.1049
G01 X21.3762 Y34.1696
G01 X21.3801 Y34.1812
G01 X21.3834 Y34.1931
G01 X21.4001 Y34.2597
G01 X21.4027 Y34.2717
G01 X21.4048 Y34.2838
G01 X21.4149 Y34.3517
G01 X21.4164 Y34.3639
G01 X21.4173 Y34.3761
G01 X21.4207 Y34.4447
G01 X21.4210 Y34.4570
G01 X21.4207 Y34.4693
G01 X21.4173 Y34.5379
G01 X21.4164 Y34.5501
G01 X21.4149 Y34.5623
G01 X21.4048 Y34.6302
G01 X21.4027 Y34.6423
G01 X21.4001 Y34.6543
G01 X21.3834 Y34.7209
G01 X21.3801 Y34.7328
G01 X21.3762 Y34.7444
G01 X21.3531 Y34.8091
G01 X21.3487 Y34.8205
G01 X21.3437 Y34.8318
G01 X21.3143 Y34.8939
G01 X21.3088 Y34.9048
G01 X21.3028 Y34.9155
G01 X21.2675 Y34.9744
G01 X21.2609 Y34.9848
G01 X21.2538 Y34.9948
G01 X21.2129 Y35.0500
G01 X21.2054 Y35.0597
G01 X21.1973 Y35.0690
G01 X21.1512 Y35.1199
G01 X21.1428 Y35.1288
G01 X21.1339 Y35.1372
G01 X21.0830 Y35.1833
G01 X21.0737 Y35.1914
G01 X21.0640 Y35.1989
G01 X21.0088 Y35.2398
G01 X20.9988 Y35.2469
G01 X20.9884 Y35.2535
G01 X20.9295 Y35.2888
G01 X20.9188 Y35.2948
G01 X20.9079 Y35.3003
G01 X20.8458 Y35.3297
G01 X20.8345 Y35.3347
G01 X20.8231 Y35.3391
G01 X20.7584 Y35.3622
G01 X20.7468 Y35.3661
G01 X20.7349 Y35.3694
G01 X20.6683 Y35.3861
G01 X20.6563 Y35.3887
G01 X20.6442 Y35.3908
G01 X20.5763 Y35.4009
G01 X20.5641 Y35.4024
G01 X20.5519 Y35.4033
G01 X20.4833 Y35.4067
G01 X20.4710 Y35.4070
G01 X19.4710 Y35.4070
G01 X19.4587 Y35.4067
G01 X19.3901 Y35.4033
G01 X19.3718 Y35.4017
G01 X19.2978 Y35.3908
G01 X19.2857 Y35.3887
G01 X19.2737 Y35.3861
G01 X19.2071 Y35.3694
G01 X19.1952 Y35.3661
G01 X19.1836 Y35.3622
G01 X19.1131 Y35.3370
G01 X19.0962 Y35.3297
G01 X19.0341 Y35.3003
G01 X19.0232 Y35.2948
G01 X19.0125 Y35.2888
G01 X18.9536 Y35.2535
G01 X18.9432 Y35.2469
G01 X18.9332 Y35.2398
G01 X18.8780 Y35.1989
G01 X18.8683 Y35.1914
G01 X18.8590 Y35.1833
G01 X18.8081 Y35.1372
G01 X18.7992 Y35.1288
G01 X18.7908 Y35.1199
G01 X18.7447 Y35.0690
G01 X18.7366 Y35.0597
G01 X18.7291 Y35.0500
G01 X18.6882 Y34.9948
G01 X18.6811 Y34.9848
G01 X18.6745 Y34.9744
G01 X18.6392 Y34.9155
G01 X18.6332 Y34.9048
G01 X18.6277 Y34.8939
G01 X18.5983 Y34.8318
G01 X18.5933 Y34.8205
G01 X18.5889 Y34.8091
G01 X18.5658 Y34.7444
G01 X18.5619 Y34.7328
G01 X18.5586 Y34.7209
G01 X18.5419 Y34.6543
G01 X18.5393 Y34.6423
G01 X18.5372 Y34.6302
G01 X18.5271 Y34.5623
G01 X18.5256 Y34.5501
G01 X18.5247 Y34.5379
G01 X18.5213 Y34.4693
G01 X18.5210 Y34.4570
G01 X18.5213 Y34.4447
G01 X18.5247 Y34.3761
G01 X18.5256 Y34.3639
G01 X18.5271 Y34.3517
G01 X18.5372 Y34.2838
G01 X18.5393 Y34.2717
G01 X18.5419 Y34.2597
G01 X18.5586 Y34.1931
G01 X18.5619 Y34.1812
G01 X18.5658 Y34.1696
G01 X18.5889 Y34.1049
G01 X18.5933 Y34.0935
G01 X18.5983 Y34.0822
G01 X18.6277 Y34.0201
G01 X18.6332 Y34.0092
G01 X18.6392 Y33.9985
G01 X18.6745 Y33.9396
G01 X18.6811 Y33.9292
G01 X18.6882 Y33.9192
G01 X18.7291 Y33.8640
G01 X18.7366 Y33.8543
G01 X18.7447 Y33.8450
G01 X18.7908 Y33.7941
G01 X18.7992 Y33.7852
G01 X18.8081 Y33.7768
G01 X18.8590 Y33.7307
G01 X18.8683 Y33.7226
G01 X18.8780 Y33.7151
G01 X18.9332 Y33.6742
G01 X18.9432 Y33.6671
G01 X18.9536 Y33.6605
G01 X19.0125 Y33.6252
G01 X19.0232 Y33.6192
G01 X19.0341 Y33.6137
G01 X19.0962 Y33.5843
G01 X19.1075 Y33.5793
G01 X19.1189 Y33.5749
G01 X19.1836 Y33.5518
G01 X19.1952 Y33.5479
G01 X19.2071 Y33.5446
G01 X19.2737 Y33.5279
G01 X19.2857 Y33.5253
G01 X19.2978 Y33.5232
G01 X19.3657 Y33.5131
G01 X19.3779 Y33.5116
G01 X19.3901 Y33.5107
G01 X19.4587 Y33.5073
G01 X19.4710 Y33.5070
G01 X20.4710 Y33.5070
G01 X20.4833 Y33.5073
G01 X20.5519 Y33.5107
G01 X20.5641 Y33.5116
G01 X20.5763 Y33.5131
G01 X20.6442 Y33.5232
G01 X20.6623 Y33.5265
G01 X20.7349 Y33.5446
G01 X20.7468 Y33.5479
G01 X20.7584 Y33.5518
G01 X20.8231 Y33.5749
G00 Z2.0000
G00 X21.7410 Y34.0017
G01 F60.00
G01 Z-0.1000
G01 F80.00
G01 X21.7242 Y33.9552
G01 X21.7120 Y33.9257
G01 X21.6689 Y33.8348
G01 X21.6539 Y33.8066
G01 X21.6459 Y33.7929
G01 X21.6022 Y33.7204
G01 X21.5845 Y33.6938
G01 X21.5751 Y33.6809
G01 X21.5342 Y33.6257
G01 X21.5146 Y33.6006
G01 X21.4937 Y33.5764
G01 X21.4476 Y33.5255
G01 X21.4256 Y33.5024
G01 X21.4025 Y33.4804
G01 X21.3516 Y33.4343
G01 X21.3274 Y33.4134
G01 X21.3023 Y33.3938
G01 X21.2471 Y33.3529
G01 X21.2342 Y33.3435
G01 X21.2076 Y33.3258
G01 X21.1351 Y33.2821
G01 X21.1074 Y33.2664
G01 X21.0932 Y33.2591
G01 X21.0023 Y33.2160
G01 X20.9728 Y33.2038
G01 X20.9263 Y33.1870
G01 X20.9728 Y33.1702
G01 X21.0023 Y33.1580
G01 X21.0932 Y33.1149
G01 X21.1214 Y33.0999
G01 X21.1351 Y33.0919
G01 X21.2076 Y33.0482
G01 X21.2342 Y33.0305
G01 X21.2471 Y33.0211
G01 X21.3023 Y32.9802
G01 X21.3274 Y32.9606
G01 X21.3516 Y32.9397
G01 X21.4025 Y32.8936
G01 X21.4256 Y32.8716
G01 X21.4476 Y32.8485
G01 X21.4937 Y32.7976
G01 X21.5146 Y32.7734
G01 X21.5342 Y32.7483
G01 X21.5751 Y32.6931
G01 X21.5845 Y32.6802
G01 X21.6022 Y32.6536
G01 X21.6459 Y32.5811
G01 X21.6616 Y32.5534
G01 X21.6689 Y32.5392
G01 X21.7120 Y32.4483
G01 X21.7242 Y32.4188
G01 X21.7410 Y32.3723
G01 X21.7578 Y32.4188
G01 X21.7700 Y32.4483
G01 X21.8131 Y32.5392
G01 X21.8281 Y32.5674
G01 X21.8361 Y32.5811
G01 X21.8798 Y32.6536
G01 X21.8975 Y32.6802
G01 X21.9069 Y32.6931
G01 X21.9478 Y32.7483
G01 X21.9674 Y32.7734
G01 X21.9883 Y32.7976
G01 X22.0344 Y32.8485
G01 X22.0564 Y32.8716
G01 X22.0795 Y32.8936
G01 X22.1304 Y32.9397
G01 X22.1546 Y32.9606
G01 X22.1797 Y32.9802
G01 X22.2349 Y33.0211
G01 X22.2610 Y33.0395
G01 X22.2744 Y33.0482
G01 X22.3469 Y33.0919
G01 X22.3746 Y33.1076
G01 X22.3888 Y33.1149
G01 X22.4797 Y33.1580
G01 X22.5092 Y33.1702
G01 X22.5557 Y33.1870
G01 X22.5092 Y33.2038
G01 X22.4797 Y33.2160
G01 X22.3888 Y33.2591
G01 X22.3606 Y33.2741
G01 X22.3469 Y33.2821
G01 X22.2744 Y33.3258
G01 X22.2478 Y33.3435
G01 X22.2349 Y33.3529
G01 X22.1797 Y33.3938
G01 X22.1546 Y33.4134
G01 X22.1304 Y33.4343
G01 X22.0795 Y33.4804
G01 X22.0564 Y33.5024
G01 X22.0344 Y33.5255
G01 X21.9883 Y33.5764
G01 X21.9674 Y33.6006
G01 X21.9478 Y33.6257
G01 X21.9069 Y33.6809
G01 X21.8975 Y33.6938
G01 X21.8798 Y33.7204
G01 X21.8361 Y33.7929
G01 X21.8204 Y33.8206
G01 X21.8131 Y33.8348
G01 X21.7700 Y33.9257
G01 X21.7578 Y33.9552
G01 X21.7410 Y34.0017
G00 Z2.0000
G00 X20.9263 Y35.7270
G01 F60.00
G01 Z-0.1000
G01 F80.00
G01 X20.9728 Y35.7102
G01 X21.0023 Y35.6980
G01 X21.0932 Y35.6549
G01 X21.1214 Y35.6399
G01 X21.1351 Y35.6319
G01 X21.2076 Y35.5882
G01 X21.2342 Y35.5705
G01 X21.2471 Y35.5611
G01 X21.3023 Y35.5202
G01 X21.3274 Y35.5006
G01 X21.3516 Y35.4797
G01 X21.4025 Y35.4336
G01 X21.4256 Y35.4116
G01 X21.4476 Y35.3885
G01 X21.4937 Y35.3376
G01 X21.5146 Y35.3134
G01 X21.5342 Y35.2883
G01 X21.5751 Y35.2331
G01 X21.5845 Y35.2202
G01 X21.6022 Y35.1936
G01 X21.6459 Y35.1211
G01 X21.6616 Y35.0934
G01 X21.6689 Y35.0792
G01 X21.7120 Y34.9883
G01 X21.7242 Y34.9588
G01 X21.7410 Y34.9123
G01 X21.7578 Y34.9588
G01 X21.7700 Y34.9883
G01 X21.8131 Y35.0792
G01 X21.8281 Y35.1074
G01 X21.8361 Y35.1211
G01 X21.8798 Y35.1936
G01 X21.8975 Y35.2202
G01 X21.9069 Y35.2331
G01 X21.9478 Y35.2883
G01 X21.9674 Y35.3134
G01 X21.9883 Y35.3376
G01 X22.0344 Y35.3885
G01 X22.0564 Y35.4116
G01 X22.0795 Y35.4336
G01 X22.1304 Y35.4797
G01 X22.1546 Y35.5006
G01 X22.1797 Y35.5202
G01 X22.2349 Y35.5611
G01 X22.2610 Y35.5795
G01 X22.2744 Y35.5882
G01 X22.3469 Y35.6319
G01 X22.3746 Y35.6476
G01 X22.3888 Y35.6549
G01 X22.4797 Y35.6980
G01 X22.5092 Y35.7102
G01 X22.5557 Y35.7270
G01 X22.5092 Y35.7438
G01 X22.4797 Y35.7560
G01 X22.3888 Y35.7991
G01 X22.3606 Y35.8141
G01 X22.3469 Y35.8221
G01 X22.2744 Y35.8658
G01 X22.2478 Y35.8835
G01 X22.2349 Y35.8929
G01 X22.1797 Y35.9338
G01 X22.1546 Y35.9534
G01 X22.1304 Y35.9743
G01 X22.0795 Y36.0204
G01 X22.0564 Y36.0424
G01 X22.0344 Y36.0655
G01 X21.9883 Y36.1164
G01 X21.9674 Y36.1406
G01 X21.9478 Y36.1657
G01 X21.9069 Y36.2209
G01 X21.8975 Y36.2338
G01 X21.8798 Y36.2604
G01 X21.8361 Y36.3329
G01 X21.8204 Y36.3606
G01 X21.8131 Y36.3748
G01 X21.7700 Y36.4657
G01 X21.7578 Y36.4952
G01 X21.7410 Y36.5417
G01 X21.7242 Y36.4952
G01 X21.7120 Y36.4657
G01 X21.6689 Y36.3748
G01 X21.6539 Y36.3466
G01 X21.6459 Y36.3329
G01 X21.6022 Y36.2604
G01 X21.5845 Y36.2338
G01 X21.5751 Y36.2209
G01 X21.5342 Y36.1657
G01 X21.5146 Y36.1406
G01 X21.4937 Y36.1164
G01 X21.4476 Y36.0655
G01 X21.4256 Y36.0424
G01 X21.4025 Y36.0204
G01 X21.3516 Y35.9743
G01 X21.3274 Y35.9534
G01 X21.3023 Y35.9338
G01 X21.2471 Y35.8929
G01 X21.2342 Y35.8835
G01 X21.2076 Y35.8658
G01 X21.1351 Y35.8221
G01 X21.1074 Y35.8064
G01 X21.0932 Y35.7991
G01 X21.0023 Y35.7560
G01 X20.9728 Y35.7438
G01 X20.9263 Y35.7270
G00 Z2.0000
G00 X21.7410 Y37.4523
G01 F60.00
G01 Z-0.1000
G01 F80.00
G01 X21.7578 Y37.4988
G01 X21.7700 Y37.5283
G01 X21.8131 Y37.6192
G01 X21.8281 Y37.6474
G01 X21.8361 Y37.6611
G01 X21.8798 Y37.7336
G01 X21.8975 Y37.7602
G01 X21.9069 Y37.7731
G01 X21.9478 Y37.8283
G01 X21.9674 Y37.8534
G01 X21.9883 Y37.8776
G01 X22.0344 Y37.9285
G01 X22.0564 Y37.9516
G01 X22.0795 Y37.9736
G01 X22.1304 Y38.0197
G01 X22.1546 Y38.0406
G01 X22.1797 Y38.0602
G01 X22.2349 Y38.1011
G01 X22.2610 Y38.1195
G01 X22.2744 Y38.1282
G01 X22.3469 Y38.1719
G01 X22.3746 Y38.1876
G01 X22.3888 Y38.1949
G01 X22.4797 Y38.2380
G01 X22.5092 Y38.2502
G01 X22.5557 Y38.2670
G01 X22.5092 Y38.2838
G01 X22.4797 Y38.2960
G01 X22.3888 Y38.3391
G01 X22.3606 Y38.3541
G01 X22.3469 Y38.3621
G01 X22.2744 Y38.4058
G01 X22.2478 Y38.4235
G01 X22.2349 Y38.4329
G01 X22.1797 Y38.4738
G01 X22.1546 Y38.4934
G01 X22.1304 Y38.5143
G01 X22.0795 Y38.5604
G01 X22.0564 Y38.5824
G01 X22.0344 Y38.6055
G01 X21.9883 Y38.6564
G01 X21.9674 Y38.6806
G01 X21.9478 Y38.7057
G01 X21.9069 Y38.7609
G01 X21.8975 Y38.7738
G01 X21.8798 Y38.8004
G01 X21.8361 Y38.8729
G01 X21.8204 Y38.9006
G01 X21.8131 Y38.9148
G01 X21.7700 Y39.0057
G01 X21.7578 Y39.0352
G01 X21.7410 Y39.0817
G01 X21.7242 Y39.0352
G01 X21.7120 Y39.0057
G01 X21.6689 Y38.9148
G01 X21.6539 Y38.8866
G01 X21.6459 Y38.8729
G01 X21.6022 Y38.8004
G01 X21.5845 Y38.7738
G01 X21.5751 Y38.7609
G01 X21.5342 Y38.7057
G01 X21.5146 Y38.6806
G01 X21.4937 Y38.6564
G01 X21.4476 Y38.6055
G01 X21.4256 Y38.5824
G01 X21.4025 Y38.5604
G01 X21.3516 Y38.5143
G01 X21.3274 Y38.4934
G01 X21.3023 Y38.4738
G01 X21.2471 Y38.4329
G01 X21.2342 Y38.4235
G01 X21.2076 Y38.4058
G01 X21.1351 Y38.3621
G01 X21.1074 Y38.3464
G01 X21.0932 Y38.3391
G01 X21.0023 Y38.2960
G01 X20.9728 Y38.2838
G01 X20.9263 Y38.2670
G01 X20.9728 Y38.2502
G01 X21.0023 Y38.2380
G01 X21.0932 Y38.1949
G01 X21.1214 Y38.1799
G01 X21.1351 Y38.1719
G01 X21.2076 Y38.1282
G01 X21.2342 Y38.1105
G01 X21.2471 Y38.1011
G01 X21.3023 Y38.0602
G01 X21.3274 Y38.0406
G01 X21.3516 Y38.0197
G01 X21.4025 Y37.9736
G01 X21.4256 Y37.9516
G01 X21.4476 Y37.9285
G01 X21.4937 Y37.8776
G01 X21.5146 Y37.8534
G01 X21.5342 Y37.8283
G01 X21.5751 Y37.7731
G01 X21.5845 Y37.7602
G01 X21.6022 Y37.7336
G01 X21.6459 Y37.6611
G01 X21.6616 Y37.6334
G01 X21.6689 Y37.6192
G01 X21.7120 Y37.5283
G01 X21.7242 Y37.4988
G01 X21.7410 Y37.4523
G00 Z2.0000
G00 X21.7410 Y39.9923
G01 F60.00
G01 Z-0.1000
G01 F80.00
G01 X21.7578 Y40.0388
G01 X21.7700 Y40.0683
G01 X21.8131 Y40.1592
G01 X21.8281 Y40.1874
G01 X21.8361 Y40.2011
G01 X21.8798 Y40.2736
G01 X21.8975 Y40.3002
G01 X21.9069 Y40.3131
G01 X21.9478 Y40.3683
G01 X21.9674 Y40.3934
G01 X21.9883 Y40.4176
G01 X22.0344 Y40.4685
G01 X22.0564 Y40.4916
G01 X22.0795 Y40.5136
G01 X22.1304 Y40.5597
G01 X22.1546 Y40.5806
G01 X22.1797 Y40.6002
G01 X22.2349 Y40.6411
G01 X22.2610 Y40.6595
G01 X22.2744 Y40.6682
G01 X22.3469 Y40.7119
G01 X22.3746 Y40.7276
G01 X22.3888 Y40.7349
G01 X22.4797 Y40.7780
G01 X22.5092 Y40.7902
G01 X22.5557 Y40.8070
G01 X22.5092 Y40.8238
G01 X22.4797 Y40.8360
G01 X22.3888 Y40.8791
G01 X22.3606 Y40.8941
G01 X22.3469 Y40.9021
G01 X22.2744 Y40.9458
G01 X22.2478 Y40.9635
G01 X22.2349 Y40.9729
G01 X22.1797 Y41.0138
G01 X22.1546 Y41.0334
G01 X22.1304 Y41.0543
G01 X22.0795 Y41.1004
G01 X22.0564 Y41.1224
G01 X22.0344 Y41.1455
G01 X21.9883 Y41.1964
G01 X21.9674 Y41.2206
G01 X21.9478 Y41.2457
G01 X21.9069 Y41.3009
G01 X21.8975 Y41.3138
G01 X21.8798 Y41.3404
G01 X21.8361 Y41.4129
G01 X21.8204 Y41.4406
G01 X21.8131 Y41.4548
G01 X21.7700 Y41.5457
G01 X21.7578 Y41.5752
G01 X21.7410 Y41.6217
G01 X21.7242 Y41.5752
G01 X21.7120 Y41.5457
G01 X21.6689 Y41.4548
G01 X21.6539 Y41.4266
G01 X21.6459 Y41.4129
G01 X21.6022 Y41.3404
G01 X21.5845 Y41.3138
G01 X21.5751 Y41.3009
G01 X21.5342 Y41.2457
G01 X21.5146 Y41.2206
G01 X21.4937 Y41.1964
G01 X21.4476 Y41.1455
G01 X21.4256 Y41.1224
G01 X21.4025 Y41.1004
G01 X21.3516 Y41.0543
G01 X21.3274 Y41.0334
G01 X21.3023 Y41.0138
G01 X21.2471 Y40.9729
G01 X21.2342 Y40.9635
G01 X21.2076 Y40.9458
G01 X21.1351 Y40.9021
G01 X21.1074 Y40.8864
G01 X21.0932 Y40.8791
G01 X21.0023 Y40.8360
G01 X20.9728 Y40.8238
G01 X20.9263 Y40.8070
G01 X20.9728 Y40.7902
G01 X21.0023 Y40.7780
G01 X21.0932 Y40.7349
G01 X21.1214 Y40.7199
G01 X21.1351 Y40.7119
G01 X21.2076 Y40.6682
G01 X21.2342 Y40.6505
G01 X21.2471 Y40.6411
G01 X21.3023 Y40.6002
G01 X21.3274 Y40.5806
G01 X21.3516 Y40.5597
G01 X21.4025 Y40.5136
G01 X21.4256 Y40.4916
G01 X21.4476 Y40.4685
G01 X21.4937 Y40.4176
G01 X21.5146 Y40.3934
G01 X21.5342 Y40.3683
G01 X21.5751 Y40.3131
G01 X21.5845 Y40.3002
G01 X21.6022 Y40.2736
G01 X21.6459 Y40.2011
G01 X21.6616 Y40.1734
G01 X21.6689 Y40.1592
G01 X21.7120 Y40.0683
G01 X21.7242 Y40.0388
G01 X21.7410 Y39.9923
G00 Z2.0000
G00 X18.5762 Y39.8536
G01 F60.00
G01 Z-0.1000
G01 F80.00
G01 X18.5638 Y39.8186
G01 X18.5602 Y39.8069
G01 X18.5405 Y39.7283
G01 X18.5372 Y39.7102
G01 X18.5263 Y39.6362
G01 X18.5247 Y39.6179
G01 X18.5213 Y39.5493
G01 X18.5210 Y39.5370
G01 X18.5213 Y39.5247
G01 X18.5250 Y39.4500
G01 X18.5271 Y39.4317
G01 X18.5372 Y39.3638
G01 X18.5393 Y39.3517
G01 X18.5419 Y39.3397
G01 X18.5586 Y39.2731
G01 X18.5619 Y39.2612
G01 X18.5658 Y39.2496
G01 X18.5889 Y39.1849
G01 X18.5933 Y39.1735
G01 X18.5983 Y39.1622
G01 X18.6277 Y39.1001
G01 X18.6361 Y39.0838
G01 X18.6745 Y39.0196
G01 X18.6811 Y39.0092
G01 X18.6882 Y38.9992
G01 X18.7291 Y38.9440
G01 X18.7366 Y38.9343
G01 X18.7447 Y38.9250
G01 X18.7950 Y38.8696
G01 X18.8081 Y38.8568
G01 X18.8590 Y38.8107
G01 X18.8683 Y38.8026
G01 X18.8780 Y38.7951
G01 X18.9332 Y38.7542
G01 X18.9432 Y38.7471
G01 X18.9536 Y38.7405
G01 X19.0125 Y38.7052
G01 X19.0232 Y38.6992
G01 X19.0341 Y38.6937
G01 X19.0962 Y38.6643
G01 X19.1075 Y38.6593
G01 X19.1189 Y38.6549
G01 X19.1836 Y38.6318
G01 X19.1952 Y38.6279
G01 X19.2071 Y38.6246
G01 X19.2737 Y38.6079
G01 X19.2917 Y38.6041
G01 X19.3657 Y38.5931
G01 X19.3779 Y38.5916
G01 X19.3901 Y38.5907
G01 X19.4649 Y38.5871
G01 X20.4771 Y38.5871
G01 X20.5519 Y38.5907
G01 X20.5641 Y38.5916
G01 X20.5763 Y38.5931
G01 X20.6442 Y38.6032
G01 X20.6563 Y38.6053
G01 X20.6683 Y38.6079
G01 X20.7409 Y38.6262
G01 X20.7584 Y38.6318
G01 X20.8231 Y38.6549
G01 X20.8345 Y38.6593
G01 X20.8458 Y38.6643
G01 X20.9079 Y38.6937
G01 X20.9188 Y38.6992
G01 X20.9295 Y38.7052
G01 X20.9884 Y38.7405
G01 X20.9988 Y38.7471
G01 X21.0088 Y38.7542
G01 X21.0640 Y38.7951
G01 X21.0737 Y38.8026
G01 X21.0830 Y38.8107
G01 X21.1339 Y38.8568
G01 X21.1428 Y38.8652
G01 X21.1512 Y38.8741
G01 X21.1973 Y38.9250
G01 X21.2054 Y38.9343
G01 X21.2129 Y38.9440
G01 X21.2538 Y38.9992
G01 X21.2609 Y39.0092
G01 X21.2675 Y39.0196
G01 X21.3028 Y39.0785
G01 X21.3088 Y39.0892
G01 X21.3143 Y39.1001
G01 X21.3437 Y39.1622
G01 X21.3487 Y39.1735
G01 X21.3531 Y39.1849
G01 X21.3762 Y39.2496
G01 X21.3801 Y39.2612
G01 X21.3834 Y39.2731
G01 X21.4001 Y39.3397
G01 X21.4039 Y39.3577
G01 X21.4149 Y39.4317
G01 X21.4164 Y39.4439
G01 X21.4173 Y39.4561
G01 X21.4207 Y39.5247
G01 X21.4210 Y39.5370
G01 X21.4207 Y39.5493
G01 X21.4173 Y39.6179
G01 X21.4164 Y39.6301
G01 X21.4149 Y39.6423
G01 X21.4048 Y39.7102
G01 X21.4027 Y39.7223
G01 X21.4001 Y39.7343
G01 X21.3834 Y39.8009
G01 X21.3801 Y39.8128
G01 X21.3762 Y39.8244
G01 X21.3531 Y39.8891
G01 X21.3487 Y39.9005
G01 X21.3437 Y39.9118
G01 X21.3143 Y39.9739
G01 X21.3088 Y39.9848
G01 X21.3028 Y39.9955
G01 X21.2675 Y40.0544
G01 X21.2609 Y40.0648
G01 X21.2538 Y40.0748
G01 X21.2129 Y40.1300
G01 X21.2054 Y40.1397
G01 X21.1973 Y40.1490
G01 X21.1512 Y40.1999
G01 X21.1428 Y40.2088
G01 X21.1339 Y40.2172
G01 X21.0830 Y40.2633
G01 X21.0737 Y40.2714
G01 X21.0640 Y40.2789
G01 X21.0088 Y40.3198
G01 X20.9988 Y40.3269
G01 X20.9884 Y40.3335
G01 X20.9295 Y40.3688
G01 X20.9188 Y40.3748
G01 X20.9079 Y40.3803
G01 X20.8458 Y40.4097
G01 X20.8345 Y40.4147
G01 X20.8231 Y40.4191
G01 X20.7584 Y40.4422
G01 X20.7468 Y40.4461
G01 X20.7349 Y40.4494
G01 X20.6683 Y40.4661
G01 X20.6563 Y40.4687
G01 X20.6442 Y40.4708
G01 X20.5702 Y40.4817
G01 X20.5519 Y40.4833
G01 X20.4833 Y40.4867
G01 X20.4710 Y40.4870
G01 X19.4710 Y40.4870
G01 X19.4587 Y40.4867
G01 X19.3901 Y40.4833
G01 X19.3779 Y40.4824
G01 X19.3637 Y40.4806
G01 X16.2226 Y43.6218
G01 X16.2226 Y56.8142
G01 X23.8472 Y64.4389
G01 X27.4078 Y64.4389
G01 X29.4671 Y62.3796
G01 X29.4624 Y62.3606
G01 X29.4600 Y62.3486
G01 X29.4460 Y62.2539
G01 X29.4444 Y62.2356
G01 X29.4401 Y62.1461
G01 X29.4400 Y61.1400
G01 X29.4403 Y61.1277
G01 X29.4444 Y61.0444
G01 X29.4453 Y61.0322
G01 X29.4468 Y61.0200
G01 X29.4590 Y60.9375
G01 X29.4611 Y60.9254
G01 X29.4638 Y60.9134
G01 X29.4841 Y60.8325
G01 X29.4874 Y60.8207
G01 X29.4912 Y60.8090
G01 X29.5193 Y60.7305
G01 X29.5237 Y60.7190
G01 X29.5287 Y60.7078
G01 X29.5644 Y60.6324
G01 X29.5699 Y60.6215
G01 X29.5759 Y60.6108
G01 X29.6188 Y60.5392
G01 X29.6254 Y60.5289
G01 X29.6324 Y60.5188
G01 X29.6821 Y60.4518
G01 X29.6897 Y60.4422
G01 X29.6977 Y60.4329
G01 X29.7537 Y60.3711
G01 X29.7622 Y60.3622
G01 X29.7711 Y60.3537
G01 X29.8329 Y60.2977
G01 X29.8422 Y60.2897
G01 X29.8518 Y60.2821
G01 X29.9188 Y60.2324
G01 X29.9289 Y60.2254
G01 X29.9392 Y60.2188
G01 X30.0108 Y60.1759
G01 X30.0215 Y60.1699
G01 X30.0324 Y60.1644
G01 X30.1078 Y60.1287
G01 X30.1190 Y60.1237
G01 X30.1305 Y60.1193
G01 X30.2090 Y60.0912
G01 X30.2207 Y60.0874
G01 X30.2325 Y60.0841
G01 X30.3134 Y60.0638
G01 X30.3254 Y60.0611
G01 X30.3375 Y60.0590
G01 X30.4200 Y60.0468
G01 X30.4322 Y60.0453
G01 X30.4444 Y60.0444
G01 X30.5277 Y60.0403
G01 X30.5400 Y60.0400
G01 X30.5523 Y60.0403
G01 X30.6356 Y60.0444
G01 X30.6478 Y60.0453
G01 X30.6600 Y60.0468
G01 X30.7425 Y60.0590
G01 X30.7546 Y60.0611
G01 X30.7666 Y60.0638
G01 X30.8475 Y60.0841
G01 X30.8593 Y60.0874
G01 X30.8710 Y60.0912
G01 X30.9495 Y60.1193
G01 X30.9610 Y60.1237
G01 X30.9722 Y60.1287
G01 X31.0476 Y60.1644
G01 X31.0585 Y60.1699
G01 X31.0692 Y60.1759
G01 X31.1408 Y60.2188
G01 X31.1511 Y60.2254
G01 X31.1612 Y60.2324
G01 X31.2282 Y60.2821
G01 X31.2378 Y60.2897
G01 X31.2471 Y60.2977
G01 X31.3089 Y60.3537
G01 X31.3178 Y60.3622
G01 X31.3263 Y60.3711
G01 X31.3823 Y60.4329
G01 X31.3903 Y60.4422
G01 X31.3979 Y60.4518
G01 X31.4476 Y60.5188
G01 X31.4546 Y60.5289
G01 X31.4612 Y60.5392
G01 X31.5041 Y60.6108
G01 X31.5101 Y60.6215
G01 X31.5156 Y60.6324
G01 X31.5513 Y60.7078
G01 X31.5563 Y60.7190
G01 X31.5607 Y60.7305
G01 X31.5888 Y60.8090
G01 X31.5926 Y60.8207
G01 X31.5959 Y60.8325
G01 X31.6162 Y60.9134
G01 X31.6189 Y60.9254
G01 X31.6210 Y60.9375
G01 X31.6332 Y61.0200
G01 X31.6347 Y61.0322
G01 X31.6356 Y61.0444
G01 X31.6397 Y61.1277
G01 X31.6400 Y61.1400
G01 X31.6400 Y62.1400
G01 X31.6397 Y62.1523
G01 X31.6356 Y62.2356
G01 X31.6347 Y62.2478
G01 X31.6332 Y62.2600
G01 X31.6210 Y62.3425
G01 X31.6189 Y62.3546
G01 X31.6162 Y62.3666
G01 X31.5959 Y62.4475
G01 X31.5926 Y62.4593
G01 X31.5888 Y62.4710
G01 X31.5607 Y62.5495
G01 X31.5563 Y62.5610
G01 X31.5513 Y62.5722
G01 X31.5156 Y62.6476
G01 X31.5101 Y62.6585
G01 X31.5041 Y62.6692
G01 X31.4612 Y62.7408
G01 X31.4546 Y62.7511
G01 X31.4476 Y62.7612
G01 X31.3979 Y62.8282
G01 X31.3903 Y62.8378
G01 X31.3823 Y62.8471
G01 X31.3263 Y62.9089
G01 X31.3178 Y62.9178
G01 X31.3089 Y62.9263
G01 X31.2471 Y62.9823
G01 X31.2378 Y62.9903
G01 X31.2282 Y62.9979
G01 X31.1612 Y63.0476
G01 X31.1511 Y63.0546
G01 X31.1408 Y63.0612
G01 X31.0692 Y63.1041
G01 X31.0585 Y63.1101
G01 X31.0476 Y63.1156
G01 X30.9722 Y63.1513
G01 X30.9610 Y63.1563
G01 X30.9495 Y63.1607
G01 X30.8710 Y63.1888
G01 X30.8593 Y63.1926
G01 X30.8475 Y63.1959
G01 X30.7666 Y63.2162
G01 X30.7546 Y63.2189
G01 X30.7425 Y63.2210
G01 X30.6600 Y63.2332
G01 X30.6478 Y63.2347
G01 X30.6356 Y63.2356
G01 X30.5523 Y63.2397
G01 X30.5400 Y63.2400
G01 X30.5277 Y63.2397
G01 X30.4444 Y63.2356
G01 X30.4322 Y63.2347
G01 X30.4200 Y63.2332
G01 X30.3375 Y63.2210
G01 X30.3254 Y63.2189
G01 X30.3134 Y63.2162
G01 X30.2325 Y63.1959
G01 X30.2207 Y63.1926
G01 X30.2090 Y63.1888
G01 X30.1305 Y63.1607
G01 X30.1190 Y63.1563
G01 X30.1093 Y63.1520
G01 X27.9642 Y65.2970
G01 X27.9322 Y65.3256
G01 X27.9028 Y65.3478
G01 X27.8877 Y65.3582
G01 X27.8614 Y65.3741
G01 X27.8453 Y65.3829
G01 X27.8120 Y65.3987
G01 X27.7949 Y65.4055
G01 X27.7601 Y65.4176
G01 X27.7245 Y65.4269
G01 X27.7125 Y65.4295
G01 X27.7004 Y65.4316
G01 X27.6640 Y65.4367
G01 X27.6272 Y65.4389
G01 X27.6149 Y65.4392
G01 X23.6401 Y65.4392
G01 X23.5972 Y65.4373
G01 X23.5789 Y65.4352
G01 X23.5425 Y65.4295
G01 X23.5305 Y65.4269
G01 X23.4949 Y65.4176
G01 X23.4601 Y65.4055
G01 X23.4487 Y65.4011
G01 X23.4153 Y65.3856
G01 X23.3989 Y65.3771
G01 X23.3622 Y65.3549
G01 X23.3522 Y65.3478
G01 X23.3228 Y65.3256
G01 X23.2953 Y65.3011
G01 X23.2864 Y65.2927
G01 X15.3688 Y57.3750
G01 X15.3603 Y57.3662
G01 X15.3358 Y57.3387
G01 X15.3137 Y57.3093
G01 X15.3033 Y57.2941
G01 X15.2874 Y57.2678
G01 X15.2785 Y57.2517
G01 X15.2628 Y57.2184
G01 X15.2560 Y57.2013
G01 X15.2439 Y57.1666
G01 X15.2346 Y57.1309
G01 X15.2319 Y57.1190
G01 X15.2298 Y57.1069
G01 X15.2247 Y57.0704
G01 X15.2226 Y57.0337
G01 X15.2223 Y57.0214
G01 X15.2223 Y43.4146
G01 X15.2226 Y43.4023
G01 X15.2247 Y43.3656
G01 X15.2298 Y43.3291
G01 X15.2319 Y43.3170
G01 X15.2406 Y43.2813
G01 X15.2439 Y43.2694
G01 X15.2560 Y43.2347
G01 X15.2628 Y43.2176
G01 X15.2814 Y43.1788
G01 X15.3033 Y43.1419
G01 X15.3137 Y43.1267
G01 X15.3358 Y43.0973
G01 X15.3645 Y43.0654
G01 X18.5762 Y39.8536
G00 Z2.0000
G00 X18.6642 Y41.5769
G01 F60.00
G01 Z-0.1000
G01 F80.00
G01 X18.6778 Y41.5544
G01 X18.6846 Y41.5441
G01 X18.7328 Y41.4791
G01 X18.7447 Y41.4650
G01 X18.7950 Y41.4096
G01 X18.8081 Y41.3968
G01 X18.8590 Y41.3507
G01 X18.8683 Y41.3426
G01 X18.8780 Y41.3351
G01 X18.9381 Y41.2906
G01 X18.9536 Y41.2805
G01 X19.0125 Y41.2452
G01 X19.0232 Y41.2392
G01 X19.0341 Y41.2337
G01 X19.0962 Y41.2043
G01 X19.1075 Y41.1993
G01 X19.1189 Y41.1949
G01 X19.1836 Y41.1718
G01 X19.1952 Y41.1679
G01 X19.2071 Y41.1646
G01 X19.2797 Y41.1465
G01 X19.2978 Y41.1432
G01 X19.3657 Y41.1331
G01 X19.3779 Y41.1316
G01 X19.3901 Y41.1307
G01 X19.4587 Y41.1273
G01 X19.4710 Y41.1270
G01 X20.4771 Y41.1271
G01 X20.5519 Y41.1307
G01 X20.5641 Y41.1316
G01 X20.5763 Y41.1331
G01 X20.6442 Y41.1432
G01 X20.6623 Y41.1465
G01 X20.7349 Y41.1646
G01 X20.7468 Y41.1679
G01 X20.7584 Y41.1718
G01 X20.8231 Y41.1949
G01 X20.8345 Y41.1993
G01 X20.8458 Y41.2043
G01 X20.9079 Y41.2337
G01 X20.9188 Y41.2392
G01 X20.9295 Y41.2452
G01 X20.9884 Y41.2805
G01 X20.9988 Y41.2871
G01 X21.0088 Y41.2942
G01 X21.0640 Y41.3351
G01 X21.0737 Y41.3426
G01 X21.0830 Y41.3507
G01 X21.1339 Y41.3968
G01 X21.1428 Y41.4052
G01 X21.1512 Y41.4141
G01 X21.1973 Y41.4650
G01 X21.2054 Y41.4743
G01 X21.2129 Y41.4840
G01 X21.2538 Y41.5392
G01 X21.2609 Y41.5492
G01 X21.2675 Y41.5596
G01 X21.3059 Y41.6238
G01 X21.3143 Y41.6401
G01 X21.3437 Y41.7022
G01 X21.3487 Y41.7135
G01 X21.3531 Y41.7249
G01 X21.3782 Y41.7954
G01 X21.3834 Y41.8131
G01 X21.4001 Y41.8797
G01 X21.4027 Y41.8917
G01 X21.4048 Y41.9038
G01 X21.4149 Y41.9717
G01 X21.4164 Y41.9839
G01 X21.4173 Y41.9961
G01 X21.4207 Y42.0647
G01 X21.4210 Y42.0770
G01 X21.4207 Y42.0893
G01 X21.4173 Y42.1579
G01 X21.4164 Y42.1701
G01 X21.4149 Y42.1823
G01 X21.4048 Y42.2502
G01 X21.4027 Y42.2623
G01 X21.4001 Y42.2743
G01 X21.3834 Y42.3409
G01 X21.3782 Y42.3586
G01 X21.3531 Y42.4291
G01 X21.3487 Y42.4405
G01 X21.3437 Y42.4518
G01 X21.3143 Y42.5139
G01 X21.3088 Y42.5248
G01 X21.3028 Y42.5355
G01 X21.2675 Y42.5944
G01 X21.2609 Y42.6048
G01 X21.2538 Y42.6148
G01 X21.2129 Y42.6700
G01 X21.2054 Y42.6797
G01 X21.1973 Y42.6890
G01 X21.1512 Y42.7399
G01 X21.1428 Y42.7488
G01 X21.1339 Y42.7572
G01 X21.0784 Y42.8074
G01 X21.0640 Y42.8189
G01 X21.0088 Y42.8598
G01 X20.9988 Y42.8669
G01 X20.9884 Y42.8735
G01 X20.9295 Y42.9088
G01 X20.9188 Y42.9148
G01 X20.9079 Y42.9203
G01 X20.8458 Y42.9497
G01 X20.8345 Y42.9547
G01 X20.8231 Y42.9591
G01 X20.7584 Y42.9822
G01 X20.7468 Y42.9861
G01 X20.7349 Y42.9894
G01 X20.6683 Y43.0061
G01 X20.6503 Y43.0099
G01 X20.5763 Y43.0209
G01 X20.5641 Y43.0224
G01 X20.5519 Y43.0233
G01 X20.4833 Y43.0267
G01 X20.4710 Y43.0270
G01 X19.4649 Y43.0269
G01 X19.3901 Y43.0233
G01 X19.3779 Y43.0224
G01 X19.3657 Y43.0209
G01 X19.2917 Y43.0099
G01 X19.2737 Y43.0061
G01 X19.2071 Y42.9894
G01 X19.1952 Y42.9861
G01 X19.1836 Y42.9822
G01 X19.1189 Y42.9591
G01 X19.1075 Y42.9547
G01 X19.0962 Y42.9497
G01 X19.0341 Y42.9203
G01 X19.0232 Y42.9148
G01 X19.0125 Y42.9088
G01 X18.9536 Y42.8735
G01 X18.9432 Y42.8669
G01 X18.9332 Y42.8598
G01 X18.8731 Y42.8152
G01 X18.8590 Y42.8033
G01 X18.8081 Y42.7572
G01 X18.7950 Y42.7444
G01 X18.7447 Y42.6890
G01 X18.7366 Y42.6797
G01 X18.7292 Y42.6701
G01 X17.3221 Y44.0772
G01 X17.3221 Y56.3588
G01 X24.3027 Y63.3394
G01 X26.9524 Y63.3394
G01 X27.3018 Y62.9900
G01 X27.2311 Y62.9263
G01 X27.2222 Y62.9178
G01 X27.2137 Y62.9089
G01 X27.1577 Y62.8471
G01 X27.1497 Y62.8378
G01 X27.1421 Y62.8282
G01 X27.0924 Y62.7612
G01 X27.0854 Y62.7511
G01 X27.0788 Y62.7408
G01 X27.0359 Y62.6692
G01 X27.0299 Y62.6585
G01 X27.0244 Y62.6476
G01 X26.9887 Y62.5722
G01 X26.9837 Y62.5610
G01 X26.9793 Y62.5495
G01 X26.9512 Y62.4710
G01 X26.9474 Y62.4593
G01 X26.9441 Y62.4475
G01 X26.9238 Y62.3666
G01 X26.9211 Y62.3546
G01 X26.9190 Y62.3425
G01 X26.9060 Y62.2539
G01 X26.9044 Y62.2356
G01 X26.9003 Y62.1523
G01 X26.9000 Y62.1400
G01 X26.9000 Y61.1400
G01 X26.9003 Y61.1277
G01 X26.9048 Y61.0383
G01 X26.9068 Y61.0200
G01 X26.9190 Y60.9375
G01 X26.9211 Y60.9254
G01 X26.9238 Y60.9134
G01 X26.9441 Y60.8325
G01 X26.9474 Y60.8207
G01 X26.9512 Y60.8090
G01 X26.9793 Y60.7305
G01 X26.9837 Y60.7190
G01 X26.9887 Y60.7078
G01 X27.0244 Y60.6324
G01 X27.0328 Y60.6161
G01 X27.0788 Y60.5392
G01 X27.0854 Y60.5289
G01 X27.0924 Y60.5188
G01 X27.1421 Y60.4518
G01 X27.1497 Y60.4422
G01 X27.1577 Y60.4329
G01 X27.2137 Y60.3711
G01 X27.2222 Y60.3622
G01 X27.2311 Y60.3537
G01 X27.2929 Y60.2977
G01 X27.3022 Y60.2897
G01 X27.3118 Y60.2821
G01 X27.3788 Y60.2324
G01 X27.3889 Y60.2254
G01 X27.3992 Y60.2188
G01 X27.4708 Y60.1759
G01 X27.4815 Y60.1699
G01 X27.4924 Y60.1644
G01 X27.5678 Y60.1287
G01 X27.5790 Y60.1237
G01 X27.5905 Y60.1193
G01 X27.6690 Y60.0912
G01 X27.6807 Y60.0874
G01 X27.6925 Y60.0841
G01 X27.7734 Y60.0638
G01 X27.7854 Y60.0611
G01 X27.7975 Y60.0590
G01 X27.8800 Y60.0468
G01 X27.8922 Y60.0453
G01 X27.9044 Y60.0444
G01 X27.9877 Y60.0403
G01 X28.0000 Y60.0400
G01 X28.0123 Y60.0403
G01 X28.0956 Y60.0444
G01 X28.1078 Y60.0453
G01 X28.1200 Y60.0468
G01 X28.2025 Y60.0590
G01 X28.2146 Y60.0611
G01 X28.2266 Y60.0638
G01 X28.3075 Y60.0841
G01 X28.3193 Y60.0874
G01 X28.3310 Y60.0912
G01 X28.4095 Y60.1193
G01 X28.4210 Y60.1237
G01 X28.4322 Y60.1287
G01 X28.5076 Y60.1644
G01 X28.5185 Y60.1699
G01 X28.5292 Y60.1759
G01 X28.6008 Y60.2188
G01 X28.6111 Y60.2254
G01 X28.6212 Y60.2324
G01 X28.6930 Y60.2859
G01 X28.7071 Y60.2977
G01 X28.7689 Y60.3537
G01 X28.7778 Y60.3622
G01 X28.7863 Y60.3711
G01 X28.8423 Y60.4329
G01 X28.8503 Y60.4422
G01 X28.8579 Y60.4518
G01 X28.9076 Y60.5188
G01 X28.9146 Y60.5289
G01 X28.9212 Y60.5392
G01 X28.9641 Y60.6108
G01 X28.9701 Y60.6215
G01 X28.9756 Y60.6324
G01 X29.0113 Y60.7078
G01 X29.0163 Y60.7190
G01 X29.0207 Y60.7305
G01 X29.0488 Y60.8090
G01 X29.0526 Y60.8207
G01 X29.0559 Y60.8325
G01 X29.0762 Y60.9134
G01 X29.0800 Y60.9314
G01 X29.0932 Y61.0200
G01 X29.0947 Y61.0322
G01 X29.0956 Y61.0444
G01 X29.0999 Y61.1339
G01 X29.0999 Y62.1461
G01 X29.0956 Y62.2356
G01 X29.0947 Y62.2478
G01 X29.0932 Y62.2600
G01 X29.0810 Y62.3425
G01 X29.0789 Y62.3546
G01 X29.0762 Y62.3666
G01 X29.0559 Y62.4475
G01 X29.0508 Y62.4652
G01 X29.0207 Y62.5495
G01 X29.0163 Y62.5610
G01 X29.0113 Y62.5722
G01 X28.9756 Y62.6476
G01 X28.9701 Y62.6585
G01 X28.9641 Y62.6692
G01 X28.9212 Y62.7408
G01 X28.9146 Y62.7511
G01 X28.9076 Y62.7612
G01 X28.8579 Y62.8282
G01 X28.8503 Y62.8378
G01 X28.8423 Y62.8471
G01 X28.7863 Y62.9089
G01 X28.7778 Y62.9178
G01 X28.7689 Y62.9263
G01 X28.7071 Y62.9823
G01 X28.6978 Y62.9903
G01 X28.6882 Y62.9979
G01 X28.6162 Y63.0511
G01 X28.6008 Y63.0612
G01 X28.5239 Y63.1072
G01 X28.5131 Y63.1129
G01 X28.4832 Y63.1272
G01 X28.4803 Y63.1383
G01 X28.4767 Y63.1500
G01 X28.4643 Y63.1847
G01 X28.4596 Y63.1961
G01 X28.4466 Y63.2238
G01 X28.4381 Y63.2402
G01 X28.4158 Y63.2769
G01 X28.3942 Y63.3066
G01 X28.3827 Y63.3210
G01 X28.3579 Y63.3483
G01 X27.5088 Y64.1974
G01 X27.4768 Y64.2261
G01 X27.4474 Y64.2483
G01 X27.4374 Y64.2553
G01 X27.4059 Y64.2745
G01 X27.3953 Y64.2806
G01 X27.3621 Y64.2966
G01 X27.3452 Y64.3038
G01 X27.3047 Y64.3181
G01 X27.2691 Y64.3273
G01 X27.2571 Y64.3300
G01 X27.2450 Y64.3321
G01 X27.2085 Y64.3372
G01 X27.1718 Y64.3393
G01 X27.1595 Y64.3396
G01 X24.0894 Y64.3396
G01 X24.0465 Y64.3372
G01 X24.0100 Y64.3321
G01 X23.9919 Y64.3288
G01 X23.9503 Y64.3181
G01 X23.9156 Y64.3060
G01 X23.9041 Y64.3016
G01 X23.8707 Y64.2861
G01 X23.8598 Y64.2806
G01 X23.8491 Y64.2745
G01 X23.8228 Y64.2587
G01 X23.8126 Y64.2519
G01 X23.7782 Y64.2261
G01 X23.7508 Y64.2016
G01 X23.7419 Y64.1932
G01 X16.4683 Y56.9196
G01 X16.4599 Y56.9107
G01 X16.4354 Y56.8832
G01 X16.4132 Y56.8538
G01 X16.4061 Y56.8438
G01 X16.3996 Y56.8334
G01 X16.3809 Y56.8017
G01 X16.3649 Y56.7686
G01 X16.3576 Y56.7517
G01 X16.3434 Y56.7111
G01 X16.3341 Y56.6755
G01 X16.3314 Y56.6635
G01 X16.3293 Y56.6514
G01 X16.3242 Y56.6150
G01 X16.3221 Y56.5782
G01 X16.3218 Y56.5660
G01 X16.3218 Y43.8700
G01 X16.3221 Y43.8578
G01 X16.3242 Y43.8210
G01 X16.3293 Y43.7846
G01 X16.3314 Y43.7725
G01 X16.3341 Y43.7605
G01 X16.3417 Y43.7308
G01 X16.3452 Y43.7190
G01 X16.3599 Y43.6787
G01 X16.3781 Y43.6397
G01 X16.3838 Y43.6289
G01 X16.3996 Y43.6026
G01 X16.4061 Y43.5922
G01 X16.4132 Y43.5822
G01 X16.4354 Y43.5528
G01 X16.4640 Y43.5208
G01 X18.2657 Y41.7191
G01 X18.2884 Y41.6984
G01 X18.3025 Y41.6866
G01 X18.3321 Y41.6646
G01 X18.3475 Y41.6546
G01 X18.3739 Y41.6389
G01 X18.3902 Y41.6304
G01 X18.4236 Y41.6149
G01 X18.4582 Y41.6023
G01 X18.4757 Y41.5967
G01 X18.5114 Y41.5878
G01 X18.5295 Y41.5844
G01 X18.5599 Y41.5800
G01 X18.5782 Y41.5784
G01 X18.6089 Y41.5770
G01 X18.6642 Y41.5769
G00 Z2.0000
G00 X15.5230 Y42.3410
G01 F60.00
G01 Z-0.1000
G01 F80.00
G01 X15.5230 Y41.8699
G01 X18.1551 Y39.2379
G01 X18.1502 Y39.2580
G01 X18.1440 Y39.2893
G01 X18.1293 Y39.3888
G01 X18.1261 Y39.4206
G01 X18.1218 Y39.5051
G01 X18.1212 Y39.5210
G01 X18.1212 Y39.5530
G01 X18.1252 Y39.6375
G01 X18.1275 Y39.6693
G01 X18.1293 Y39.6852
G01 X18.1355 Y39.7286
G01 X15.5230 Y42.3410
G00 Z2.0000
G00 X17.7221 Y45.2529
G01 F60.00
G01 Z-0.1000
G01 F80.00
G01 X17.7221 Y44.2429
G01 X18.7482 Y43.2167
G01 X18.8206 Y43.2599
G01 X18.8346 Y43.2676
G01 X18.8631 Y43.2819
G01 X18.9252 Y43.3113
G01 X18.9544 Y43.3242
G01 X18.9841 Y43.3357
G01 X19.0157 Y43.3470
G01 X18.9692 Y43.3638
G01 X18.9397 Y43.3760
G01 X18.8631 Y43.4121
G01 X18.8488 Y43.4191
G01 X18.8206 Y43.4341
G01 X18.7479 Y43.4774
G01 X18.7210 Y43.4945
G01 X18.6949 Y43.5129
G01 X18.6270 Y43.5635
G01 X18.6024 Y43.5837
G01 X18.5395 Y43.6404
G01 X18.5164 Y43.6624
G01 X18.4944 Y43.6855
G01 X18.4483 Y43.7364
G01 X18.4274 Y43.7606
G01 X18.4078 Y43.7857
G01 X18.3669 Y43.8409
G01 X18.3485 Y43.8670
G01 X18.3314 Y43.8939
G01 X18.2961 Y43.9529
G01 X18.2804 Y43.9806
G01 X18.2661 Y44.0091
G01 X18.2367 Y44.0712
G01 X18.2238 Y44.1004
G01 X18.2123 Y44.1301
G01 X18.1891 Y44.1948
G01 X18.1791 Y44.2251
G01 X18.1706 Y44.2559
G01 X18.1502 Y44.3380
G01 X18.1440 Y44.3693
G01 X18.1415 Y44.3851
G01 X18.1314 Y44.4530
G01 X18.1275 Y44.4847
G01 X18.1252 Y44.5165
G01 X18.1212 Y44.6010
G01 X18.1212 Y44.6330
G01 X18.1218 Y44.6489
G01 X18.1261 Y44.7334
G01 X18.1293 Y44.7652
G01 X18.1395 Y44.8355
G01 X17.7221 Y45.2529
G00 Z2.0000
G00 X18.5843 Y44.9564
G01 F60.00
G01 Z-0.1000
G01 F80.00
G01 X18.5619 Y44.8928
G01 X18.5586 Y44.8809
G01 X18.5419 Y44.8143
G01 X18.5381 Y44.7963
G01 X18.5271 Y44.7223
G01 X18.5256 Y44.7101
G01 X18.5247 Y44.6979
G01 X18.5213 Y44.6293
G01 X18.5210 Y44.6170
G01 X18.5213 Y44.6047
G01 X18.5250 Y44.5300
G01 X18.5271 Y44.5117
G01 X18.5372 Y44.4438
G01 X18.5393 Y44.4317
G01 X18.5419 Y44.4197
G01 X18.5586 Y44.3531
G01 X18.5619 Y44.3412
G01 X18.5658 Y44.3296
G01 X18.5889 Y44.2649
G01 X18.5933 Y44.2535
G01 X18.5983 Y44.2422
G01 X18.6277 Y44.1801
G01 X18.6361 Y44.1638
G01 X18.6745 Y44.0996
G01 X18.6811 Y44.0892
G01 X18.6882 Y44.0792
G01 X18.7291 Y44.0240
G01 X18.7366 Y44.0143
G01 X18.7447 Y44.0050
G01 X18.7950 Y43.9496
G01 X18.8081 Y43.9368
G01 X18.8590 Y43.8907
G01 X18.8683 Y43.8826
G01 X18.8780 Y43.8751
G01 X18.9332 Y43.8342
G01 X18.9432 Y43.8271
G01 X18.9536 Y43.8205
G01 X19.0125 Y43.7852
G01 X19.0232 Y43.7792
G01 X19.0341 Y43.7737
G01 X19.0962 Y43.7443
G01 X19.1075 Y43.7393
G01 X19.1189 Y43.7349
G01 X19.1836 Y43.7118
G01 X19.1952 Y43.7079
G01 X19.2071 Y43.7046
G01 X19.2737 Y43.6879
G01 X19.2917 Y43.6841
G01 X19.3657 Y43.6731
G01 X19.3779 Y43.6716
G01 X19.3901 Y43.6707
G01 X19.4649 Y43.6671
G01 X20.4771 Y43.6671
G01 X20.5519 Y43.6707
G01 X20.5641 Y43.6716
G01 X20.5763 Y43.6731
G01 X20.6442 Y43.6832
G01 X20.6563 Y43.6853
G01 X20.6683 Y43.6879
G01 X20.7409 Y43.7062
G01 X20.7584 Y43.7118
G01 X20.8231 Y43.7349
G01 X20.8345 Y43.7393
G01 X20.8458 Y43.7443
G01 X20.9079 Y43.7737
G01 X20.9188 Y43.7792
G01 X20.9295 Y43.7852
G01 X20.9884 Y43.8205
G01 X20.9988 Y43.8271
G01 X21.0088 Y43.8342
G01 X21.0640 Y43.8751
G01 X21.0737 Y43.8826
G01 X21.0830 Y43.8907
G01 X21.1339 Y43.9368
G01 X21.1428 Y43.9452
G01 X21.1512 Y43.9541
G01 X21.1973 Y44.0050
G01 X21.2054 Y44.0143
G01 X21.2129 Y44.0240
G01 X21.2538 Y44.0792
G01 X21.2609 Y44.0892
G01 X21.2675 Y44.0996
G01 X21.3028 Y44.1585
G01 X21.3088 Y44.1692
G01 X21.3143 Y44.1801
G01 X21.3437 Y44.2422
G01 X21.3487 Y44.2535
G01 X21.3531 Y44.2649
G01 X21.3762 Y44.3296
G01 X21.3801 Y44.3412
G01 X21.3834 Y44.3531
G01 X21.4001 Y44.4197
G01 X21.4039 Y44.4377
G01 X21.4149 Y44.5117
G01 X21.4164 Y44.5239
G01 X21.4173 Y44.5361
G01 X21.4207 Y44.6047
G01 X21.4210 Y44.6170
G01 X21.4207 Y44.6293
G01 X21.4173 Y44.6979
G01 X21.4164 Y44.7101
G01 X21.4149 Y44.7223
G01 X21.4048 Y44.7902
G01 X21.4027 Y44.8023
G01 X21.4001 Y44.8143
G01 X21.3834 Y44.8809
G01 X21.3801 Y44.8928
G01 X21.3762 Y44.9044
G01 X21.3531 Y44.9691
G01 X21.3487 Y44.9805
G01 X21.3437 Y44.9918
G01 X21.3143 Y45.0539
G01 X21.3088 Y45.0648
G01 X21.3028 Y45.0755
G01 X21.2675 Y45.1344
G01 X21.2609 Y45.1448
G01 X21.2538 Y45.1548
G01 X21.2129 Y45.2100
G01 X21.2054 Y45.2197
G01 X21.1973 Y45.2290
G01 X21.1512 Y45.2799
G01 X21.1428 Y45.2888
G01 X21.1339 Y45.2972
G01 X21.0830 Y45.3433
G01 X21.0737 Y45.3514
G01 X21.0640 Y45.3589
G01 X21.0039 Y45.4034
G01 X20.9884 Y45.4135
G01 X20.9295 Y45.4488
G01 X20.9188 Y45.4548
G01 X20.9079 Y45.4603
G01 X20.8458 Y45.4897
G01 X20.8345 Y45.4947
G01 X20.8231 Y45.4991
G01 X20.7584 Y45.5222
G01 X20.7468 Y45.5261
G01 X20.7349 Y45.5294
G01 X20.6683 Y45.5461
G01 X20.6563 Y45.5487
G01 X20.6442 Y45.5508
G01 X20.5763 Y45.5609
G01 X20.5641 Y45.5624
G01 X20.5519 Y45.5633
G01 X20.4833 Y45.5667
G01 X20.4710 Y45.5670
G01 X19.4710 Y45.5670
G01 X19.4587 Y45.5667
G01 X19.3919 Y45.5634
G01 X18.4216 Y46.5337
G01 X18.4216 Y55.9034
G01 X23.1581 Y60.6399
G01 X24.3600 Y60.6399
G01 X24.3601 Y60.2839
G01 X24.3612 Y60.2655
G01 X24.3637 Y60.2473
G01 X24.3661 Y60.2352
G01 X24.3691 Y60.2233
G01 X24.3746 Y60.2058
G01 X24.3814 Y60.1887
G01 X24.3895 Y60.1722
G01 X24.3988 Y60.1563
G01 X24.4056 Y60.1460
G01 X24.4167 Y60.1314
G01 X24.4289 Y60.1176
G01 X24.4421 Y60.1048
G01 X24.4514 Y60.0967
G01 X24.4660 Y60.0856
G01 X24.4815 Y60.0756
G01 X24.4976 Y60.0667
G01 X24.5087 Y60.0614
G01 X24.5200 Y60.0568
G01 X24.5374 Y60.0508
G01 X24.5493 Y60.0475
G01 X24.5673 Y60.0437
G01 X24.5855 Y60.0412
G01 X24.5977 Y60.0403
G01 X24.6100 Y60.0400
G01 X26.3161 Y60.0401
G01 X26.3284 Y60.0407
G01 X26.3406 Y60.0419
G01 X26.3527 Y60.0437
G01 X26.3648 Y60.0461
G01 X26.3767 Y60.0491
G01 X26.3884 Y60.0526
G01 X26.4057 Y60.0590
G01 X26.4169 Y60.0640
G01 X26.4278 Y60.0695
G01 X26.4437 Y60.0788
G01 X26.4540 Y60.0856
G01 X26.4638 Y60.0929
G01 X26.4779 Y60.1048
G01 X26.4868 Y60.1132
G01 X26.4952 Y60.1221
G01 X26.5071 Y60.1362
G01 X26.5144 Y60.1460
G01 X26.5212 Y60.1563
G01 X26.5275 Y60.1668
G01 X26.5333 Y60.1776
G01 X26.5386 Y60.1887
G01 X26.5432 Y60.2000
G01 X26.5474 Y60.2116
G01 X26.5509 Y60.2233
G01 X26.5539 Y60.2352
G01 X26.5563 Y60.2473
G01 X26.5581 Y60.2594
G01 X26.5593 Y60.2716
G01 X26.5599 Y60.2839
G01 X26.5599 Y62.9961
G01 X26.5588 Y63.0145
G01 X26.5573 Y63.0267
G01 X26.5539 Y63.0448
G01 X26.5492 Y63.0626
G01 X26.5432 Y63.0800
G01 X26.5360 Y63.0969
G01 X26.5275 Y63.1132
G01 X26.5179 Y63.1289
G01 X26.5071 Y63.1438
G01 X26.4952 Y63.1579
G01 X26.4824 Y63.1711
G01 X26.4686 Y63.1833
G01 X26.4540 Y63.1944
G01 X26.4385 Y63.2044
G01 X26.4224 Y63.2133
G01 X26.4057 Y63.2210
G01 X26.3942 Y63.2254
G01 X26.3826 Y63.2292
G01 X26.3707 Y63.2325
G01 X26.3588 Y63.2352
G01 X26.3467 Y63.2373
G01 X26.3345 Y63.2388
G01 X26.3223 Y63.2397
G01 X26.3100 Y63.2400
G01 X24.6039 Y63.2399
G01 X24.5916 Y63.2393
G01 X24.5794 Y63.2381
G01 X24.5612 Y63.2352
G01 X24.5433 Y63.2309
G01 X24.5258 Y63.2254
G01 X24.5143 Y63.2210
G01 X24.5031 Y63.2160
G01 X24.4868 Y63.2075
G01 X24.4711 Y63.1979
G01 X24.4562 Y63.1871
G01 X24.4467 Y63.1793
G01 X24.4376 Y63.1711
G01 X24.4289 Y63.1624
G01 X24.4207 Y63.1533
G01 X24.4129 Y63.1438
G01 X24.4056 Y63.1340
G01 X24.3988 Y63.1237
G01 X24.3895 Y63.1078
G01 X24.3840 Y63.0969
G01 X24.3790 Y63.0857
G01 X24.3746 Y63.0742
G01 X24.3691 Y63.0567
G01 X24.3661 Y63.0448
G01 X24.3637 Y63.0327
G01 X24.3619 Y63.0206
G01 X24.3607 Y63.0084
G01 X24.3600 Y62.9900
G01 X24.3600 Y61.6401
G01 X22.9510 Y61.6401
G01 X22.9080 Y61.6382
G01 X22.8958 Y61.6370
G01 X22.8655 Y61.6326
G01 X22.8534 Y61.6305
G01 X22.8414 Y61.6278
G01 X22.8058 Y61.6186
G01 X22.7710 Y61.6065
G01 X22.7596 Y61.6021
G01 X22.7206 Y61.5839
G01 X22.7045 Y61.5750
G01 X22.6731 Y61.5558
G01 X22.6385 Y61.5304
G01 X22.6244 Y61.5186
G01 X22.5973 Y61.4936
G01 X17.5678 Y56.4642
G01 X17.5594 Y56.4553
G01 X17.5349 Y56.4278
G01 X17.5127 Y56.3984
G01 X17.5056 Y56.3884
G01 X17.4991 Y56.3780
G01 X17.4804 Y56.3463
G01 X17.4644 Y56.3131
G01 X17.4594 Y56.3019
G01 X17.4550 Y56.2905
G01 X17.4429 Y56.2557
G01 X17.4337 Y56.2201
G01 X17.4310 Y56.2081
G01 X17.4289 Y56.1960
G01 X17.4238 Y56.1595
G01 X17.4217 Y56.1228
G01 X17.4214 Y56.1105
G01 X17.4214 Y46.3265
G01 X17.4217 Y46.3143
G01 X17.4238 Y46.2775
G01 X17.4289 Y46.2410
G01 X17.4310 Y46.2290
G01 X17.4396 Y46.1932
G01 X17.4447 Y46.1755
G01 X17.4594 Y46.1351
G01 X17.4749 Y46.1017
G01 X17.4804 Y46.0908
G01 X17.4991 Y46.0590
G01 X17.5056 Y46.0487
G01 X17.5127 Y46.0386
G01 X17.5310 Y46.0140
G01 X17.5388 Y46.0045
G01 X17.5678 Y45.9729
G01 X18.5843 Y44.9564
G00 Z2.0000
G00 X20.8231 Y46.2749
G01 F60.00
G01 Z-0.1000
G01 F80.00
G01 X20.8345 Y46.2793
G01 X20.8458 Y46.2843
G01 X20.9079 Y46.3137
G01 X20.9242 Y46.3221
G01 X20.9884 Y46.3605
G01 X20.9988 Y46.3671
G01 X21.0088 Y46.3742
G01 X21.0640 Y46.4151
G01 X21.0737 Y46.4226
G01 X21.0830 Y46.4307
G01 X21.1339 Y46.4768
G01 X21.1428 Y46.4852
G01 X21.1512 Y46.4941
G01 X21.1973 Y46.5450
G01 X21.2054 Y46.5543
G01 X21.2129 Y46.5640
G01 X21.2538 Y46.6192
G01 X21.2609 Y46.6292
G01 X21.2675 Y46.6396
G01 X21.3028 Y46.6985
G01 X21.3088 Y46.7092
G01 X21.3143 Y46.7201
G01 X21.3437 Y46.7822
G01 X21.3487 Y46.7935
G01 X21.3531 Y46.8049
G01 X21.3762 Y46.8696
G01 X21.3801 Y46.8812
G01 X21.3834 Y46.8931
G01 X21.4001 Y46.9597
G01 X21.4027 Y46.9717
G01 X21.4048 Y46.9838
G01 X21.4149 Y47.0517
G01 X21.4164 Y47.0639
G01 X21.4173 Y47.0761
G01 X21.4207 Y47.1447
G01 X21.4210 Y47.1570
G01 X21.4207 Y47.1693
G01 X21.4173 Y47.2379
G01 X21.4164 Y47.2501
G01 X21.4149 Y47.2623
G01 X21.4048 Y47.3302
G01 X21.4027 Y47.3423
G01 X21.4001 Y47.3543
G01 X21.3834 Y47.4209
G01 X21.3801 Y47.4328
G01 X21.3762 Y47.4444
G01 X21.3531 Y47.5091
G01 X21.3487 Y47.5205
G01 X21.3437 Y47.5318
G01 X21.3143 Y47.5939
G01 X21.3088 Y47.6048
G01 X21.3028 Y47.6155
G01 X21.2675 Y47.6744
G01 X21.2609 Y47.6848
G01 X21.2538 Y47.6948
G01 X21.2129 Y47.7500
G01 X21.2054 Y47.7597
G01 X21.1973 Y47.7690
G01 X21.1512 Y47.8199
G01 X21.1428 Y47.8288
G01 X21.1339 Y47.8372
G01 X21.0830 Y47.8833
G01 X21.0737 Y47.8914
G01 X21.0640 Y47.8989
G01 X21.0088 Y47.9398
G01 X20.9988 Y47.9469
G01 X20.9884 Y47.9535
G01 X20.9295 Y47.9888
G01 X20.9188 Y47.9948
G01 X20.9079 Y48.0003
G01 X20.8458 Y48.0297
G01 X20.8345 Y48.0347
G01 X20.8231 Y48.0391
G01 X20.7584 Y48.0622
G01 X20.7468 Y48.0661
G01 X20.7349 Y48.0694
G01 X20.6683 Y48.0861
G01 X20.6563 Y48.0887
G01 X20.6442 Y48.0908
G01 X20.5763 Y48.1009
G01 X20.5641 Y48.1024
G01 X20.5519 Y48.1033
G01 X20.4833 Y48.1067
G01 X20.4710 Y48.1070
G01 X19.4710 Y48.1070
G01 X19.4587 Y48.1067
G01 X19.3901 Y48.1033
G01 X19.3718 Y48.1017
G01 X19.2978 Y48.0908
G01 X19.2857 Y48.0887
G01 X19.2737 Y48.0861
G01 X19.2071 Y48.0694
G01 X19.1952 Y48.0661
G01 X19.1836 Y48.0622
G01 X19.1131 Y48.0370
G01 X19.0962 Y48.0297
G01 X19.0341 Y48.0003
G01 X19.0232 Y47.9948
G01 X19.0125 Y47.9888
G01 X18.9536 Y47.9535
G01 X18.9432 Y47.9469
G01 X18.9332 Y47.9398
G01 X18.8780 Y47.8989
G01 X18.8683 Y47.8914
G01 X18.8590 Y47.8833
G01 X18.8081 Y47.8372
G01 X18.7992 Y47.8288
G01 X18.7908 Y47.8199
G01 X18.7447 Y47.7690
G01 X18.7366 Y47.7597
G01 X18.7291 Y47.7500
G01 X18.6882 Y47.6948
G01 X18.6811 Y47.6848
G01 X18.6745 Y47.6744
G01 X18.6392 Y47.6155
G01 X18.6332 Y47.6048
G01 X18.6277 Y47.5939
G01 X18.5983 Y47.5318
G01 X18.5933 Y47.5205
G01 X18.5889 Y47.5091
G01 X18.5658 Y47.4444
G01 X18.5619 Y47.4328
G01 X18.5586 Y47.4209
G01 X18.5419 Y47.3543
G01 X18.5393 Y47.3423
G01 X18.5372 Y47.3302
G01 X18.5271 Y47.2623
G01 X18.5256 Y47.2501
G01 X18.5247 Y47.2379
G01 X18.5213 Y47.1693
G01 X18.5210 Y47.1570
G01 X18.5213 Y47.1447
G01 X18.5247 Y47.0761
G01 X18.5256 Y47.0639
G01 X18.5271 Y47.0517
G01 X18.5372 Y46.9838
G01 X18.5393 Y46.9717
G01 X18.5419 Y46.9597
G01 X18.5586 Y46.8931
G01 X18.5619 Y46.8812
G01 X18.5658 Y46.8696
G01 X18.5889 Y46.8049
G01 X18.5933 Y46.7935
G01 X18.5983 Y46.7822
G01 X18.6277 Y46.7201
G01 X18.6332 Y46.7092
G01 X18.6392 Y46.6985
G01 X18.6745 Y46.6396
G01 X18.6811 Y46.6292
G01 X18.6882 Y46.6192
G01 X18.7291 Y46.5640
G01 X18.7366 Y46.5543
G01 X18.7447 Y46.5450
G01 X18.7908 Y46.4941
G01 X18.7992 Y46.4852
G01 X18.8081 Y46.4768
G01 X18.8590 Y46.4307
G01 X18.8683 Y46.4226
G01 X18.8780 Y46.4151
G01 X18.9332 Y46.3742
G01 X18.9432 Y46.3671
G01 X18.9536 Y46.3605
G01 X19.0125 Y46.3252
G01 X19.0232 Y46.3192
G01 X19.0341 Y46.3137
G01 X19.0962 Y46.2843
G01 X19.1075 Y46.2793
G01 X19.1189 Y46.2749
G01 X19.1836 Y46.2518
G01 X19.1952 Y46.2479
G01 X19.2071 Y46.2446
G01 X19.2737 Y46.2279
G01 X19.2857 Y46.2253
G01 X19.2978 Y46.2232
G01 X19.3657 Y46.2131
G01 X19.3779 Y46.2116
G01 X19.3901 Y46.2107
G01 X19.4587 Y46.2073
G01 X19.4710 Y46.2070
G01 X20.4710 Y46.2070
G01 X20.4833 Y46.2073
G01 X20.5519 Y46.2107
G01 X20.5641 Y46.2116
G01 X20.5763 Y46.2131
G01 X20.6442 Y46.2232
G01 X20.6623 Y46.2265
G01 X20.7349 Y46.2446
G01 X20.7468 Y46.2479
G01 X20.7584 Y46.2518
G01 X20.8231 Y46.2749
G00 Z2.0000
G00 X21.7410 Y45.0723
G01 F60.00
G01 Z-0.1000
G01 F80.00
G01 X21.7578 Y45.1188
G01 X21.7700 Y45.1483
G01 X21.8131 Y45.2392
G01 X21.8281 Y45.2674
G01 X21.8361 Y45.2811
G01 X21.8798 Y45.3536
G01 X21.8975 Y45.3802
G01 X21.9069 Y45.3931
G01 X21.9478 Y45.4483
G01 X21.9674 Y45.4734
G01 X21.9883 Y45.4976
G01 X22.0344 Y45.5485
G01 X22.0564 Y45.5716
G01 X22.0795 Y45.5936
G01 X22.1304 Y45.6397
G01 X22.1546 Y45.6606
G01 X22.1797 Y45.6802
G01 X22.2349 Y45.7211
G01 X22.2610 Y45.7395
G01 X22.2744 Y45.7482
G01 X22.3469 Y45.7919
G01 X22.3746 Y45.8076
G01 X22.3888 Y45.8149
G01 X22.4797 Y45.8580
G01 X22.5092 Y45.8702
G01 X22.5557 Y45.8870
G01 X22.5092 Y45.9038
G01 X22.4797 Y45.9160
G01 X22.3888 Y45.9591
G01 X22.3606 Y45.9741
G01 X22.3469 Y45.9821
G01 X22.2744 Y46.0258
G01 X22.2478 Y46.0435
G01 X22.2349 Y46.0529
G01 X22.1797 Y46.0938
G01 X22.1546 Y46.1134
G01 X22.1304 Y46.1343
G01 X22.0795 Y46.1804
G01 X22.0564 Y46.2024
G01 X22.0344 Y46.2255
G01 X21.9883 Y46.2764
G01 X21.9674 Y46.3006
G01 X21.9478 Y46.3257
G01 X21.9069 Y46.3809
G01 X21.8975 Y46.3938
G01 X21.8798 Y46.4204
G01 X21.8361 Y46.4929
G01 X21.8204 Y46.5206
G01 X21.8131 Y46.5348
G01 X21.7700 Y46.6257
G01 X21.7578 Y46.6552
G01 X21.7410 Y46.7017
G01 X21.7242 Y46.6552
G01 X21.7120 Y46.6257
G01 X21.6689 Y46.5348
G01 X21.6539 Y46.5066
G01 X21.6459 Y46.4929
G01 X21.6022 Y46.4204
G01 X21.5845 Y46.3938
G01 X21.5751 Y46.3809
G01 X21.5342 Y46.3257
G01 X21.5146 Y46.3006
G01 X21.4937 Y46.2764
G01 X21.4476 Y46.2255
G01 X21.4256 Y46.2024
G01 X21.4025 Y46.1804
G01 X21.3516 Y46.1343
G01 X21.3274 Y46.1134
G01 X21.3023 Y46.0938
G01 X21.2471 Y46.0529
G01 X21.2342 Y46.0435
G01 X21.2076 Y46.0258
G01 X21.1351 Y45.9821
G01 X21.1074 Y45.9664
G01 X21.0932 Y45.9591
G01 X21.0023 Y45.9160
G01 X20.9728 Y45.9038
G01 X20.9263 Y45.8870
G01 X20.9728 Y45.8702
G01 X21.0023 Y45.8580
G01 X21.0932 Y45.8149
G01 X21.1214 Y45.7999
G01 X21.1351 Y45.7919
G01 X21.2076 Y45.7482
G01 X21.2342 Y45.7305
G01 X21.2471 Y45.7211
G01 X21.3023 Y45.6802
G01 X21.3274 Y45.6606
G01 X21.3516 Y45.6397
G01 X21.4025 Y45.5936
G01 X21.4256 Y45.5716
G01 X21.4476 Y45.5485
G01 X21.4937 Y45.4976
G01 X21.5146 Y45.4734
G01 X21.5342 Y45.4483
G01 X21.5751 Y45.3931
G01 X21.5845 Y45.3802
G01 X21.6022 Y45.3536
G01 X21.6459 Y45.2811
G01 X21.6616 Y45.2534
G01 X21.6689 Y45.2392
G01 X21.7120 Y45.1483
G01 X21.7242 Y45.1188
G01 X21.7410 Y45.0723
G00 Z2.0000
G00 X22.5557 Y43.3470
G01 F60.00
G01 Z-0.1000
G01 F80.00
G01 X22.5092 Y43.3638
G01 X22.4797 Y43.3760
G01 X22.3888 Y43.4191
G01 X22.3606 Y43.4341
G01 X22.3469 Y43.4421
G01 X22.2744 Y43.4858
G01 X22.2478 Y43.5035
G01 X22.2349 Y43.5129
G01 X22.1797 Y43.5538
G01 X22.1546 Y43.5734
G01 X22.1304 Y43.5943
G01 X22.0795 Y43.6404
G01 X22.0564 Y43.6624
G01 X22.0344 Y43.6855
G01 X21.9883 Y43.7364
G01 X21.9674 Y43.7606
G01 X21.9478 Y43.7857
G01 X21.9069 Y43.8409
G01 X21.8975 Y43.8538
G01 X21.8798 Y43.8804
G01 X21.8361 Y43.9529
G01 X21.8204 Y43.9806
G01 X21.8131 Y43.9948
G01 X21.7700 Y44.0857
G01 X21.7578 Y44.1152
G01 X21.7410 Y44.1617
G01 X21.7242 Y44.1152
G01 X21.7120 Y44.0857
G01 X21.6689 Y43.9948
G01 X21.6539 Y43.9666
G01 X21.6459 Y43.9529
G01 X21.6022 Y43.8804
G01 X21.5845 Y43.8538
G01 X21.5751 Y43.8409
G01 X21.5342 Y43.7857
G01 X21.5146 Y43.7606
G01 X21.4937 Y43.7364
G01 X21.4476 Y43.6855
G01 X21.4256 Y43.6624
G01 X21.4025 Y43.6404
G01 X21.3516 Y43.5943
G01 X21.3274 Y43.5734
G01 X21.3023 Y43.5538
G01 X21.2471 Y43.5129
G01 X21.2342 Y43.5035
G01 X21.2076 Y43.4858
G01 X21.1351 Y43.4421
G01 X21.1074 Y43.4264
G01 X21.0932 Y43.4191
G01 X21.0023 Y43.3760
G01 X20.9728 Y43.3638
G01 X20.9263 Y43.3470
G01 X20.9728 Y43.3302
G01 X21.0023 Y43.3180
G01 X21.0932 Y43.2749
G01 X21.1214 Y43.2599
G01 X21.1351 Y43.2519
G01 X21.2076 Y43.2082
G01 X21.2342 Y43.1905
G01 X21.2471 Y43.1811
G01 X21.3023 Y43.1402
G01 X21.3274 Y43.1206
G01 X21.3516 Y43.0997
G01 X21.4025 Y43.0536
G01 X21.4256 Y43.0316
G01 X21.4476 Y43.0085
G01 X21.4937 Y42.9576
G01 X21.5146 Y42.9334
G01 X21.5342 Y42.9083
G01 X21.5751 Y42.8531
G01 X21.5845 Y42.8402
G01 X21.6022 Y42.8136
G01 X21.6459 Y42.7411
G01 X21.6616 Y42.7134
G01 X21.6689 Y42.6992
G01 X21.7120 Y42.6083
G01 X21.7242 Y42.5788
G01 X21.7410 Y42.5323
G01 X21.7578 Y42.5788
G01 X21.7700 Y42.6083
G01 X21.8131 Y42.6992
G01 X21.8281 Y42.7274
G01 X21.8361 Y42.7411
G01 X21.8798 Y42.8136
G01 X21.8975 Y42.8402
G01 X21.9069 Y42.8531
G01 X21.9478 Y42.9083
G01 X21.9674 Y42.9334
G01 X21.9883 Y42.9576
G01 X22.0344 Y43.0085
G01 X22.0564 Y43.0316
G01 X22.0795 Y43.0536
G01 X22.1304 Y43.0997
G01 X22.1546 Y43.1206
G01 X22.1797 Y43.1402
G01 X22.2349 Y43.1811
G01 X22.2610 Y43.1995
G01 X22.2744 Y43.2082
G01 X22.3469 Y43.2519
G01 X22.3746 Y43.2676
G01 X22.3888 Y43.2749
G01 X22.4797 Y43.3180
G01 X22.5092 Y43.3302
G01 X22.5557 Y43.3470
G00 Z2.0000
G00 X24.3631 Y43.7349
G01 F60.00
G01 Z-0.1000
G01 F80.00
G01 X24.3745 Y43.7393
G01 X24.3858 Y43.7443
G01 X24.4479 Y43.7737
G01 X24.4642 Y43.7821
G01 X24.5284 Y43.8205
G01 X24.5388 Y43.8271
G01 X24.5488 Y43.8342
G01 X24.6040 Y43.8751
G01 X24.6137 Y43.8826
G01 X24.6230 Y43.8907
G01 X24.6739 Y43.9368
G01 X24.6828 Y43.9452
G01 X24.6912 Y43.9541
G01 X24.7373 Y44.0050
G01 X24.7454 Y44.0143
G01 X24.7529 Y44.0240
G01 X24.7938 Y44.0792
G01 X24.8009 Y44.0892
G01 X24.8075 Y44.0996
G01 X24.8428 Y44.1585
G01 X24.8488 Y44.1692
G01 X24.8543 Y44.1801
G01 X24.8837 Y44.2422
G01 X24.8887 Y44.2535
G01 X24.8931 Y44.2649
G01 X24.9162 Y44.3296
G01 X24.9201 Y44.3412
G01 X24.9234 Y44.3531
G01 X24.9401 Y44.4197
G01 X24.9427 Y44.4317
G01 X24.9448 Y44.4438
G01 X24.9549 Y44.5117
G01 X24.9564 Y44.5239
G01 X24.9573 Y44.5361
G01 X24.9607 Y44.6047
G01 X24.9610 Y44.6170
G01 X24.9607 Y44.6293
G01 X24.9573 Y44.6979
G01 X24.9564 Y44.7101
G01 X24.9549 Y44.7223
G01 X24.9448 Y44.7902
G01 X24.9427 Y44.8023
G01 X24.9401 Y44.8143
G01 X24.9234 Y44.8809
G01 X24.9201 Y44.8928
G01 X24.9162 Y44.9044
G01 X24.8931 Y44.9691
G01 X24.8887 Y44.9805
G01 X24.8837 Y44.9918
G01 X24.8543 Y45.0539
G01 X24.8488 Y45.0648
G01 X24.8428 Y45.0755
G01 X24.8075 Y45.1344
G01 X24.8009 Y45.1448
G01 X24.7938 Y45.1548
G01 X24.7529 Y45.2100
G01 X24.7454 Y45.2197
G01 X24.7373 Y45.2290
G01 X24.6912 Y45.2799
G01 X24.6828 Y45.2888
G01 X24.6739 Y45.2972
G01 X24.6230 Y45.3433
G01 X24.6137 Y45.3514
G01 X24.6040 Y45.3589
G01 X24.5488 Y45.3998
G01 X24.5388 Y45.4069
G01 X24.5284 Y45.4135
G01 X24.4695 Y45.4488
G01 X24.4588 Y45.4548
G01 X24.4479 Y45.4603
G01 X24.3858 Y45.4897
G01 X24.3745 Y45.4947
G01 X24.3631 Y45.4991
G01 X24.2984 Y45.5222
G01 X24.2868 Y45.5261
G01 X24.2749 Y45.5294
G01 X24.2083 Y45.5461
G01 X24.1963 Y45.5487
G01 X24.1842 Y45.5508
G01 X24.1163 Y45.5609
G01 X24.1041 Y45.5624
G01 X24.0919 Y45.5633
G01 X24.0233 Y45.5667
G01 X24.0110 Y45.5670
G01 X23.0110 Y45.5670
G01 X22.9987 Y45.5667
G01 X22.9301 Y45.5633
G01 X22.9118 Y45.5617
G01 X22.8378 Y45.5508
G01 X22.8257 Y45.5487
G01 X22.8137 Y45.5461
G01 X22.7471 Y45.5294
G01 X22.7352 Y45.5261
G01 X22.7236 Y45.5222
G01 X22.6531 Y45.4970
G01 X22.6362 Y45.4897
G01 X22.5741 Y45.4603
G01 X22.5632 Y45.4548
G01 X22.5525 Y45.4488
G01 X22.4936 Y45.4135
G01 X22.4832 Y45.4069
G01 X22.4732 Y45.3998
G01 X22.4180 Y45.3589
G01 X22.4083 Y45.3514
G01 X22.3990 Y45.3433
G01 X22.3481 Y45.2972
G01 X22.3392 Y45.2888
G01 X22.3308 Y45.2799
G01 X22.2847 Y45.2290
G01 X22.2766 Y45.2197
G01 X22.2691 Y45.2100
G01 X22.2282 Y45.1548
G01 X22.2211 Y45.1448
G01 X22.2145 Y45.1344
G01 X22.1792 Y45.0755
G01 X22.1732 Y45.0648
G01 X22.1677 Y45.0539
G01 X22.1383 Y44.9918
G01 X22.1333 Y44.9805
G01 X22.1289 Y44.9691
G01 X22.1058 Y44.9044
G01 X22.1019 Y44.8928
G01 X22.0986 Y44.8809
G01 X22.0819 Y44.8143
G01 X22.0793 Y44.8023
G01 X22.0772 Y44.7902
G01 X22.0671 Y44.7223
G01 X22.0656 Y44.7101
G01 X22.0647 Y44.6979
G01 X22.0613 Y44.6293
G01 X22.0610 Y44.6170
G01 X22.0613 Y44.6047
G01 X22.0647 Y44.5361
G01 X22.0656 Y44.5239
G01 X22.0671 Y44.5117
G01 X22.0772 Y44.4438
G01 X22.0793 Y44.4317
G01 X22.0819 Y44.4197
G01 X22.0986 Y44.3531
G01 X22.1019 Y44.3412
G01 X22.1058 Y44.3296
G01 X22.1289 Y44.2649
G01 X22.1333 Y44.2535
G01 X22.1383 Y44.2422
G01 X22.1677 Y44.1801
G01 X22.1732 Y44.1692
G01 X22.1792 Y44.1585
G01 X22.2145 Y44.0996
G01 X22.2211 Y44.0892
G01 X22.2282 Y44.0792
G01 X22.2691 Y44.0240
G01 X22.2766 Y44.0143
G01 X22.2847 Y44.0050
G01 X22.3308 Y43.9541
G01 X22.3392 Y43.9452
G01 X22.3481 Y43.9368
G01 X22.3990 Y43.8907
G01 X22.4083 Y43.8826
G01 X22.4180 Y43.8751
G01 X22.4732 Y43.8342
G01 X22.4832 Y43.8271
G01 X22.4936 Y43.8205
G01 X22.5525 Y43.7852
G01 X22.5632 Y43.7792
G01 X22.5741 Y43.7737
G01 X22.6362 Y43.7443
G01 X22.6475 Y43.7393
G01 X22.6589 Y43.7349
G01 X22.7236 Y43.7118
G01 X22.7352 Y43.7079
G01 X22.7471 Y43.7046
G01 X22.8137 Y43.6879
G01 X22.8257 Y43.6853
G01 X22.8378 Y43.6832
G01 X22.9057 Y43.6731
G01 X22.9179 Y43.6716
G01 X22.9301 Y43.6707
G01 X22.9987 Y43.6673
G01 X23.0110 Y43.6670
G01 X24.0110 Y43.6670
G01 X24.0233 Y43.6673
G01 X24.0919 Y43.6707
G01 X24.1041 Y43.6716
G01 X24.1163 Y43.6731
G01 X24.1842 Y43.6832
G01 X24.2023 Y43.6865
G01 X24.2749 Y43.7046
G01 X24.2868 Y43.7079
G01 X24.2984 Y43.7118
G01 X24.3631 Y43.7349
G00 Z2.0000
G00 X24.8373 Y42.5447
G01 F60.00
G01 Z-0.1000
G01 F80.00
G01 X26.8296 Y44.5370
G01 X26.8381 Y44.5459
G01 X26.8626 Y44.5734
G01 X26.8848 Y44.6028
G01 X26.8918 Y44.6128
G01 X26.8984 Y44.6232
G01 X26.9171 Y44.6549
G01 X26.9331 Y44.6880
G01 X26.9381 Y44.6993
G01 X26.9425 Y44.7107
G01 X26.9546 Y44.7455
G01 X26.9638 Y44.7811
G01 X26.9665 Y44.7931
G01 X26.9686 Y44.8052
G01 X26.9737 Y44.8416
G01 X26.9758 Y44.8784
G01 X26.9761 Y44.8906
G01 X26.9761 Y55.0440
G01 X26.9758 Y55.0563
G01 X26.9737 Y55.0930
G01 X26.9686 Y55.1295
G01 X26.9665 Y55.1416
G01 X26.9579 Y55.1774
G01 X26.9527 Y55.1950
G01 X26.9381 Y55.2354
G01 X26.9226 Y55.2688
G01 X26.9171 Y55.2798
G01 X26.8984 Y55.3115
G01 X26.8918 Y55.3219
G01 X26.8848 Y55.3319
G01 X26.8664 Y55.3565
G01 X26.8587 Y55.3660
G01 X26.8296 Y55.3976
G01 X25.9601 Y56.2672
G01 X25.9601 Y56.6208
G01 X25.9731 Y56.6271
G01 X25.9839 Y56.6328
G01 X26.0608 Y56.6788
G01 X26.0711 Y56.6854
G01 X26.0812 Y56.6924
G01 X26.1482 Y56.7421
G01 X26.1578 Y56.7497
G01 X26.1671 Y56.7577
G01 X26.2289 Y56.8137
G01 X26.2378 Y56.8222
G01 X26.2463 Y56.8311
G01 X26.3023 Y56.8929
G01 X26.3103 Y56.9022
G01 X26.3179 Y56.9118
G01 X26.3676 Y56.9788
G01 X26.3746 Y56.9889
G01 X26.3812 Y56.9992
G01 X26.4241 Y57.0708
G01 X26.4301 Y57.0815
G01 X26.4356 Y57.0924
G01 X26.4713 Y57.1678
G01 X26.4763 Y57.1790
G01 X26.4807 Y57.1905
G01 X26.5088 Y57.2690
G01 X26.5126 Y57.2807
G01 X26.5159 Y57.2925
G01 X26.5362 Y57.3734
G01 X26.5389 Y57.3854
G01 X26.5410 Y57.3975
G01 X26.5532 Y57.4800
G01 X26.5547 Y57.4922
G01 X26.5556 Y57.5044
G01 X26.5599 Y57.5939
G01 X26.5599 Y58.6061
G01 X26.5556 Y58.6956
G01 X26.5547 Y58.7078
G01 X26.5532 Y58.7200
G01 X26.5410 Y58.8025
G01 X26.5389 Y58.8146
G01 X26.5362 Y58.8266
G01 X26.5159 Y58.9075
G01 X26.5108 Y58.9252
G01 X26.4807 Y59.0095
G01 X26.4763 Y59.0210
G01 X26.4713 Y59.0322
G01 X26.4356 Y59.1076
G01 X26.4301 Y59.1185
G01 X26.4241 Y59.1292
G01 X26.3812 Y59.2008
G01 X26.3746 Y59.2111
G01 X26.3676 Y59.2212
G01 X26.3179 Y59.2882
G01 X26.3103 Y59.2978
G01 X26.3023 Y59.3071
G01 X26.2463 Y59.3689
G01 X26.2378 Y59.3778
G01 X26.2289 Y59.3863
G01 X26.1671 Y59.4423
G01 X26.1578 Y59.4503
G01 X26.1482 Y59.4579
G01 X26.0812 Y59.5076
G01 X26.0711 Y59.5146
G01 X26.0608 Y59.5212
G01 X25.9892 Y59.5641
G01 X25.9785 Y59.5701
G01 X25.9676 Y59.5756
G01 X25.8922 Y59.6113
G01 X25.8810 Y59.6163
G01 X25.8695 Y59.6207
G01 X25.7910 Y59.6488
G01 X25.7793 Y59.6526
G01 X25.7675 Y59.6559
G01 X25.6866 Y59.6762
G01 X25.6746 Y59.6789
G01 X25.6625 Y59.6810
G01 X25.5800 Y59.6932
G01 X25.5678 Y59.6947
G01 X25.5556 Y59.6956
G01 X25.4723 Y59.6997
G01 X25.4600 Y59.7000
G01 X25.4477 Y59.6997
G01 X25.3644 Y59.6956
G01 X25.3522 Y59.6947
G01 X25.3400 Y59.6932
G01 X25.2575 Y59.6810
G01 X25.2454 Y59.6789
G01 X25.2334 Y59.6762
G01 X25.1525 Y59.6559
G01 X25.1407 Y59.6526
G01 X25.1290 Y59.6488
G01 X25.0505 Y59.6207
G01 X25.0390 Y59.6163
G01 X25.0278 Y59.6113
G01 X24.9524 Y59.5756
G01 X24.9415 Y59.5701
G01 X24.9308 Y59.5641
G01 X24.8592 Y59.5212
G01 X24.8489 Y59.5146
G01 X24.8388 Y59.5076
G01 X24.7718 Y59.4579
G01 X24.7622 Y59.4503
G01 X24.7529 Y59.4423
G01 X24.6911 Y59.3863
G01 X24.6822 Y59.3778
G01 X24.6737 Y59.3689
G01 X24.6177 Y59.3071
G01 X24.6097 Y59.2978
G01 X24.6021 Y59.2882
G01 X24.5524 Y59.2212
G01 X24.5454 Y59.2111
G01 X24.5388 Y59.2008
G01 X24.4959 Y59.1292
G01 X24.4899 Y59.1185
G01 X24.4844 Y59.1076
G01 X24.4487 Y59.0322
G01 X24.4437 Y59.0210
G01 X24.4393 Y59.0095
G01 X24.4112 Y58.9310
G01 X24.4074 Y58.9193
G01 X24.4041 Y58.9075
G01 X24.3838 Y58.8266
G01 X24.3811 Y58.8146
G01 X24.3790 Y58.8025
G01 X24.3668 Y58.7200
G01 X24.3648 Y58.7017
G01 X24.3603 Y58.6123
G01 X24.3600 Y58.6000
G01 X24.3601 Y57.5939
G01 X24.3644 Y57.5044
G01 X24.3653 Y57.4922
G01 X24.3668 Y57.4800
G01 X24.3790 Y57.3975
G01 X24.3811 Y57.3854
G01 X24.3838 Y57.3734
G01 X24.4041 Y57.2925
G01 X24.4074 Y57.2807
G01 X24.4112 Y57.2690
G01 X24.4393 Y57.1905
G01 X24.4437 Y57.1790
G01 X24.4487 Y57.1678
G01 X24.4844 Y57.0924
G01 X24.4899 Y57.0815
G01 X24.4959 Y57.0708
G01 X24.5420 Y56.9940
G01 X24.5524 Y56.9788
G01 X24.6021 Y56.9118
G01 X24.6097 Y56.9022
G01 X24.6177 Y56.8929
G01 X24.6737 Y56.8311
G01 X24.6822 Y56.8222
G01 X24.6911 Y56.8137
G01 X24.7529 Y56.7577
G01 X24.7622 Y56.7497
G01 X24.7718 Y56.7421
G01 X24.8388 Y56.6924
G01 X24.8489 Y56.6854
G01 X24.8592 Y56.6788
G01 X24.9361 Y56.6328
G01 X24.9469 Y56.6271
G01 X24.9599 Y56.6208
G01 X24.9599 Y56.0600
G01 X24.9618 Y56.0171
G01 X24.9638 Y55.9988
G01 X24.9695 Y55.9624
G01 X24.9781 Y55.9266
G01 X24.9814 Y55.9148
G01 X24.9935 Y55.8801
G01 X25.0004 Y55.8630
G01 X25.0161 Y55.8297
G01 X25.0250 Y55.8136
G01 X25.0442 Y55.7821
G01 X25.0658 Y55.7524
G01 X25.0773 Y55.7380
G01 X25.1021 Y55.7107
G01 X25.9759 Y54.8368
G01 X25.9759 Y45.0978
G01 X23.9051 Y43.0270
G01 X23.0110 Y43.0270
G01 X22.9987 Y43.0267
G01 X22.9301 Y43.0233
G01 X22.9179 Y43.0224
G01 X22.9057 Y43.0209
G01 X22.8378 Y43.0108
G01 X22.8257 Y43.0087
G01 X22.8137 Y43.0061
G01 X22.7471 Y42.9894
G01 X22.7352 Y42.9861
G01 X22.7236 Y42.9822
G01 X22.6589 Y42.9591
G01 X22.6475 Y42.9547
G01 X22.6362 Y42.9497
G01 X22.5741 Y42.9203
G01 X22.5632 Y42.9148
G01 X22.5525 Y42.9088
G01 X22.4936 Y42.8735
G01 X22.4832 Y42.8669
G01 X22.4732 Y42.8598
G01 X22.4180 Y42.8189
G01 X22.4036 Y42.8074
G01 X22.3481 Y42.7572
G01 X22.3392 Y42.7488
G01 X22.3308 Y42.7399
G01 X22.2847 Y42.6890
G01 X22.2766 Y42.6797
G01 X22.2691 Y42.6700
G01 X22.2282 Y42.6148
G01 X22.2211 Y42.6048
G01 X22.2145 Y42.5944
G01 X22.1792 Y42.5355
G01 X22.1732 Y42.5248
G01 X22.1677 Y42.5139
G01 X22.1383 Y42.4518
G01 X22.1333 Y42.4405
G01 X22.1289 Y42.4291
G01 X22.1058 Y42.3644
G01 X22.1019 Y42.3528
G01 X22.0986 Y42.3409
G01 X22.0819 Y42.2743
G01 X22.0793 Y42.2623
G01 X22.0772 Y42.2502
G01 X22.0671 Y42.1823
G01 X22.0656 Y42.1701
G01 X22.0647 Y42.1579
G01 X22.0613 Y42.0893
G01 X22.0610 Y42.0770
G01 X22.0613 Y42.0647
G01 X22.0647 Y41.9961
G01 X22.0656 Y41.9839
G01 X22.0671 Y41.9717
G01 X22.0772 Y41.9038
G01 X22.0793 Y41.8917
G01 X22.0819 Y41.8797
G01 X22.1002 Y41.8071
G01 X22.1058 Y41.7896
G01 X22.1289 Y41.7249
G01 X22.1333 Y41.7135
G01 X22.1383 Y41.7022
G01 X22.1677 Y41.6401
G01 X22.1732 Y41.6292
G01 X22.1792 Y41.6185
G01 X22.2145 Y41.5596
G01 X22.2211 Y41.5492
G01 X22.2282 Y41.5392
G01 X22.2691 Y41.4840
G01 X22.2766 Y41.4743
G01 X22.2847 Y41.4650
G01 X22.3308 Y41.4141
G01 X22.3392 Y41.4052
G01 X22.3481 Y41.3968
G01 X22.3990 Y41.3507
G01 X22.4083 Y41.3426
G01 X22.4180 Y41.3351
G01 X22.4732 Y41.2942
G01 X22.4832 Y41.2871
G01 X22.4936 Y41.2805
G01 X22.5525 Y41.2452
G01 X22.5632 Y41.2392
G01 X22.5741 Y41.2337
G01 X22.6362 Y41.2043
G01 X22.6475 Y41.1993
G01 X22.6589 Y41.1949
G01 X22.7236 Y41.1718
G01 X22.7352 Y41.1679
G01 X22.7471 Y41.1646
G01 X22.8137 Y41.1479
G01 X22.8257 Y41.1453
G01 X22.8378 Y41.1432
G01 X22.9057 Y41.1331
G01 X22.9179 Y41.1316
G01 X22.9301 Y41.1307
G01 X22.9987 Y41.1273
G01 X23.0110 Y41.1270
G01 X24.0171 Y41.1271
G01 X24.0919 Y41.1307
G01 X24.1041 Y41.1316
G01 X24.1163 Y41.1331
G01 X24.1842 Y41.1432
G01 X24.1963 Y41.1453
G01 X24.2083 Y41.1479
G01 X24.2809 Y41.1662
G01 X24.2984 Y41.1718
G01 X24.3631 Y41.1949
G01 X24.3745 Y41.1993
G01 X24.3858 Y41.2043
G01 X24.4479 Y41.2337
G01 X24.4588 Y41.2392
G01 X24.4695 Y41.2452
G01 X24.5284 Y41.2805
G01 X24.5388 Y41.2871
G01 X24.5488 Y41.2942
G01 X24.6040 Y41.3351
G01 X24.6137 Y41.3426
G01 X24.6230 Y41.3507
G01 X24.6784 Y41.4010
G01 X24.6912 Y41.4141
G01 X24.7373 Y41.4650
G01 X24.7454 Y41.4743
G01 X24.7529 Y41.4840
G01 X24.7938 Y41.5392
G01 X24.8009 Y41.5492
G01 X24.8075 Y41.5596
G01 X24.8428 Y41.6185
G01 X24.8488 Y41.6292
G01 X24.8543 Y41.6401
G01 X24.8837 Y41.7022
G01 X24.8887 Y41.7135
G01 X24.8931 Y41.7249
G01 X24.9162 Y41.7896
G01 X24.9201 Y41.8012
G01 X24.9234 Y41.8131
G01 X24.9401 Y41.8797
G01 X24.9427 Y41.8917
G01 X24.9448 Y41.9038
G01 X24.9549 Y41.9717
G01 X24.9564 Y41.9839
G01 X24.9573 Y41.9961
G01 X24.9607 Y42.0647
G01 X24.9610 Y42.0770
G01 X24.9607 Y42.0893
G01 X24.9570 Y42.1640
G01 X24.9549 Y42.1823
G01 X24.9448 Y42.2502
G01 X24.9427 Y42.2623
G01 X24.9401 Y42.2743
G01 X24.9234 Y42.3409
G01 X24.9201 Y42.3528
G01 X24.9162 Y42.3644
G01 X24.8931 Y42.4291
G01 X24.8863 Y42.4462
G01 X24.8517 Y42.5194
G01 X24.8459 Y42.5302
G01 X24.8373 Y42.5447
G00 Z2.0000
G00 X24.4663 Y45.8870
G01 F60.00
G01 Z-0.1000
G01 F80.00
G01 X24.5128 Y45.8702
G01 X24.5423 Y45.8580
G01 X24.6332 Y45.8149
G01 X24.6614 Y45.7999
G01 X24.6751 Y45.7919
G01 X24.7476 Y45.7482
G01 X24.7742 Y45.7305
G01 X24.7871 Y45.7211
G01 X24.8423 Y45.6802
G01 X24.8674 Y45.6606
G01 X24.8916 Y45.6397
G01 X24.9425 Y45.5936
G01 X24.9542 Y45.5827
G01 X24.9767 Y45.5602
G01 X25.0443 Y45.4856
G01 X25.0546 Y45.4734
G01 X25.0742 Y45.4483
G01 X25.1151 Y45.3931
G01 X25.1335 Y45.3670
G01 X25.1506 Y45.3401
G01 X25.1859 Y45.2811
G01 X25.2016 Y45.2534
G01 X25.2089 Y45.2392
G01 X25.2453 Y45.1628
G01 X25.2582 Y45.1336
G01 X25.2697 Y45.1039
G01 X25.2929 Y45.0392
G01 X25.2981 Y45.0241
G01 X25.3070 Y44.9946
G01 X25.5759 Y45.2635
G01 X25.5759 Y54.6712
G01 X24.8124 Y55.4349
G01 X24.7745 Y55.4768
G01 X24.7542 Y55.5014
G01 X24.7206 Y55.5468
G01 X24.7029 Y55.5733
G01 X24.6945 Y55.5869
G01 X24.6739 Y55.6217
G01 X24.6588 Y55.6498
G01 X24.6347 Y55.7009
G01 X24.6225 Y55.7303
G01 X24.6035 Y55.7835
G01 X24.5942 Y55.8140
G01 X24.5805 Y55.8688
G01 X24.5743 Y55.9001
G01 X24.5681 Y55.9401
G01 X24.5642 Y55.9718
G01 X24.5619 Y56.0036
G01 X24.5601 Y56.0440
G01 X24.5599 Y56.4013
G01 X24.5209 Y56.4305
G01 X24.4962 Y56.4508
G01 X24.4224 Y56.5173
G01 X24.4108 Y56.5282
G01 X24.3882 Y56.5508
G01 X24.3213 Y56.6243
G01 X24.3005 Y56.6484
G01 X24.2809 Y56.6736
G01 X24.2312 Y56.7406
G01 X24.2128 Y56.7666
G01 X24.2041 Y56.7800
G01 X24.1528 Y56.8651
G01 X24.1371 Y56.8929
G01 X24.1228 Y56.9214
G01 X24.0871 Y56.9968
G01 X24.0742 Y57.0260
G01 X24.0627 Y57.0557
G01 X24.0346 Y57.1343
G01 X24.0246 Y57.1646
G01 X24.0161 Y57.1953
G01 X23.9921 Y57.2918
G01 X23.9859 Y57.3230
G01 X23.9834 Y57.3388
G01 X23.9711 Y57.4213
G01 X23.9672 Y57.4530
G01 X23.9649 Y57.4848
G01 X23.9608 Y57.5681
G01 X23.9600 Y57.6000
G01 X23.9602 Y58.6160
G01 X23.9649 Y58.7152
G01 X23.9672 Y58.7470
G01 X23.9711 Y58.7787
G01 X23.9859 Y58.8770
G01 X23.9921 Y58.9082
G01 X24.0161 Y59.0047
G01 X24.0246 Y59.0354
G01 X24.0346 Y59.0657
G01 X24.0627 Y59.1443
G01 X24.0742 Y59.1740
G01 X24.0871 Y59.2032
G01 X24.1228 Y59.2786
G01 X24.1371 Y59.3071
G01 X24.1528 Y59.3349
G01 X24.1957 Y59.4064
G01 X24.2128 Y59.4334
G01 X24.2312 Y59.4594
G01 X24.2809 Y59.5264
G01 X24.3005 Y59.5516
G01 X24.3213 Y59.5757
G01 X24.3882 Y59.6492
G01 X24.4104 Y59.6714
G01 X24.3910 Y59.6780
G01 X24.3613 Y59.6895
G01 X24.3321 Y59.7024
G01 X24.3178 Y59.7094
G01 X24.3036 Y59.7168
G01 X24.2758 Y59.7325
G01 X24.2489 Y59.7495
G01 X24.2357 Y59.7586
G01 X24.2101 Y59.7776
G01 X24.1976 Y59.7875
G01 X24.1854 Y59.7978
G01 X24.1618 Y59.8192
G01 X24.1392 Y59.8418
G01 X24.1284 Y59.8535
G01 X24.1075 Y59.8776
G01 X24.0976 Y59.8901
G01 X24.0879 Y59.9028
G01 X24.0695 Y59.9289
G01 X24.0608 Y59.9423
G01 X24.0444 Y59.9696
G01 X24.0368 Y59.9836
G01 X24.0224 Y60.0121
G01 X24.0158 Y60.0266
G01 X24.0036 Y60.0561
G01 X23.9928 Y60.0861
G01 X23.9880 Y60.1013
G01 X23.9795 Y60.1321
G01 X23.9758 Y60.1476
G01 X23.9725 Y60.1632
G01 X23.9670 Y60.1946
G01 X23.9649 Y60.2104
G01 X23.9620 Y60.2399
G01 X23.3238 Y60.2399
G01 X18.8216 Y55.7377
G01 X18.8216 Y48.3404
G01 X18.8488 Y48.3549
G01 X18.8631 Y48.3619
G01 X18.9252 Y48.3913
G01 X18.9544 Y48.4042
G01 X18.9841 Y48.4157
G01 X19.0488 Y48.4389
G01 X19.0791 Y48.4489
G01 X19.1099 Y48.4574
G01 X19.1765 Y48.4741
G01 X19.2076 Y48.4811
G01 X19.2391 Y48.4865
G01 X19.3070 Y48.4966
G01 X19.3228 Y48.4987
G01 X19.3546 Y48.5019
G01 X19.4391 Y48.5062
G01 X19.4710 Y48.5070
G01 X20.4870 Y48.5068
G01 X20.5715 Y48.5028
G01 X20.6033 Y48.5005
G01 X20.6192 Y48.4987
G01 X20.7187 Y48.4840
G01 X20.7500 Y48.4778
G01 X20.7655 Y48.4741
G01 X20.8321 Y48.4574
G01 X20.8629 Y48.4489
G01 X20.8932 Y48.4389
G01 X20.9579 Y48.4157
G01 X20.9876 Y48.4042
G01 X21.0023 Y48.3980
G01 X21.0932 Y48.3549
G01 X21.1214 Y48.3399
G01 X21.1351 Y48.3319
G01 X21.1941 Y48.2966
G01 X21.2210 Y48.2795
G01 X21.2471 Y48.2611
G01 X21.3023 Y48.2202
G01 X21.3274 Y48.2006
G01 X21.3396 Y48.1903
G01 X21.4142 Y48.1227
G01 X21.4367 Y48.1002
G01 X21.4476 Y48.0885
G01 X21.4937 Y48.0376
G01 X21.5146 Y48.0134
G01 X21.5342 Y47.9883
G01 X21.5845 Y47.9202
G01 X21.6022 Y47.8936
G01 X21.6459 Y47.8211
G01 X21.6616 Y47.7934
G01 X21.6689 Y47.7792
G01 X21.7120 Y47.6883
G01 X21.7242 Y47.6588
G01 X21.7410 Y47.6123
G01 X21.7578 Y47.6588
G01 X21.7700 Y47.6883
G01 X21.8131 Y47.7792
G01 X21.8281 Y47.8074
G01 X21.8361 Y47.8211
G01 X21.8798 Y47.8936
G01 X21.8975 Y47.9202
G01 X21.9069 Y47.9331
G01 X21.9478 Y47.9883
G01 X21.9674 Y48.0134
G01 X21.9883 Y48.0376
G01 X22.0344 Y48.0885
G01 X22.0453 Y48.1002
G01 X22.0678 Y48.1227
G01 X22.1424 Y48.1903
G01 X22.1546 Y48.2006
G01 X22.1797 Y48.2202
G01 X22.2349 Y48.2611
G01 X22.2610 Y48.2795
G01 X22.2879 Y48.2966
G01 X22.3469 Y48.3319
G01 X22.3746 Y48.3476
G01 X22.3888 Y48.3549
G01 X22.4652 Y48.3913
G01 X22.4944 Y48.4042
G01 X22.5241 Y48.4157
G01 X22.5888 Y48.4389
G01 X22.6191 Y48.4489
G01 X22.6344 Y48.4533
G01 X22.7320 Y48.4778
G01 X22.7476 Y48.4811
G01 X22.7791 Y48.4865
G01 X22.8470 Y48.4966
G01 X22.8787 Y48.5005
G01 X22.9105 Y48.5028
G01 X22.9791 Y48.5062
G01 X23.0110 Y48.5070
G01 X24.0270 Y48.5068
G01 X24.1115 Y48.5028
G01 X24.1433 Y48.5005
G01 X24.1750 Y48.4966
G01 X24.2429 Y48.4865
G01 X24.2744 Y48.4811
G01 X24.3055 Y48.4741
G01 X24.3721 Y48.4574
G01 X24.4029 Y48.4489
G01 X24.4332 Y48.4389
G01 X24.4979 Y48.4157
G01 X24.5276 Y48.4042
G01 X24.5423 Y48.3980
G01 X24.6189 Y48.3619
G01 X24.6474 Y48.3476
G01 X24.6751 Y48.3319
G01 X24.7341 Y48.2966
G01 X24.7610 Y48.2795
G01 X24.7742 Y48.2705
G01 X24.8423 Y48.2202
G01 X24.8674 Y48.2006
G01 X24.8916 Y48.1797
G01 X24.9425 Y48.1336
G01 X24.9656 Y48.1116
G01 X24.9876 Y48.0885
G01 X25.0337 Y48.0376
G01 X25.0443 Y48.0256
G01 X25.0645 Y48.0010
G01 X25.1151 Y47.9331
G01 X25.1335 Y47.9070
G01 X25.1506 Y47.8801
G01 X25.1939 Y47.8074
G01 X25.2016 Y47.7934
G01 X25.2159 Y47.7649
G01 X25.2453 Y47.7028
G01 X25.2582 Y47.6736
G01 X25.2697 Y47.6439
G01 X25.2929 Y47.5792
G01 X25.3029 Y47.5489
G01 X25.3114 Y47.5181
G01 X25.3281 Y47.4515
G01 X25.3351 Y47.4204
G01 X25.3405 Y47.3889
G01 X25.3506 Y47.3210
G01 X25.3545 Y47.2893
G01 X25.3568 Y47.2575
G01 X25.3608 Y47.1730
G01 X25.3608 Y47.1410
G01 X25.3568 Y47.0565
G01 X25.3545 Y47.0247
G01 X25.3506 Y46.9930
G01 X25.3405 Y46.9251
G01 X25.3351 Y46.8936
G01 X25.3318 Y46.8780
G01 X25.3114 Y46.7959
G01 X25.3029 Y46.7651
G01 X25.2929 Y46.7348
G01 X25.2697 Y46.6701
G01 X25.2582 Y46.6404
G01 X25.2453 Y46.6112
G01 X25.2159 Y46.5491
G01 X25.2016 Y46.5206
G01 X25.1859 Y46.4929
G01 X25.1422 Y46.4204
G01 X25.1245 Y46.3938
G01 X25.0742 Y46.3257
G01 X25.0546 Y46.3006
G01 X25.0337 Y46.2764
G01 X24.9876 Y46.2255
G01 X24.9656 Y46.2024
G01 X24.9425 Y46.1804
G01 X24.8796 Y46.1237
G01 X24.8550 Y46.1035
G01 X24.7871 Y46.0529
G01 X24.7610 Y46.0345
G01 X24.7341 Y46.0174
G01 X24.6614 Y45.9741
G01 X24.6474 Y45.9664
G01 X24.6189 Y45.9521
