(G-CODE GENERATED BY FLATCAM v8.994 - www.flatcam.org - Version Date: 2020/11/7)

(Name: MatrixDisplay.drl_cnc)
(Type: G-code from Geometry)
(Units: MM)

(Created on Wednesday, 20 April 2022 at 21:08)

(This preprocessor is the default preprocessor used by FlatCAM.)
(It is made to work with MACH3 compatible motion controllers.)


(TOOLS DIAMETER: )
(Tool: 1 -> Dia: 0.8)
(Tool: 2 -> Dia: 1.0)
(Tool: 3 -> Dia: 1.4)

(FEEDRATE Z: )
(Tool: 1 -> Feedrate: 150.0)
(Tool: 2 -> Feedrate: 150.0)
(Tool: 3 -> Feedrate: 150.0)

(FEEDRATE RAPIDS: )
(Tool: 1 -> Feedrate Rapids: 1500)
(Tool: 2 -> Feedrate Rapids: 1500)
(Tool: 3 -> Feedrate Rapids: 1500)

(Z_CUT: )
(Tool: 1 -> Z_Cut: -1.8)
(Tool: 2 -> Z_Cut: -1.8)
(Tool: 3 -> Z_Cut: -1.8)

(Tools Offset: )
(Tool: 1 -> Offset Z: 0.0)
(Tool: 2 -> Offset Z: 0.0)
(Tool: 3 -> Offset Z: 0.0)

(Z_MOVE: )
(Tool: 1 -> Z_Move: 2)
(Tool: 2 -> Z_Move: 2)
(Tool: 3 -> Z_Move: 2)

(Z Toolchange: 5.0 mm)
(X,Y Toolchange: 0.0000, 0.0000 mm)
(Z Start: None mm)
(Z End: 5.0 mm)
(X,Y End: None mm)
(Steps per circle: 64)
(Preprocessor Excellon: default)

(X range:    8.2547 ...   48.0537  mm)
(Y range:    9.1560 ...   61.1560  mm)

(Spindle Speed: 1000 RPM)
G21
G90
G94

G01 F150.00

M5
G00 Z5.0000
T1
G00 X0.0000 Y0.0000                
M6
(MSG, Change to Tool Dia = 0.8000 ||| Total drills for tool T1 = 58)
M0
G00 Z5.0000

G01 F150.00
M03 S1000
G4 P1
G00 X47.6537 Y46.6730
G01 Z-1.8000
G01 Z0
G00 Z2.0000
G00 X47.6537 Y44.1330
G01 Z-1.8000
G01 Z0
G00 Z2.0000
G00 X47.6537 Y41.5930
G01 Z-1.8000
G01 Z0
G00 Z2.0000
G00 X47.6537 Y39.0530
G01 Z-1.8000
G01 Z0
G00 Z2.0000
G00 X47.6537 Y36.5130
G01 Z-1.8000
G01 Z0
G00 Z2.0000
G00 X47.6537 Y33.9730
G01 Z-1.8000
G01 Z0
G00 Z2.0000
G00 X47.6537 Y31.4330
G01 Z-1.8000
G01 Z0
G00 Z2.0000
G00 X47.6537 Y28.8930
G01 Z-1.8000
G01 Z0
G00 Z2.0000
G00 X47.6537 Y26.3530
G01 Z-1.8000
G01 Z0
G00 Z2.0000
G00 X47.6537 Y23.8130
G01 Z-1.8000
G01 Z0
G00 Z2.0000
G00 X45.1137 Y23.8130
G01 Z-1.8000
G01 Z0
G00 Z2.0000
G00 X45.1137 Y26.3530
G01 Z-1.8000
G01 Z0
G00 Z2.0000
G00 X45.1137 Y28.8930
G01 Z-1.8000
G01 Z0
G00 Z2.0000
G00 X45.1137 Y31.4330
G01 Z-1.8000
G01 Z0
G00 Z2.0000
G00 X45.1137 Y33.9730
G01 Z-1.8000
G01 Z0
G00 Z2.0000
G00 X45.1137 Y36.5130
G01 Z-1.8000
G01 Z0
G00 Z2.0000
G00 X45.1137 Y39.0530
G01 Z-1.8000
G01 Z0
G00 Z2.0000
G00 X45.1137 Y41.5930
G01 Z-1.8000
G01 Z0
G00 Z2.0000
G00 X45.1137 Y44.1330
G01 Z-1.8000
G01 Z0
G00 Z2.0000
G00 X22.2537 Y44.1330
G01 Z-1.8000
G01 Z0
G00 Z2.0000
G00 X22.2537 Y41.5930
G01 Z-1.8000
G01 Z0
G00 Z2.0000
G00 X22.2537 Y39.0530
G01 Z-1.8000
G01 Z0
G00 Z2.0000
G00 X22.2537 Y36.5130
G01 Z-1.8000
G01 Z0
G00 Z2.0000
G00 X22.2537 Y33.9730
G01 Z-1.8000
G01 Z0
G00 Z2.0000
G00 X22.2537 Y31.4330
G01 Z-1.8000
G01 Z0
G00 Z2.0000
G00 X22.2537 Y28.8930
G01 Z-1.8000
G01 Z0
G00 Z2.0000
G00 X22.2537 Y26.3530
G01 Z-1.8000
G01 Z0
G00 Z2.0000
G00 X22.2537 Y23.8130
G01 Z-1.8000
G01 Z0
G00 Z2.0000
G00 X16.4547 Y9.8560
G01 Z-1.8000
G01 Z0
G00 Z2.0000
G00 X8.9547 Y9.8560
G01 Z-1.8000
G01 Z0
G00 Z2.0000
G00 X19.7137 Y23.8130
G01 Z-1.8000
G01 Z0
G00 Z2.0000
G00 X19.7137 Y26.3530
G01 Z-1.8000
G01 Z0
G00 Z2.0000
G00 X19.7137 Y28.8930
G01 Z-1.8000
G01 Z0
G00 Z2.0000
G00 X19.7137 Y31.4330
G01 Z-1.8000
G01 Z0
G00 Z2.0000
G00 X19.7137 Y33.9730
G01 Z-1.8000
G01 Z0
G00 Z2.0000
G00 X19.7137 Y36.5130
G01 Z-1.8000
G01 Z0
G00 Z2.0000
G00 X19.7137 Y39.0530
G01 Z-1.8000
G01 Z0
G00 Z2.0000
G00 X19.7137 Y41.5930
G01 Z-1.8000
G01 Z0
G00 Z2.0000
G00 X19.7137 Y44.1330
G01 Z-1.8000
G01 Z0
G00 Z2.0000
G00 X19.7137 Y46.6730
G01 Z-1.8000
G01 Z0
G00 Z2.0000
G00 X22.2537 Y46.6730
G01 Z-1.8000
G01 Z0
G00 Z2.0000
G00 X27.2427 Y58.1160
G01 Z-1.8000
G01 Z0
G00 Z2.0000
G00 X24.7027 Y58.1160
G01 Z-1.8000
G01 Z0
G00 Z2.0000
G00 X24.7027 Y60.6560
G01 Z-1.8000
G01 Z0
G00 Z2.0000
G00 X27.2427 Y60.6560
G01 Z-1.8000
G01 Z0
G00 Z2.0000
G00 X29.7827 Y60.6560
G01 Z-1.8000
G01 Z0
G00 Z2.0000
G00 X29.7827 Y58.1160
G01 Z-1.8000
G01 Z0
G00 Z2.0000
G00 X32.3227 Y58.1160
G01 Z-1.8000
G01 Z0
G00 Z2.0000
G00 X34.8627 Y58.1160
G01 Z-1.8000
G01 Z0
G00 Z2.0000
G00 X32.3227 Y60.6560
G01 Z-1.8000
G01 Z0
G00 Z2.0000
G00 X34.8627 Y60.6560
G01 Z-1.8000
G01 Z0
G00 Z2.0000
G00 X37.4027 Y60.6560
G01 Z-1.8000
G01 Z0
G00 Z2.0000
G00 X39.9427 Y60.6560
G01 Z-1.8000
G01 Z0
G00 Z2.0000
G00 X42.4827 Y60.6560
G01 Z-1.8000
G01 Z0
G00 Z2.0000
G00 X42.4827 Y58.1160
G01 Z-1.8000
G01 Z0
G00 Z2.0000
G00 X39.9427 Y58.1160
G01 Z-1.8000
G01 Z0
G00 Z2.0000
G00 X37.4027 Y58.1160
G01 Z-1.8000
G01 Z0
G00 Z2.0000
G00 X45.1137 Y46.6730
G01 Z-1.8000
G01 Z0
G00 Z2.0000
M05
G00 Z5.00


