(G-CODE GENERATED BY FLATCAM v8.994 - www.flatcam.org - Version Date: 2020/11/7)

(Name: MatrixDisplay.drl_cnc)
(Type: G-code from Geometry)
(Units: MM)

(Created on Saturday, 23 April 2022 at 19:52)

(This preprocessor is the default preprocessor used by FlatCAM.)
(It is made to work with MACH3 compatible motion controllers.)


(TOOLS DIAMETER: )
(Tool: 1 -> Dia: 0.8)
(Tool: 2 -> Dia: 1.0)
(Tool: 3 -> Dia: 1.4)

(FEEDRATE Z: )
(Tool: 1 -> Feedrate: 200.0)
(Tool: 2 -> Feedrate: 200.0)
(Tool: 3 -> Feedrate: 200.0)

(FEEDRATE RAPIDS: )
(Tool: 1 -> Feedrate Rapids: 1500)
(Tool: 2 -> Feedrate Rapids: 1500)
(Tool: 3 -> Feedrate Rapids: 1500)

(Z_CUT: )
(Tool: 1 -> Z_Cut: -1.8)
(Tool: 2 -> Z_Cut: -1.8)
(Tool: 3 -> Z_Cut: -1.8)

(Tools Offset: )
(Tool: 1 -> Offset Z: 0.0)
(Tool: 2 -> Offset Z: 0.0)
(Tool: 3 -> Offset Z: 0.0)

(Z_MOVE: )
(Tool: 1 -> Z_Move: 2)
(Tool: 2 -> Z_Move: 2)
(Tool: 3 -> Z_Move: 2)

(Z Toolchange: 5.0 mm)
(X,Y Toolchange: 0.0000, 0.0000 mm)
(Z Start: None mm)
(Z End: 5.0 mm)
(X,Y End: None mm)
(Steps per circle: 64)
(Preprocessor Excellon: Default_no_M6)

(X range:    7.1000 ...   48.8110  mm)
(Y range:    7.1000 ...   61.6400  mm)

(Spindle Speed: 1000 RPM)
G21
G90
G94

G01 F200.00

M5
G00 Z5.0000
T1
G00 X0.0000 Y0.0000                
(MSG, Change to Tool Dia = 0.8000 ||| Total drills for tool T1 = 58)
M0
G00 Z5.0000
        
G01 F200.00
M03 S1000
G4 P1
G00 X48.4110 Y47.1570
G01 Z-1.8000
G01 Z0
G00 Z2.0000
G00 X48.4110 Y44.6170
G01 Z-1.8000
G01 Z0
G00 Z2.0000
G00 X48.4110 Y42.0770
G01 Z-1.8000
G01 Z0
G00 Z2.0000
G00 X48.4110 Y39.5370
G01 Z-1.8000
G01 Z0
G00 Z2.0000
G00 X48.4110 Y36.9970
G01 Z-1.8000
G01 Z0
G00 Z2.0000
G00 X48.4110 Y34.4570
G01 Z-1.8000
G01 Z0
G00 Z2.0000
G00 X48.4110 Y31.9170
G01 Z-1.8000
G01 Z0
G00 Z2.0000
G00 X48.4110 Y29.3770
G01 Z-1.8000
G01 Z0
G00 Z2.0000
G00 X48.4110 Y26.8370
G01 Z-1.8000
G01 Z0
G00 Z2.0000
G00 X48.4110 Y24.2970
G01 Z-1.8000
G01 Z0
G00 Z2.0000
G00 X45.8710 Y24.2970
G01 Z-1.8000
G01 Z0
G00 Z2.0000
G00 X45.8710 Y26.8370
G01 Z-1.8000
G01 Z0
G00 Z2.0000
G00 X45.8710 Y29.3770
G01 Z-1.8000
G01 Z0
G00 Z2.0000
G00 X45.8710 Y31.9170
G01 Z-1.8000
G01 Z0
G00 Z2.0000
G00 X45.8710 Y34.4570
G01 Z-1.8000
G01 Z0
G00 Z2.0000
G00 X45.8710 Y36.9970
G01 Z-1.8000
G01 Z0
G00 Z2.0000
G00 X45.8710 Y39.5370
G01 Z-1.8000
G01 Z0
G00 Z2.0000
G00 X45.8710 Y42.0770
G01 Z-1.8000
G01 Z0
G00 Z2.0000
G00 X45.8710 Y44.6170
G01 Z-1.8000
G01 Z0
G00 Z2.0000
G00 X23.0110 Y44.6170
G01 Z-1.8000
G01 Z0
G00 Z2.0000
G00 X23.0110 Y42.0770
G01 Z-1.8000
G01 Z0
G00 Z2.0000
G00 X23.0110 Y39.5370
G01 Z-1.8000
G01 Z0
G00 Z2.0000
G00 X23.0110 Y36.9970
G01 Z-1.8000
G01 Z0
G00 Z2.0000
G00 X23.0110 Y34.4570
G01 Z-1.8000
G01 Z0
G00 Z2.0000
G00 X23.0110 Y31.9170
G01 Z-1.8000
G01 Z0
G00 Z2.0000
G00 X23.0110 Y29.3770
G01 Z-1.8000
G01 Z0
G00 Z2.0000
G00 X23.0110 Y26.8370
G01 Z-1.8000
G01 Z0
G00 Z2.0000
G00 X23.0110 Y24.2970
G01 Z-1.8000
G01 Z0
G00 Z2.0000
G00 X15.3000 Y7.8000
G01 Z-1.8000
G01 Z0
G00 Z2.0000
G00 X7.8000 Y7.8000
G01 Z-1.8000
G01 Z0
G00 Z2.0000
G00 X20.4710 Y24.2970
G01 Z-1.8000
G01 Z0
G00 Z2.0000
G00 X20.4710 Y26.8370
G01 Z-1.8000
G01 Z0
G00 Z2.0000
G00 X20.4710 Y29.3770
G01 Z-1.8000
G01 Z0
G00 Z2.0000
G00 X20.4710 Y31.9170
G01 Z-1.8000
G01 Z0
G00 Z2.0000
G00 X20.4710 Y34.4570
G01 Z-1.8000
G01 Z0
G00 Z2.0000
G00 X20.4710 Y36.9970
G01 Z-1.8000
G01 Z0
G00 Z2.0000
G00 X20.4710 Y39.5370
G01 Z-1.8000
G01 Z0
G00 Z2.0000
G00 X20.4710 Y42.0770
G01 Z-1.8000
G01 Z0
G00 Z2.0000
G00 X20.4710 Y44.6170
G01 Z-1.8000
G01 Z0
G00 Z2.0000
G00 X20.4710 Y47.1570
G01 Z-1.8000
G01 Z0
G00 Z2.0000
G00 X23.0110 Y47.1570
G01 Z-1.8000
G01 Z0
G00 Z2.0000
G00 X28.0000 Y58.6000
G01 Z-1.8000
G01 Z0
G00 Z2.0000
G00 X25.4600 Y58.6000
G01 Z-1.8000
G01 Z0
G00 Z2.0000
G00 X25.4600 Y61.1400
G01 Z-1.8000
G01 Z0
G00 Z2.0000
G00 X28.0000 Y61.1400
G01 Z-1.8000
G01 Z0
G00 Z2.0000
G00 X30.5400 Y61.1400
G01 Z-1.8000
G01 Z0
G00 Z2.0000
G00 X30.5400 Y58.6000
G01 Z-1.8000
G01 Z0
G00 Z2.0000
G00 X33.0800 Y58.6000
G01 Z-1.8000
G01 Z0
G00 Z2.0000
G00 X35.6200 Y58.6000
G01 Z-1.8000
G01 Z0
G00 Z2.0000
G00 X33.0800 Y61.1400
G01 Z-1.8000
G01 Z0
G00 Z2.0000
G00 X35.6200 Y61.1400
G01 Z-1.8000
G01 Z0
G00 Z2.0000
G00 X38.1600 Y61.1400
G01 Z-1.8000
G01 Z0
G00 Z2.0000
G00 X40.7000 Y61.1400
G01 Z-1.8000
G01 Z0
G00 Z2.0000
G00 X43.2400 Y61.1400
G01 Z-1.8000
G01 Z0
G00 Z2.0000
G00 X43.2400 Y58.6000
G01 Z-1.8000
G01 Z0
G00 Z2.0000
G00 X40.7000 Y58.6000
G01 Z-1.8000
G01 Z0
G00 Z2.0000
G00 X38.1600 Y58.6000
G01 Z-1.8000
G01 Z0
G00 Z2.0000
G00 X45.8710 Y47.1570
G01 Z-1.8000
G01 Z0
G00 Z2.0000
M05
G00 Z5.00


