(G-CODE GENERATED BY FLATCAM v8.994 - www.flatcam.org - Version Date: 2020/11/7)

(Name: MatrixDisplay.drl_cnc)
(Type: G-code from Geometry)
(Units: MM)

(Created on Friday, 22 April 2022 at 16:27)

(This preprocessor is the default preprocessor used by FlatCAM.)
(It is made to work with MACH3 compatible motion controllers.)


(TOOLS DIAMETER: )
(Tool: 1 -> Dia: 0.8)
(Tool: 2 -> Dia: 1.0)
(Tool: 3 -> Dia: 1.4)

(FEEDRATE Z: )
(Tool: 1 -> Feedrate: 200.0)
(Tool: 2 -> Feedrate: 200.0)
(Tool: 3 -> Feedrate: 200.0)

(FEEDRATE RAPIDS: )
(Tool: 1 -> Feedrate Rapids: 1500)
(Tool: 2 -> Feedrate Rapids: 1500)
(Tool: 3 -> Feedrate Rapids: 1500)

(Z_CUT: )
(Tool: 1 -> Z_Cut: -1.8)
(Tool: 2 -> Z_Cut: -1.8)
(Tool: 3 -> Z_Cut: -1.8)

(Tools Offset: )
(Tool: 1 -> Offset Z: 0.0)
(Tool: 2 -> Offset Z: 0.0)
(Tool: 3 -> Offset Z: 0.0)

(Z_MOVE: )
(Tool: 1 -> Z_Move: 2)
(Tool: 2 -> Z_Move: 2)
(Tool: 3 -> Z_Move: 2)

(Z Toolchange: 5.0 mm)
(X,Y Toolchange: 0.0000, 0.0000 mm)
(Z Start: None mm)
(Z End: 5.0 mm)
(X,Y End: None mm)
(Steps per circle: 64)
(Preprocessor Excellon: Default_no_M6)

(X range:    7.1403 ...   48.8513  mm)
(Y range:    8.6160 ...   63.1560  mm)

(Spindle Speed: 1000 RPM)
G21
G90
G94

G01 F200.00

M5
G00 Z5.0000
T1
G00 X0.0000 Y0.0000                
(MSG, Change to Tool Dia = 0.8000 ||| Total drills for tool T1 = 58)
M0
G00 Z5.0000
        
G01 F200.00
M03 S1000
G4 P1
G00 X48.4513 Y48.6730
G01 Z-1.8000
G01 Z0
G00 Z2.0000
G00 X48.4513 Y46.1330
G01 Z-1.8000
G01 Z0
G00 Z2.0000
G00 X48.4513 Y43.5930
G01 Z-1.8000
G01 Z0
G00 Z2.0000
G00 X48.4513 Y41.0530
G01 Z-1.8000
G01 Z0
G00 Z2.0000
G00 X48.4513 Y38.5130
G01 Z-1.8000
G01 Z0
G00 Z2.0000
G00 X48.4513 Y35.9730
G01 Z-1.8000
G01 Z0
G00 Z2.0000
G00 X48.4513 Y33.4330
G01 Z-1.8000
G01 Z0
G00 Z2.0000
G00 X48.4513 Y30.8930
G01 Z-1.8000
G01 Z0
G00 Z2.0000
G00 X48.4513 Y28.3530
G01 Z-1.8000
G01 Z0
G00 Z2.0000
G00 X48.4513 Y25.8130
G01 Z-1.8000
G01 Z0
G00 Z2.0000
G00 X45.9113 Y25.8130
G01 Z-1.8000
G01 Z0
G00 Z2.0000
G00 X45.9113 Y28.3530
G01 Z-1.8000
G01 Z0
G00 Z2.0000
G00 X45.9113 Y30.8930
G01 Z-1.8000
G01 Z0
G00 Z2.0000
G00 X45.9113 Y33.4330
G01 Z-1.8000
G01 Z0
G00 Z2.0000
G00 X45.9113 Y35.9730
G01 Z-1.8000
G01 Z0
G00 Z2.0000
G00 X45.9113 Y38.5130
G01 Z-1.8000
G01 Z0
G00 Z2.0000
G00 X45.9113 Y41.0530
G01 Z-1.8000
G01 Z0
G00 Z2.0000
G00 X45.9113 Y43.5930
G01 Z-1.8000
G01 Z0
G00 Z2.0000
G00 X45.9113 Y46.1330
G01 Z-1.8000
G01 Z0
G00 Z2.0000
G00 X23.0513 Y46.1330
G01 Z-1.8000
G01 Z0
G00 Z2.0000
G00 X23.0513 Y43.5930
G01 Z-1.8000
G01 Z0
G00 Z2.0000
G00 X23.0513 Y41.0530
G01 Z-1.8000
G01 Z0
G00 Z2.0000
G00 X23.0513 Y38.5130
G01 Z-1.8000
G01 Z0
G00 Z2.0000
G00 X23.0513 Y35.9730
G01 Z-1.8000
G01 Z0
G00 Z2.0000
G00 X23.0513 Y33.4330
G01 Z-1.8000
G01 Z0
G00 Z2.0000
G00 X23.0513 Y30.8930
G01 Z-1.8000
G01 Z0
G00 Z2.0000
G00 X23.0513 Y28.3530
G01 Z-1.8000
G01 Z0
G00 Z2.0000
G00 X23.0513 Y25.8130
G01 Z-1.8000
G01 Z0
G00 Z2.0000
G00 X15.3403 Y9.3160
G01 Z-1.8000
G01 Z0
G00 Z2.0000
G00 X7.8403 Y9.3160
G01 Z-1.8000
G01 Z0
G00 Z2.0000
G00 X20.5113 Y25.8130
G01 Z-1.8000
G01 Z0
G00 Z2.0000
G00 X20.5113 Y28.3530
G01 Z-1.8000
G01 Z0
G00 Z2.0000
G00 X20.5113 Y30.8930
G01 Z-1.8000
G01 Z0
G00 Z2.0000
G00 X20.5113 Y33.4330
G01 Z-1.8000
G01 Z0
G00 Z2.0000
G00 X20.5113 Y35.9730
G01 Z-1.8000
G01 Z0
G00 Z2.0000
G00 X20.5113 Y38.5130
G01 Z-1.8000
G01 Z0
G00 Z2.0000
G00 X20.5113 Y41.0530
G01 Z-1.8000
G01 Z0
G00 Z2.0000
G00 X20.5113 Y43.5930
G01 Z-1.8000
G01 Z0
G00 Z2.0000
G00 X20.5113 Y46.1330
G01 Z-1.8000
G01 Z0
G00 Z2.0000
G00 X20.5113 Y48.6730
G01 Z-1.8000
G01 Z0
G00 Z2.0000
G00 X23.0513 Y48.6730
G01 Z-1.8000
G01 Z0
G00 Z2.0000
G00 X28.0403 Y60.1160
G01 Z-1.8000
G01 Z0
G00 Z2.0000
G00 X25.5003 Y60.1160
G01 Z-1.8000
G01 Z0
G00 Z2.0000
G00 X25.5003 Y62.6560
G01 Z-1.8000
G01 Z0
G00 Z2.0000
G00 X28.0403 Y62.6560
G01 Z-1.8000
G01 Z0
G00 Z2.0000
G00 X30.5803 Y62.6560
G01 Z-1.8000
G01 Z0
G00 Z2.0000
G00 X30.5803 Y60.1160
G01 Z-1.8000
G01 Z0
G00 Z2.0000
G00 X33.1203 Y60.1160
G01 Z-1.8000
G01 Z0
G00 Z2.0000
G00 X35.6603 Y60.1160
G01 Z-1.8000
G01 Z0
G00 Z2.0000
G00 X33.1203 Y62.6560
G01 Z-1.8000
G01 Z0
G00 Z2.0000
G00 X35.6603 Y62.6560
G01 Z-1.8000
G01 Z0
G00 Z2.0000
G00 X38.2003 Y62.6560
G01 Z-1.8000
G01 Z0
G00 Z2.0000
G00 X40.7403 Y62.6560
G01 Z-1.8000
G01 Z0
G00 Z2.0000
G00 X43.2803 Y62.6560
G01 Z-1.8000
G01 Z0
G00 Z2.0000
G00 X43.2803 Y60.1160
G01 Z-1.8000
G01 Z0
G00 Z2.0000
G00 X40.7403 Y60.1160
G01 Z-1.8000
G01 Z0
G00 Z2.0000
G00 X38.2003 Y60.1160
G01 Z-1.8000
G01 Z0
G00 Z2.0000
G00 X45.9113 Y48.6730
G01 Z-1.8000
G01 Z0
G00 Z2.0000
M05
G00 Z5.00


