(G-CODE GENERATED BY FLATCAM v8.994 - www.flatcam.org - Version Date: 2020/11/7)

(Name: MatrixDisplay-B_Cu.gbr_cutout_cnc)
(Type: G-code from Geometry)
(Units: MM)

(Created on Saturday, 23 April 2022 at 19:59)

(This preprocessor is the default preprocessor used by FlatCAM.)
(It is made to work with MACH3 compatible motion controllers.)

(TOOL DIAMETER: 1.2 mm)
(Feedrate_XY: 100.0 mm/min)
(Feedrate_Z: 60.0 mm/min)
(Feedrate rapids 1500.0 mm/min)

(Z_Cut: -1.8 mm)
(DepthPerCut: 0.5 mm <=>4 passes)
(Z_Move: 2.0 mm)
(Z Start: None mm)
(Z End: 5.0 mm)
(X,Y End: None mm)
(Steps per circle: 64)
(Preprocessor Geometry: Default_no_M6)

(X range:    3.4000 ...   57.2661  mm)
(Y range:    3.4000 ...   68.8887  mm)

(Spindle Speed: 1000.0 RPM)
G21
G90
G94

G01 F100.00

M5
G00 Z15.0000
G00 X0.0000 Y0.0000
T1
(MSG, Change to Tool Dia = 1.2000)
M0
G00 Z15.0000
        
M03 S1000.0
G4 P1.0
G01 F100.00
G00 X31.4831 Y3.4000
G01 F60.00
G01 Z-0.5000
G01 F100.00
G01 X6.0000 Y3.4000
G01 X5.7452 Y3.4125
G01 X5.4928 Y3.4500
G01 X5.2453 Y3.5120
G01 X5.0050 Y3.5979
G01 X4.7744 Y3.7070
G01 X4.5555 Y3.8382
G01 X4.3506 Y3.9902
G01 X4.1615 Y4.1615
G01 X3.9902 Y4.3506
G01 X3.8382 Y4.5555
G01 X3.7070 Y4.7744
G01 X3.5979 Y5.0050
G01 X3.5120 Y5.2453
G01 X3.4500 Y5.4928
G01 X3.4125 Y5.7452
G01 X3.4000 Y6.0000
G01 X3.4000 Y37.2943
G00 X3.4000 Y37.2943
G01 F60.00
G01 Z-1.0000
G01 F100.00
G01 X3.4000 Y6.0000
G01 X3.4125 Y5.7452
G01 X3.4500 Y5.4928
G01 X3.5120 Y5.2453
G01 X3.5979 Y5.0050
G01 X3.7070 Y4.7744
G01 X3.8382 Y4.5555
G01 X3.9902 Y4.3506
G01 X4.1615 Y4.1615
G01 X4.3506 Y3.9902
G01 X4.5555 Y3.8382
G01 X4.7744 Y3.7070
G01 X5.0050 Y3.5979
G01 X5.2453 Y3.5120
G01 X5.4928 Y3.4500
G01 X5.7452 Y3.4125
G01 X6.0000 Y3.4000
G01 X31.4831 Y3.4000
G00 X31.4831 Y3.4000
G01 F60.00
G01 Z-1.5000
G01 F100.00
G01 X6.0000 Y3.4000
G01 X5.7452 Y3.4125
G01 X5.4928 Y3.4500
G01 X5.2453 Y3.5120
G01 X5.0050 Y3.5979
G01 X4.7744 Y3.7070
G01 X4.5555 Y3.8382
G01 X4.3506 Y3.9902
G01 X4.1615 Y4.1615
G01 X3.9902 Y4.3506
G01 X3.8382 Y4.5555
G01 X3.7070 Y4.7744
G01 X3.5979 Y5.0050
G01 X3.5120 Y5.2453
G01 X3.4500 Y5.4928
G01 X3.4125 Y5.7452
G01 X3.4000 Y6.0000
G01 X3.4000 Y37.2943
G00 X3.4000 Y37.2943
G01 F60.00
G01 Z-1.8000
G01 F100.00
G01 X3.4000 Y6.0000
G01 X3.4125 Y5.7452
G01 X3.4500 Y5.4928
G01 X3.5120 Y5.2453
G01 X3.5979 Y5.0050
G01 X3.7070 Y4.7744
G01 X3.8382 Y4.5555
G01 X3.9902 Y4.3506
G01 X4.1615 Y4.1615
G01 X4.3506 Y3.9902
G01 X4.5555 Y3.8382
G01 X4.7744 Y3.7070
G01 X5.0050 Y3.5979
G01 X5.2453 Y3.5120
G01 X5.4928 Y3.4500
G01 X5.7452 Y3.4125
G01 X6.0000 Y3.4000
G01 X31.4831 Y3.4000
G00 Z2.0000
G00 X3.4000 Y38.9943
G01 F60.00
G01 Z-0.5000
G01 F100.00
G01 X3.4000 Y66.2887
G01 X3.4125 Y66.5435
G01 X3.4500 Y66.7959
G01 X3.5120 Y67.0434
G01 X3.5979 Y67.2837
G01 X3.7070 Y67.5143
G01 X3.8382 Y67.7332
G01 X3.9902 Y67.9381
G01 X4.1615 Y68.1272
G01 X4.3506 Y68.2985
G01 X4.5555 Y68.4505
G01 X4.7744 Y68.5817
G01 X5.0050 Y68.6908
G01 X5.2453 Y68.7767
G01 X5.4928 Y68.8387
G01 X5.7452 Y68.8762
G01 X6.0000 Y68.8887
G01 X31.4831 Y68.8887
G00 X31.4831 Y68.8887
G01 F60.00
G01 Z-1.0000
G01 F100.00
G01 X6.0000 Y68.8887
G01 X5.7452 Y68.8762
G01 X5.4928 Y68.8387
G01 X5.2453 Y68.7767
G01 X5.0050 Y68.6908
G01 X4.7744 Y68.5817
G01 X4.5555 Y68.4505
G01 X4.3506 Y68.2985
G01 X4.1615 Y68.1272
G01 X3.9902 Y67.9381
G01 X3.8382 Y67.7332
G01 X3.7070 Y67.5143
G01 X3.5979 Y67.2837
G01 X3.5120 Y67.0434
G01 X3.4500 Y66.7959
G01 X3.4125 Y66.5435
G01 X3.4000 Y66.2887
G01 X3.4000 Y38.9943
G00 X3.4000 Y38.9943
G01 F60.00
G01 Z-1.5000
G01 F100.00
G01 X3.4000 Y66.2887
G01 X3.4125 Y66.5435
G01 X3.4500 Y66.7959
G01 X3.5120 Y67.0434
G01 X3.5979 Y67.2837
G01 X3.7070 Y67.5143
G01 X3.8382 Y67.7332
G01 X3.9902 Y67.9381
G01 X4.1615 Y68.1272
G01 X4.3506 Y68.2985
G01 X4.5555 Y68.4505
G01 X4.7744 Y68.5817
G01 X5.0050 Y68.6908
G01 X5.2453 Y68.7767
G01 X5.4928 Y68.8387
G01 X5.7452 Y68.8762
G01 X6.0000 Y68.8887
G01 X31.4831 Y68.8887
G00 X31.4831 Y68.8887
G01 F60.00
G01 Z-1.8000
G01 F100.00
G01 X6.0000 Y68.8887
G01 X5.7452 Y68.8762
G01 X5.4928 Y68.8387
G01 X5.2453 Y68.7767
G01 X5.0050 Y68.6908
G01 X4.7744 Y68.5817
G01 X4.5555 Y68.4505
G01 X4.3506 Y68.2985
G01 X4.1615 Y68.1272
G01 X3.9902 Y67.9381
G01 X3.8382 Y67.7332
G01 X3.7070 Y67.5143
G01 X3.5979 Y67.2837
G01 X3.5120 Y67.0434
G01 X3.4500 Y66.7959
G01 X3.4125 Y66.5435
G01 X3.4000 Y66.2887
G01 X3.4000 Y38.9943
G00 Z2.0000
G00 X33.1831 Y68.8887
G01 F60.00
G01 Z-0.5000
G01 F100.00
G01 X54.6661 Y68.8887
G01 X54.9210 Y68.8762
G01 X55.1734 Y68.8387
G01 X55.4209 Y68.7767
G01 X55.6611 Y68.6908
G01 X55.8918 Y68.5817
G01 X56.1106 Y68.4505
G01 X56.3155 Y68.2985
G01 X56.5046 Y68.1272
G01 X56.6760 Y67.9381
G01 X56.8279 Y67.7332
G01 X56.9591 Y67.5143
G01 X57.0682 Y67.2837
G01 X57.1542 Y67.0434
G01 X57.2162 Y66.7959
G01 X57.2536 Y66.5435
G01 X57.2661 Y66.2887
G01 X57.2661 Y38.9943
G00 X57.2661 Y38.9943
G01 F60.00
G01 Z-1.0000
G01 F100.00
G01 X57.2661 Y66.2887
G01 X57.2536 Y66.5435
G01 X57.2162 Y66.7959
G01 X57.1542 Y67.0434
G01 X57.0682 Y67.2837
G01 X56.9591 Y67.5143
G01 X56.8279 Y67.7332
G01 X56.6760 Y67.9381
G01 X56.5046 Y68.1272
G01 X56.3155 Y68.2985
G01 X56.1106 Y68.4505
G01 X55.8918 Y68.5817
G01 X55.6611 Y68.6908
G01 X55.4209 Y68.7767
G01 X55.1734 Y68.8387
G01 X54.9210 Y68.8762
G01 X54.6661 Y68.8887
G01 X33.1831 Y68.8887
G00 X33.1831 Y68.8887
G01 F60.00
G01 Z-1.5000
G01 F100.00
G01 X54.6661 Y68.8887
G01 X54.9210 Y68.8762
G01 X55.1734 Y68.8387
G01 X55.4209 Y68.7767
G01 X55.6611 Y68.6908
G01 X55.8918 Y68.5817
G01 X56.1106 Y68.4505
G01 X56.3155 Y68.2985
G01 X56.5046 Y68.1272
G01 X56.6760 Y67.9381
G01 X56.8279 Y67.7332
G01 X56.9591 Y67.5143
G01 X57.0682 Y67.2837
G01 X57.1542 Y67.0434
G01 X57.2162 Y66.7959
G01 X57.2536 Y66.5435
G01 X57.2661 Y66.2887
G01 X57.2661 Y38.9943
G00 X57.2661 Y38.9943
G01 F60.00
G01 Z-1.8000
G01 F100.00
G01 X57.2661 Y66.2887
G01 X57.2536 Y66.5435
G01 X57.2162 Y66.7959
G01 X57.1542 Y67.0434
G01 X57.0682 Y67.2837
G01 X56.9591 Y67.5143
G01 X56.8279 Y67.7332
G01 X56.6760 Y67.9381
G01 X56.5046 Y68.1272
G01 X56.3155 Y68.2985
G01 X56.1106 Y68.4505
G01 X55.8918 Y68.5817
G01 X55.6611 Y68.6908
G01 X55.4209 Y68.7767
G01 X55.1734 Y68.8387
G01 X54.9210 Y68.8762
G01 X54.6661 Y68.8887
G01 X33.1831 Y68.8887
G00 Z2.0000
G00 X57.2661 Y37.2943
G01 F60.00
G01 Z-0.5000
G01 F100.00
G01 X57.2661 Y6.0000
G01 X57.2536 Y5.7452
G01 X57.2162 Y5.4928
G01 X57.1542 Y5.2453
G01 X57.0682 Y5.0050
G01 X56.9591 Y4.7744
G01 X56.8279 Y4.5555
G01 X56.6760 Y4.3506
G01 X56.5046 Y4.1615
G01 X56.3155 Y3.9902
G01 X56.1106 Y3.8382
G01 X55.8918 Y3.7070
G01 X55.6611 Y3.5979
G01 X55.4209 Y3.5120
G01 X55.1734 Y3.4500
G01 X54.9210 Y3.4125
G01 X54.6661 Y3.4000
G01 X33.1831 Y3.4000
G00 X33.1831 Y3.4000
G01 F60.00
G01 Z-1.0000
G01 F100.00
G01 X54.6661 Y3.4000
G01 X54.9210 Y3.4125
G01 X55.1734 Y3.4500
G01 X55.4209 Y3.5120
G01 X55.6611 Y3.5979
G01 X55.8918 Y3.7070
G01 X56.1106 Y3.8382
G01 X56.3155 Y3.9902
G01 X56.5046 Y4.1615
G01 X56.6760 Y4.3506
G01 X56.8279 Y4.5555
G01 X56.9591 Y4.7744
G01 X57.0682 Y5.0050
G01 X57.1542 Y5.2453
G01 X57.2162 Y5.4928
G01 X57.2536 Y5.7452
G01 X57.2661 Y6.0000
G01 X57.2661 Y37.2943
G00 X57.2661 Y37.2943
G01 F60.00
G01 Z-1.5000
G01 F100.00
G01 X57.2661 Y6.0000
G01 X57.2536 Y5.7452
G01 X57.2162 Y5.4928
G01 X57.1542 Y5.2453
G01 X57.0682 Y5.0050
G01 X56.9591 Y4.7744
G01 X56.8279 Y4.5555
G01 X56.6760 Y4.3506
G01 X56.5046 Y4.1615
G01 X56.3155 Y3.9902
G01 X56.1106 Y3.8382
G01 X55.8918 Y3.7070
G01 X55.6611 Y3.5979
G01 X55.4209 Y3.5120
G01 X55.1734 Y3.4500
G01 X54.9210 Y3.4125
G01 X54.6661 Y3.4000
G01 X33.1831 Y3.4000
G00 X33.1831 Y3.4000
G01 F60.00
G01 Z-1.8000
G01 F100.00
G01 X54.6661 Y3.4000
G01 X54.9210 Y3.4125
G01 X55.1734 Y3.4500
G01 X55.4209 Y3.5120
G01 X55.6611 Y3.5979
G01 X55.8918 Y3.7070
G01 X56.1106 Y3.8382
G01 X56.3155 Y3.9902
G01 X56.5046 Y4.1615
G01 X56.6760 Y4.3506
G01 X56.8279 Y4.5555
G01 X56.9591 Y4.7744
G01 X57.0682 Y5.0050
G01 X57.1542 Y5.2453
G01 X57.2162 Y5.4928
G01 X57.2536 Y5.7452
G01 X57.2661 Y6.0000
G01 X57.2661 Y37.2943
G00 Z2.0000
M05
G00 Z2.0000
G00 Z5.00


