(G-CODE GENERATED BY FLATCAM v8.994 - www.flatcam.org - Version Date: 2020/11/7)

(Name: MatrixDisplay-B_Cu.gbr_cutout_cnc)
(Type: G-code from Geometry)
(Units: MM)

(Created on Friday, 22 April 2022 at 16:34)

(This preprocessor is the default preprocessor used by FlatCAM.)
(It is made to work with MACH3 compatible motion controllers.)

(TOOL DIAMETER: 1.2 mm)
(Feedrate_XY: 100.0 mm/min)
(Feedrate_Z: 60.0 mm/min)
(Feedrate rapids 1500.0 mm/min)

(Z_Cut: -1.8 mm)
(DepthPerCut: 0.5 mm <=>4 passes)
(Z_Move: 2.0 mm)
(Z Start: None mm)
(Z End: 5.0 mm)
(X,Y End: None mm)
(Steps per circle: 64)
(Preprocessor Geometry: Default_no_M6)

(X range:    2.9403 ...   60.1640  mm)
(Y range:    4.4160 ...   73.2682  mm)

(Spindle Speed: 1000.0 RPM)
G21
G90
G94

G01 F100.00

M5
G00 Z15.0000
G00 X0.0000 Y0.0000
T1
(MSG, Change to Tool Dia = 1.2000)
M0
G00 Z15.0000
        
M03 S1000.0
G4 P1.0
G01 F100.00
G00 X33.0521 Y4.4160
G01 F60.00
G01 Z-0.5000
G01 F100.00
G01 X6.0403 Y4.4160
G01 X5.7364 Y4.4309
G01 X5.4355 Y4.4756
G01 X5.1404 Y4.5495
G01 X4.8540 Y4.6520
G01 X4.5790 Y4.7820
G01 X4.3180 Y4.9384
G01 X4.0737 Y5.1197
G01 X3.8482 Y5.3240
G01 X3.6439 Y5.5494
G01 X3.4627 Y5.7937
G01 X3.3063 Y6.0547
G01 X3.1763 Y6.3297
G01 X3.0738 Y6.6161
G01 X2.9998 Y6.9112
G01 X2.9552 Y7.2121
G01 X2.9403 Y7.5160
G01 X2.9403 Y40.3421
G00 X2.9403 Y40.3421
G01 F60.00
G01 Z-1.0000
G01 F100.00
G01 X2.9403 Y7.5160
G01 X2.9552 Y7.2121
G01 X2.9998 Y6.9112
G01 X3.0738 Y6.6161
G01 X3.1763 Y6.3297
G01 X3.3063 Y6.0547
G01 X3.4627 Y5.7937
G01 X3.6439 Y5.5494
G01 X3.8482 Y5.3240
G01 X4.0737 Y5.1197
G01 X4.3180 Y4.9384
G01 X4.5790 Y4.7820
G01 X4.8540 Y4.6520
G01 X5.1404 Y4.5495
G01 X5.4355 Y4.4756
G01 X5.7364 Y4.4309
G01 X6.0403 Y4.4160
G01 X33.0521 Y4.4160
G00 X33.0521 Y4.4160
G01 F60.00
G01 Z-1.5000
G01 F100.00
G01 X6.0403 Y4.4160
G01 X5.7364 Y4.4309
G01 X5.4355 Y4.4756
G01 X5.1404 Y4.5495
G01 X4.8540 Y4.6520
G01 X4.5790 Y4.7820
G01 X4.3180 Y4.9384
G01 X4.0737 Y5.1197
G01 X3.8482 Y5.3240
G01 X3.6439 Y5.5494
G01 X3.4627 Y5.7937
G01 X3.3063 Y6.0547
G01 X3.1763 Y6.3297
G01 X3.0738 Y6.6161
G01 X2.9998 Y6.9112
G01 X2.9552 Y7.2121
G01 X2.9403 Y7.5160
G01 X2.9403 Y40.3421
G00 X2.9403 Y40.3421
G01 F60.00
G01 Z-1.8000
G01 F100.00
G01 X2.9403 Y7.5160
G01 X2.9552 Y7.2121
G01 X2.9998 Y6.9112
G01 X3.0738 Y6.6161
G01 X3.1763 Y6.3297
G01 X3.3063 Y6.0547
G01 X3.4627 Y5.7937
G01 X3.6439 Y5.5494
G01 X3.8482 Y5.3240
G01 X4.0737 Y5.1197
G01 X4.3180 Y4.9384
G01 X4.5790 Y4.7820
G01 X4.8540 Y4.6520
G01 X5.1404 Y4.5495
G01 X5.4355 Y4.4756
G01 X5.7364 Y4.4309
G01 X6.0403 Y4.4160
G01 X33.0521 Y4.4160
G00 Z2.0000
G00 X2.9403 Y42.3421
G01 F60.00
G01 Z-0.5000
G01 F100.00
G01 X2.9403 Y70.1682
G01 X2.9552 Y70.4721
G01 X2.9998 Y70.7730
G01 X3.0738 Y71.0681
G01 X3.1763 Y71.3545
G01 X3.3063 Y71.6295
G01 X3.4627 Y71.8905
G01 X3.6439 Y72.1348
G01 X3.8482 Y72.3602
G01 X4.0737 Y72.5645
G01 X4.3180 Y72.7458
G01 X4.5790 Y72.9022
G01 X4.8540 Y73.0322
G01 X5.1404 Y73.1347
G01 X5.4355 Y73.2086
G01 X5.7364 Y73.2533
G01 X6.0403 Y73.2682
G01 X33.0521 Y73.2682
G00 X33.0521 Y73.2682
G01 F60.00
G01 Z-1.0000
G01 F100.00
G01 X6.0403 Y73.2682
G01 X5.7364 Y73.2533
G01 X5.4355 Y73.2086
G01 X5.1404 Y73.1347
G01 X4.8540 Y73.0322
G01 X4.5790 Y72.9022
G01 X4.3180 Y72.7458
G01 X4.0737 Y72.5645
G01 X3.8482 Y72.3602
G01 X3.6439 Y72.1348
G01 X3.4627 Y71.8905
G01 X3.3063 Y71.6295
G01 X3.1763 Y71.3545
G01 X3.0738 Y71.0681
G01 X2.9998 Y70.7730
G01 X2.9552 Y70.4721
G01 X2.9403 Y70.1682
G01 X2.9403 Y42.3421
G00 X2.9403 Y42.3421
G01 F60.00
G01 Z-1.5000
G01 F100.00
G01 X2.9403 Y70.1682
G01 X2.9552 Y70.4721
G01 X2.9998 Y70.7730
G01 X3.0738 Y71.0681
G01 X3.1763 Y71.3545
G01 X3.3063 Y71.6295
G01 X3.4627 Y71.8905
G01 X3.6439 Y72.1348
G01 X3.8482 Y72.3602
G01 X4.0737 Y72.5645
G01 X4.3180 Y72.7458
G01 X4.5790 Y72.9022
G01 X4.8540 Y73.0322
G01 X5.1404 Y73.1347
G01 X5.4355 Y73.2086
G01 X5.7364 Y73.2533
G01 X6.0403 Y73.2682
G01 X33.0521 Y73.2682
G00 X33.0521 Y73.2682
G01 F60.00
G01 Z-1.8000
G01 F100.00
G01 X6.0403 Y73.2682
G01 X5.7364 Y73.2533
G01 X5.4355 Y73.2086
G01 X5.1404 Y73.1347
G01 X4.8540 Y73.0322
G01 X4.5790 Y72.9022
G01 X4.3180 Y72.7458
G01 X4.0737 Y72.5645
G01 X3.8482 Y72.3602
G01 X3.6439 Y72.1348
G01 X3.4627 Y71.8905
G01 X3.3063 Y71.6295
G01 X3.1763 Y71.3545
G01 X3.0738 Y71.0681
G01 X2.9998 Y70.7730
G01 X2.9552 Y70.4721
G01 X2.9403 Y70.1682
G01 X2.9403 Y42.3421
G00 Z2.0000
G00 X35.0521 Y73.2682
G01 F60.00
G01 Z-0.5000
G01 F100.00
G01 X57.0640 Y73.2682
G01 X57.3679 Y73.2533
G01 X57.6688 Y73.2086
G01 X57.9639 Y73.1347
G01 X58.2503 Y73.0322
G01 X58.5253 Y72.9022
G01 X58.7863 Y72.7458
G01 X59.0306 Y72.5645
G01 X59.2560 Y72.3602
G01 X59.4603 Y72.1348
G01 X59.6416 Y71.8905
G01 X59.7980 Y71.6295
G01 X59.9280 Y71.3545
G01 X60.0305 Y71.0681
G01 X60.1044 Y70.7730
G01 X60.1491 Y70.4721
G01 X60.1640 Y70.1682
G01 X60.1640 Y42.3421
G00 X60.1640 Y42.3421
G01 F60.00
G01 Z-1.0000
G01 F100.00
G01 X60.1640 Y70.1682
G01 X60.1491 Y70.4721
G01 X60.1044 Y70.7730
G01 X60.0305 Y71.0681
G01 X59.9280 Y71.3545
G01 X59.7980 Y71.6295
G01 X59.6416 Y71.8905
G01 X59.4603 Y72.1348
G01 X59.2560 Y72.3602
G01 X59.0306 Y72.5645
G01 X58.7863 Y72.7458
G01 X58.5253 Y72.9022
G01 X58.2503 Y73.0322
G01 X57.9639 Y73.1347
G01 X57.6688 Y73.2086
G01 X57.3679 Y73.2533
G01 X57.0640 Y73.2682
G01 X35.0521 Y73.2682
G00 X35.0521 Y73.2682
G01 F60.00
G01 Z-1.5000
G01 F100.00
G01 X57.0640 Y73.2682
G01 X57.3679 Y73.2533
G01 X57.6688 Y73.2086
G01 X57.9639 Y73.1347
G01 X58.2503 Y73.0322
G01 X58.5253 Y72.9022
G01 X58.7863 Y72.7458
G01 X59.0306 Y72.5645
G01 X59.2560 Y72.3602
G01 X59.4603 Y72.1348
G01 X59.6416 Y71.8905
G01 X59.7980 Y71.6295
G01 X59.9280 Y71.3545
G01 X60.0305 Y71.0681
G01 X60.1044 Y70.7730
G01 X60.1491 Y70.4721
G01 X60.1640 Y70.1682
G01 X60.1640 Y42.3421
G00 X60.1640 Y42.3421
G01 F60.00
G01 Z-1.8000
G01 F100.00
G01 X60.1640 Y70.1682
G01 X60.1491 Y70.4721
G01 X60.1044 Y70.7730
G01 X60.0305 Y71.0681
G01 X59.9280 Y71.3545
G01 X59.7980 Y71.6295
G01 X59.6416 Y71.8905
G01 X59.4603 Y72.1348
G01 X59.2560 Y72.3602
G01 X59.0306 Y72.5645
G01 X58.7863 Y72.7458
G01 X58.5253 Y72.9022
G01 X58.2503 Y73.0322
G01 X57.9639 Y73.1347
G01 X57.6688 Y73.2086
G01 X57.3679 Y73.2533
G01 X57.0640 Y73.2682
G01 X35.0521 Y73.2682
G00 Z2.0000
G00 X60.1640 Y40.3421
G01 F60.00
G01 Z-0.5000
G01 F100.00
G01 X60.1640 Y7.5160
G01 X60.1491 Y7.2121
G01 X60.1044 Y6.9112
G01 X60.0305 Y6.6161
G01 X59.9280 Y6.3297
G01 X59.7980 Y6.0547
G01 X59.6416 Y5.7937
G01 X59.4603 Y5.5494
G01 X59.2560 Y5.3240
G01 X59.0306 Y5.1197
G01 X58.7863 Y4.9384
G01 X58.5253 Y4.7820
G01 X58.2503 Y4.6520
G01 X57.9639 Y4.5495
G01 X57.6688 Y4.4756
G01 X57.3679 Y4.4309
G01 X57.0640 Y4.4160
G01 X35.0521 Y4.4160
G00 X35.0521 Y4.4160
G01 F60.00
G01 Z-1.0000
G01 F100.00
G01 X57.0640 Y4.4160
G01 X57.3679 Y4.4309
G01 X57.6688 Y4.4756
G01 X57.9639 Y4.5495
G01 X58.2503 Y4.6520
G01 X58.5253 Y4.7820
G01 X58.7863 Y4.9384
G01 X59.0306 Y5.1197
G01 X59.2560 Y5.3240
G01 X59.4603 Y5.5494
G01 X59.6416 Y5.7937
G01 X59.7980 Y6.0547
G01 X59.9280 Y6.3297
G01 X60.0305 Y6.6161
G01 X60.1044 Y6.9112
G01 X60.1491 Y7.2121
G01 X60.1640 Y7.5160
G01 X60.1640 Y40.3421
G00 X60.1640 Y40.3421
G01 F60.00
G01 Z-1.5000
G01 F100.00
G01 X60.1640 Y7.5160
G01 X60.1491 Y7.2121
G01 X60.1044 Y6.9112
G01 X60.0305 Y6.6161
G01 X59.9280 Y6.3297
G01 X59.7980 Y6.0547
G01 X59.6416 Y5.7937
G01 X59.4603 Y5.5494
G01 X59.2560 Y5.3240
G01 X59.0306 Y5.1197
G01 X58.7863 Y4.9384
G01 X58.5253 Y4.7820
G01 X58.2503 Y4.6520
G01 X57.9639 Y4.5495
G01 X57.6688 Y4.4756
G01 X57.3679 Y4.4309
G01 X57.0640 Y4.4160
G01 X35.0521 Y4.4160
G00 X35.0521 Y4.4160
G01 F60.00
G01 Z-1.8000
G01 F100.00
G01 X57.0640 Y4.4160
G01 X57.3679 Y4.4309
G01 X57.6688 Y4.4756
G01 X57.9639 Y4.5495
G01 X58.2503 Y4.6520
G01 X58.5253 Y4.7820
G01 X58.7863 Y4.9384
G01 X59.0306 Y5.1197
G01 X59.2560 Y5.3240
G01 X59.4603 Y5.5494
G01 X59.6416 Y5.7937
G01 X59.7980 Y6.0547
G01 X59.9280 Y6.3297
G01 X60.0305 Y6.6161
G01 X60.1044 Y6.9112
G01 X60.1491 Y7.2121
G01 X60.1640 Y7.5160
G01 X60.1640 Y40.3421
G00 Z2.0000
M05
G00 Z2.0000
G00 Z5.00


